argallab/potential_fields/data/planned_path.csv
time_s,ee_px,ee_py,ee_pz,ee_qx,ee_qy,ee_qz,ee_qw,ee_vx,ee_vy,ee_vz,fer_joint1,fer_joint2,fer_joint3,fer_joint4,fer_joint5,fer_joint6,fer_joint7
0.0,0.25608607854458465,1.3877787807814457e-16,0.6435326066809712,-0.6532286712482431,-0.2705761749619783,0.6533342893592287,0.27061992341598096,-0.9999999971369083,-2.328799926233808e-10,7.567154912031454e-05,0.0,-0.7853981633974483,0.0,-2.356194490192345,0.0,1.5707963267948966,0.7853981633974483
0.0009999275207519531,0.25608507854449253,-9.410213666764895e-17,0.6435326067566428,-0.6532286942018102,-0.27057618446965703,0.653334312316507,0.27061980308018346,-0.9999999971443438,3.870667939196899e-09,7.557322468867807e-05,1.839718231749044,-1.2644864083472769,-1.1331149248396426,-1.8887738490601274,0.763427798130904,0.7700048927533387,1.9999965847288794
0.002000093460083008,0.25508507849985074,3.870574020907094e-12,0.643532682329871,-0.6532745809095047,-0.27059519136631677,0.6533802064434523,0.27037912303809464,-0.9999999994217291,8.319663815092065e-06,-3.297461359006276e-05,1.8374383412613484,-1.2651942674340053,-1.131483635327997,-1.8922424682872234,0.7637583772805677,0.7710633251286911,1.9999965847288794
0.003000020980834961,0.25408507845293155,8.323534784275799e-09,0.6435326493552559,-0.6533204267875343,-0.27061418135077553,0.6534260597341311,0.2701384260973091,-0.9999999850903954,4.062249440875306e-05,-0.00016783629403504293,0.002017007095648379,-0.006736661301855982,-0.0013408987358837173,-1.57881151582207,-0.0019138725155205068,0.001397766729480443,-0.0012260250010394103
0.003999948501586914,0.2530850784203437,4.894603112249381e-08,0.6435324815189539,-0.6533662318330336,-0.2706331544218465,0.6534718721856777,0.26989771227287035,-0.9999999473413449,0.00010196756484554788,-0.0003080907712713715,0.0029644247453476796,-0.010094463858687655,-0.0019524175953816267,-1.5827913020473063,-0.0028260975582668057,0.0021600134846138097,-0.0017881783819799608
0.005000114440917969,0.2520850784255049,1.5091360081124112e-07,0.643532173428168,-0.6534119960431397,-0.27065211057834376,0.6535176437952285,0.2696569815798231,-0.9999998803225764,0.00017615570607556116,-0.0004564252405409109,0.0038752648240169972,-0.013446495950012924,-0.0025286394735439246,-1.5867553425956054,-0.003710694284446077,0.0029121855938891716,-0.002319036035480897
0.006000041961669922,0.2510850784976849,3.2706931525374935e-07,0.6435317170029058,-0.6534577194149923,-0.2706710498190826,0.6535633745599229,0.26941623403321296,-0.9999997728352386,0.00024687125039295796,-0.0006272033617349791,0.004752220893552166,-0.016792848998484624,-0.0030721885807776877,-1.5907037933273376,-0.0045691334875352105,0.003654350624845426,-0.002820388925482022
0.006999969482421875,0.25008507867735225,5.739405773724625e-07,0.6435310897995142,-0.6535034019457339,-0.2706899721428792,0.6536090644769027,0.2691754696480867,-0.9999996067319322,0.00030924609074602766,-0.0008312056521955089,0.005597833545841704,-0.020133622916289746,-0.003585540994069351,-1.5946368592772717,-0.0054029145471052266,0.004386616066064386,-0.003294023236405958
0.007999897003173828,0.24908507902312288,8.831866828068913e-07,0.6435302585938225,-0.6535490436325092,-0.2707088775485511,0.6536547135433123,0.2689346884394921,-0.9999993550700097,0.00036454632151779843,-0.0010756233280724023,0.006414495305554184,-0.023468923433163313,-0.004071029234859844,-1.5985547815737768,-0.006213447668903345,0.005109119070457968,-0.0037416051226282225
0.009000062942504883,0.24808507962055545,1.2477330216397108e-06,0.6435291829704434,-0.6535946444724656,-0.2707277660349166,0.6537003217562986,0.26869389042247793,-0.999998979945586,0.0004150869424502929,-0.0013666786813017239,0.007204422381655497,-0.02679885943806851,-0.0045308134671822545,-1.6024578244300658,-0.007002000277441827,0.005822016225599302,-0.004164630410535313
0.009999990463256836,0.24708508059311246,1.6628199838055755e-06,0.6435278162916972,-0.6536402044627531,-0.27074663760079526,0.6537458891130111,0.2684530756120941,-0.9999984249865297,0.0004632844418973736,-0.0017132985687850508,0.007969719516653144,-0.030123542212074517,-0.004966945904167104,-1.6063462713120482,-0.007769692628639825,0.0065254805951537875,-0.004564421273519371
0.010999917984008789,0.24608508212062855,2.1261044477077795e-06,0.643526102993047,-0.653685723600524,-0.2707654922450075,0.653791415610602,0.26821224402339156,-0.999997628364839,0.0005094723477919159,-0.0021174755310214483,0.008712335959899136,-0.03344308717766817,-0.005381326493270911,-1.6102204337466488,-0.008517511297913033,0.007219708856330387,-0.004942143108184341
0.012000083923339844,0.24508508444476637,2.6355768196983334e-06,0.6435239855174154,-0.6537312018829335,-0.27078432996637497,0.6538369012462256,0.26797139567142225,-0.9999964989689414,0.0005547726261752519,-0.0025873301284081427,0.009434197515403695,-0.036757609103463096,-0.0057758346455176355,-1.6140806272939145,-0.009246328291490594,0.007904902157886973,-0.0052988214695327725
0.013000011444091797,0.24408508789830013,3.1903494722238713e-06,0.6435213981871641,-0.6537766393071395,-0.2708031507637203,0.6538823460170393,0.26773053057123924,-0.9999594403852963,0.0002232683099383469,-0.009003762301782176,0.010136925741723039,-0.04006722617094841,-0.00615204836447384,-1.6179271922447347,-0.009956933849868078,0.008581282755907305,-0.005635386552580497
0.01399993896484375,0.2430850971196204,3.69352689553493e-06,0.6435178122053946,-0.6538220358703016,-0.27082195463586717,0.6539277499202026,0.26748964873789655,-0.9999406790409131,0.0002503305288702486,-0.010889248542660797,0.010822324395067,-0.043372356772218026,-0.006511752678992668,-1.6217620282465148,-0.010650965173909451,0.009250332157320518,-0.005953582896447753
0.015000104904174805,0.24208514758062447,3.931145941448868e-06,0.6435078085950436,-0.653867391569583,-0.27084074158164045,0.653973112952878,0.2672487501864494,-0.9999113855306363,0.00027735397252572996,-0.013309551494216842,0.011491382732972268,-0.04667661674582486,-0.006856082483715344,-1.6256035052427145,-0.011330509284728178,0.009926805501290659,-0.006255587376710917
0.016000032424926758,0.24108521895569063,4.192640284331545e-06,0.6434959194814376,-0.6539127064021486,-0.27085951159986577,0.6540184351122301,0.26700783493195374,-0.9998723152448845,0.0003164863517481052,-0.015976640548731276,0.012145932786133684,-0.04997704025061668,-0.007186691459340928,-1.6294363492243522,-0.011993561099070585,0.01059839379295524,-0.006539488221832848
0.01699995994567871,0.24008532216855738,4.484663437017286e-06,0.6434816101440826,-0.6539579803651663,-0.27087826468937004,0.6540637163954264,0.26676690298946687,-0.9998210953313172,0.0003712872966056211,-0.018911358391944078,0.012787262686502173,-0.053274008750237585,-0.007504852132627484,-1.633262416839125,-0.012640426988249716,0.011266572210501424,-0.006805661133166214
0.018000125885009766,0.2390854672532209,4.819817035512809e-06,0.6434646338291719,-0.6540032134558067,-0.27089700084898133,0.6541089567996367,0.26652595437404714,-0.9997553292097564,0.0004452005649599329,-0.02211523260443328,0.013416830257647646,-0.05656770807693854,-0.007812000056849247,-1.6370825830198024,-0.013271290696435074,0.011932029877429029,-0.007054334041669382
0.01900005340576172,0.2380856666276835,5.214163325986169e-06,0.6434447229462378,-0.6540484056712426,-0.27091572007752857,0.6541541563220336,0.2662849891007538,-0.9996724190684226,0.0005419506774050144,-0.02558829504580938,0.01403594179911964,-0.059858326935846945,-0.008109421427177991,-1.6408977779305345,-0.013886248741471362,0.012595508269789057,-0.007285637215395274
0.019999980926513672,0.23708593510728526,5.6872024782211834e-06,0.6434216083847681,-0.6540935570086494,-0.27093442237384174,0.654199314959792,0.2660440071846471,-0.9995696132311718,0.0006653967781944144,-0.02932823813346849,0.014645787386145278,-0.0631460439112153,-0.008398287528025218,-1.6447089215533024,-0.01448531708246278,0.01325774880295394,-0.007499610380562566
0.020999908447265625,0.23608629010402282,6.262130256337028e-06,0.643395021009696,-0.6541386674652051,-0.27095310773675196,0.6542444327100895,0.2658030086407884,-0.9994440462469428,0.0008194346287474572,-0.033330570778609674,0.015247671153624125,-0.0664310259755702,-0.008679884434810568,-1.6485169178096108,-0.015068387030656329,0.013919488556992876,-0.0076961453574073725
0.02200007438659668,0.23508675177816296,6.9659667301232155e-06,0.6433646940005717,-0.6541837370380906,-0.27097177616509155,0.6542895095701065,0.26556199348424026,-0.9992927841425935,0.001007886691306907,-0.03758877126166231,0.01584289318683979,-0.06971342653865494,-0.00895549456719957,-1.6523226464363803,-0.015635248217728742,0.01458145407301914,-0.007875015484967218
0.023000001907348633,0.23408734314992824,7.829586578884419e-06,0.6433303650344704,-0.6542287657244887,-0.27099042765769354,0.6543345455370252,0.26532096173006603,-0.9991128721781795,0.0012343905878333394,-0.04209447621417066,0.016432519504171714,-0.07299338370477078,-0.009226166536163686,-1.6561269558658147,-0.01618564640835039,0.015244355849226565,-0.008035950361665574
0.023999929428100586,0.23308809016610832,8.887640514816002e-06,0.6432917783157354,-0.6542737535215855,-0.2710090622133923,0.6543795406080313,0.26507991339333026,-0.9989013832902832,0.0015022913075236062,-0.04683769402507285,0.01701776490921431,-0.07627101901144834,-0.009493097212907448,-1.6599306560328368,-0.01671920416163979,0.015908882615589315,-0.008178531304109905
0.02500009536743164,0.2320890217191249,1.0178366295871123e-05,0.6432486864164844,-0.6543187004265688,-0.27102767983102305,0.6544244947803123,0.2648388484890983,-0.9986554655084902,0.0018145424530120378,-0.05180703278230447,0.017599855734259956,-0.07954643631672216,-0.009757494224574796,-1.663734512707902,-0.017235453830938947,0.016575696724747457,-0.00830223292469233
0.026000022888183594,0.2310901696178816,1.1743293204178977e-05,0.6432008519035104,-0.6543636064366298,-0.2710462805094224,0.6544694080510588,0.26459776703243687,-0.998285479686194,0.0022310138221532574,-0.05849037207123096,0.01817995844063705,-0.08281972101447103,-0.010020504315062186,-1.6675392427557787,-0.017733862139786918,0.01724543015497182,-0.008406453531487794
0.026999950408935547,0.2300915692730531,1.361993525750336e-05,0.6431480483240789,-0.6544084715489618,-0.27106486424742765,0.6545142804174636,0.2643566690384135,-0.9979395645838123,0.0026536175374389636,-0.06410603522474484,0.018759201927820827,-0.08609093768458286,-0.010283236654769684,-1.6713455094102319,-0.01821390563037238,0.01791868217144721,-0.008490589648146167
0.0280001163482666,0.2290933450549856,1.5925850297691602e-05,0.6430885626446452,-0.6544532957607604,-0.2710834310438774,0.6545591118767223,0.26411555452209684,-0.9975445614151841,0.0031398222612181426,-0.06996420161165078,0.01933845741989104,-0.08936081051190817,-0.01054659529498152,-1.67515858162091,-0.018673908706994743,0.018599998383796112,-0.008552881545633781
0.029000043869018555,0.2280954724885527,1.8661993535503702e-05,0.6430234622751362,-0.6544980790692244,-0.2711019808976111,0.6546039024260328,0.26387442349855655,-0.997099985514075,0.0036820281559065923,-0.07601356166165794,0.019919187654479434,-0.0926287585239384,-0.010811971214344625,-1.6789750222005355,-0.01911385723417113,0.01928652333376424,-0.008593189254282771
0.029999971389770508,0.2270980008824136,2.1890850171102337e-05,0.64295250472046,-0.654542821471555,-0.27112051380746954,0.6546486520625957,0.2636332759828633,-0.9966034310826648,0.004281137224421068,-0.0822391209724776,0.020502532911410777,-0.09589480332102035,-0.01108047826244616,-1.6827954816482926,-0.019532844254352713,0.019978886872690005,-0.008610481663135808
0.03099989891052246,0.2261009799943296,2.5668369264393347e-05,0.6428754988760907,-0.6545875229649554,-0.27113902977229437,0.6546933607836142,0.2633921119900888,-0.9960528706505033,0.00493693510432336,-0.08862451997425758,0.021089578861019805,-0.0991589307297219,-0.011353173170924338,-1.6866204361428856,-0.01993002575201762,0.020677580414739438,-0.00860378228792073
0.032000064849853516,0.22510446197277226,3.0051298294472345e-05,0.6427922686226712,-0.654632183546632,-0.2711575287909283,0.6547380285862939,0.26315093153530583,-0.9934551104942537,0.005721401350174957,-0.11407983607737465,0.02168157555988899,-0.10242110804351476,-0.011631274132181629,-1.6904503010345764,-0.020304469616709602,0.02138305340021107,-0.00857199669711944
0.03299999237060547,0.22410851053161882,3.501887738985872e-05,0.642702649732555,-0.6546768032137935,-0.27117601086221516,0.6547826554678432,0.2629097346335882,-0.9924319918974841,0.006501227271472978,-0.12262330733737589,0.022279457565906994,-0.10568126015911389,-0.011915699552878528,-1.694285417318295,-0.02065610758424306,0.022095723550598745,-0.00851491069594563
0.03399991989135742,0.22311517379346654,4.0830538946700284e-05,0.6425875810381128,-0.654721381963651,-0.2711944759849998,0.6548272414254728,0.26266852130001056,-0.9912610379288711,0.007469081294966075,-0.13170333142630153,0.022879026274776254,-0.1089447473434902,-0.012203129687049443,-1.6981812412944934,-0.02097909980703973,0.022865690725461185,-0.008426903382637612
0.03500008583068848,0.22212286894588673,4.743689684414236e-05,0.642463971433848,-0.6547659197934186,-0.2712129241581282,0.6548717864563961,0.26242729154964894,-0.9924689178696743,0.11094572068232136,-0.05192777796977222,0.02348605913309432,-0.11220600880537034,-0.012498482054026462,-1.7020876211269307,-0.021276246707884455,0.023648362995995376,-0.008310277943597587
0.03600001335144043,0.22113159861668838,5.5697909366716964e-05,0.6423328786370965,-0.6548104167003124,-0.27123135538044724,0.6549162905578291,0.2621860453975801,-0.9915384099111323,0.1150723867301246,-0.06008267207054334,0.024103455265479305,-0.11546435250144799,-0.01280434684054429,-1.7060009924891704,-0.021538195168677887,0.024440867372618413,-0.008155320815860179
0.03699994087219238,0.22013923093905075,0.00016709282992723108,0.6422800631825861,-0.6548548726815516,-0.27124976965080505,0.6549607537269903,0.261944782858882,-0.9787758527396436,0.004523930478445436,-0.20488378204926247,0.024989300134645228,-0.11866912153936071,-0.013347821537362806,-1.7096370157846392,-0.020675687590007465,0.0250092747706141,-0.006846764963850575
0.03800010681152344,0.2191477623667229,0.00028155988549199426,0.6422191876117765,-0.6548992877343576,-0.27126816696805084,0.6550051759611007,0.26170350394863356,-0.975801288596585,0.007467842751818409,-0.21853163729281505,0.02590890097322325,-0.12187206810127156,-0.01392351732449078,-1.7132831077646133,-0.01975602398200012,0.025589564322551217,-0.005473689502875058
0.03900003433227539,0.2181691948417624,0.0002862900432279943,0.6420133477599762,-0.6549436618559543,-0.2712865473310346,0.655049557257384,0.26146220868191455,-0.9719639456965581,0.007437041661482192,-0.23501229473647509,0.026539455647827198,-0.12512397072634956,-0.014245790941862775,-1.7173562993335862,-0.019997189207646534,0.026548140580010537,-0.005288281921722898
0.039999961853027344,0.2171936202796324,0.0002937560661036605,0.6417938421662234,-0.6549879950435685,-0.27130491073860763,0.6550938976130664,0.26122089707380614,-0.967750805556851,0.0074774534976282695,-0.2517984631272734,0.027181109271313512,-0.12837026850838343,-0.014579247938437017,-1.7214494887247116,-0.020191171912347275,0.027532248786773517,-0.005052212154206931
0.0410001277923584,0.21622189972528144,0.0003011954431360888,0.6415578599464542,-0.6550322872944294,-0.2713232571896222,0.6551381970253763,0.2609795691393901,-0.9631485858036257,0.007515602456988039,-0.2688648682594745,0.02782630713279351,-0.13161003041353528,-0.014917185469841046,-1.7255691011308736,-0.020368135034576417,0.028549250299483075,-0.004796425103564722
0.04200005531311035,0.21525440923794942,0.0003086750552132679,0.6413050959632003,-0.6550765386057686,-0.2713415866829316,0.6551824554915453,0.2607382248937495,-0.9581569659799292,0.007552987437104142,-0.28614363687650246,0.028474745789043018,-0.13484219324933244,-0.015259278701968798,-1.7297147855564117,-0.020527747366857193,0.02959985741349591,-0.0045206126512967685
0.042999982833862305,0.21429153814422391,0.00031619273666030564,0.6410352703696094,-0.6551207489748205,-0.27135989921739045,0.6552266730088071,0.2604968643519684,-0.9527804633639622,0.007589334993379768,-0.3035651340755584,0.02912598597485014,-0.13806563661063206,-0.015605083585289172,-1.7338860772804727,-0.020670463185570434,0.030684725923298517,-0.00422527506647041
0.04399991035461426,0.21333367602168996,0.00032374771803705716,0.6407481711895927,-0.655164918398822,-0.27137819479185404,0.6552708495743982,0.2602554875291318,-0.9470286327379198,0.007624430886723243,-0.3210586189906756,0.02977963850686256,-0.14127919562540722,-0.015954201315398875,-1.7380822985908904,-0.02079675355740384,0.031804343012328706,-0.003910931189780594
0.04500007629394531,0.21238120786046022,0.00033133895923817227,0.640443656074959,-0.6552090468750122,-0.2713964734051789,0.6553149851855574,0.2600140944403258,-0.9409159696122925,0.0076580817968994516,-0.3385535288720994,0.03043515628923198,-0.14448167576050167,-0.01630607176853432,-1.742302572199148,-0.02090720802727433,0.032959025479933235,-0.0035782489515942526
0.046000003814697266,0.2114345090251915,0.000338965206307482,0.6401216534063707,-0.6552531344006335,-0.2714147350562227,0.6553590798395265,0.2597726851006374,-0.9344616476466198,0.00769011986583573,-0.3559807454540395,0.031091871117819043,-0.1476718688919117,-0.01666001048692138,-1.7465458362882083,-0.021002520115692126,0.03414891872700898,-0.0032280277555128854
0.04699993133544922,0.21049394031516958,0.0003466250124227934,0.6397821621104096,-0.6552971809729302,-0.27143297974384406,0.6554031335335494,0.2595312595251548,-0.9276891006733864,0.007720405274540301,-0.37327379741176664,0.03174928223987823,-0.15084857030365031,-0.017015496132619257,-1.750810862175245,-0.021083358723304788,0.03537399797623908,-0.002861028388848639
0.04800009727478027,0.20955984328820815,0.0003543167633595496,0.6394252502106151,-0.6553411865891494,-0.2714512074669026,0.6554471462648728,0.259289817728967,-0.9206254712728906,0.0077488277955650945,-0.39036994929343993,0.03240645973371364,-0.1540105940503404,-0.01737157735162084,-1.755096278037846,-0.021150625996101673,0.03663407539005825,-0.0024783188712753997
0.04900002479553223,0.20863253600367074,0.00036203870552385924,0.6390510521765508,-0.6553851512465407,-0.2714694182242592,0.6554911180307459,0.2590483597271641,-0.9133009556416105,0.0077753072857908116,-0.40721113567869516,0.03306280278877215,-0.1571567900531108,-0.01772762760959485,-1.7594005898870209,-0.021205118866664284,0.0379288054961342,-0.002080824286241647
0.04999995231628418,0.2077123093179295,0.0003697889755296376,0.6386597651845431,-0.6554290749423564,-0.2714876120147756,0.6555350488284204,0.2588068855348373,-0.9057480795786312,0.007799793174022874,-0.4237447103694204,0.033717608222497614,-0.16028605796468517,-0.018082916407689872,-1.7637222081223292,-0.021247711930569423,0.03925769699232218,-0.0016695725268587537
0.051000118255615234,0.20679942383579783,0.0003775656302610054,0.638251644444953,-0.6554729576738512,-0.2715057888373147,0.6555789386551506,0.25856539516707866,-0.8980009424065426,0.007822263054007779,-0.4399239930234259,0.034370078209247035,-0.16339736016387002,-0.018436617685653228,-1.7680594729983978,-0.02127935045174441,0.040620125194042345,-0.0012456870825997331
0.05200004577636719,0.2058941075866244,0.0003853666764158285,0.6378269977809975,-0.6555167994382826,-0.27152394869074054,0.6556227875081936,0.2583238886389815,-0.8900944645911972,0.007842720535911023,-0.45570860847553174,0.03501941885332502,-0.16648973303375297,-0.018787908431280625,-1.7724106793756549,-0.021300999782070205,0.04201534571671717,-0.0008103211219980549
0.05299997329711914,0.20499655445690917,0.00039319009863708675,0.6373861796616946,-0.6555606002329102,-0.27154209157391795,0.6556665953848085,0.25808236596563966,-0.8820636711357226,0.007861192535021388,-0.4710646258365185,0.035664992314993066,-0.16956229627423236,-0.019136120193905266,-1.776774100143915,-0.021313565925023526,0.04344250898993218,-0.0003645519985949103
0.053999900817871094,0.20410692337553826,0.0004010338854919076,0.6369295848962221,-0.6556043600549967,-0.2715602174857132,0.6557103622822577,0.2578408271621486,-0.8734978271160496,0.007913762676287019,-0.4867637192559068,0.036305969459555505,-0.1726142587805944,-0.01948039482001501,-1.7811480099273886,-0.021318053420532324,0.044900677210871764,9.04046241425512e-05
0.05500006675720215,0.20322533862905762,0.0004088980179050721,0.6364576424196724,-0.6556480789018069,-0.2715783264249933,0.6557540881978053,0.2575992722436044,-0.8652481933010691,0.007929299741400117,-0.5012810491080296,0.03694188453147045,-0.17564492287008812,-0.0198202344065135,-1.7855307007290744,-0.021315275909353636,0.04638883722115694,0.0005535776907601567
0.0559999942779541,0.20235233482179946,0.0004168127114547032,0.6359700092506407,-0.6556917567706086,-0.27159641839062654,0.6557977731287191,0.2573577012251043,-0.8569708467499226,0.007943632023636087,-0.5153036643873143,0.03757109207724394,-0.17865272757711037,-0.020153998109236338,-1.789921554423937,-0.021306319619023226,0.04790792538039024,0.0010234989932985088
0.056999921798706055,0.2014875949184833,0.0004247428917514744,0.6354678670163408,-0.6557353936586718,-0.2716144933814821,0.6558414170722682,0.2571161141217464,-0.8486957255730505,0.007956206735920733,-0.5288215806568493,0.03819382955118704,-0.18163794992685087,-0.02048186885828164,-1.7943179701442888,-0.021292005677563595,0.04945506245916387,0.0014993078959115382
0.05800008773803711,0.2006311461318111,0.00043268731752654863,0.6349517104439371,-0.6557789895632692,-0.2716325513964302,0.655885020025725,0.2568745109486299,-0.8404507348688793,0.007967131409705246,-0.5418293892688557,0.038809550355334545,-0.18460017005648677,-0.020803273407388374,-1.7987183855528817,-0.021273174972597928,0.051029102244882996,0.0019799757657955937
0.05900001525878906,0.1997829857289397,0.0004406442340003279,0.6344220442162758,-0.6558225444816761,-0.2716505924343424,0.6559285819863645,0.256632891720855,-0.8322613153317804,0.007976507042357563,-0.5543261479829523,0.03941759944645533,-0.1875390602926126,-0.021117533561196965,-1.8031213151817909,-0.021250711536292894,0.05262888267548238,0.0024644069708271406
0.059999942779541016,0.1989430830687605,0.0004486119932958349,0.6338793783981559,-0.6558660584111702,-0.271668616494091,0.6559721029514638,0.2563912564535229,-0.8559653344793926,0.008426341747636453,-0.5169645470768122,0.04001760799374914,-0.190454382529226,-0.021424256671490977,-1.8075253553362525,-0.021225335781978428,0.05425323460313014,0.0029517181218171595
0.06100010871887207,0.19811028601743244,0.0004565986667087554,0.6333258965733799,-0.6559095313490322,-0.27168662357454965,0.6560155829183031,0.2561496051617359,-0.8477679990366713,0.008442552642543729,-0.530300050079421,0.04061140205426962,-0.19334852924193355,-0.02172513465724273,-1.8119275359903566,-0.021196500370704058,0.05589679866840358,0.003442740848518788
0.06200003623962402,0.19725484431647358,0.0004650260444647291,0.6328080800836339,-0.6559529632925446,-0.2717046136745927,0.6560590218841647,0.2559079378605971,0.12053106439340164,0.004673839318142251,-0.9926985533092219,0.041259520074914964,-0.1962902027838484,-0.022077466500501436,-1.8162796976004134,-0.021128723247986692,0.05744290336097713,0.003985381458391369
0.06299996376037598,0.19640797866005108,0.00047346508534708634,0.6322773490872707,-0.6559963542389932,-0.2717225867930959,0.6561024198463338,0.25566625456521075,0.11377048414288353,0.0047370066742149644,-0.9934957663249816,0.04189951519919682,-0.19920746089349642,-0.022422087447169472,-1.8206320326855785,-0.021058552533093317,0.05901349538192302,0.004530450357911207
0.06400012969970703,0.19652751665380597,0.0004781482036777912,0.6312845333824539,-0.6560397041856659,-0.2717405429289359,0.656145776802098,0.2554245552906821,0.11418548255942287,0.00473613305794725,-0.9934481589979062,0.04118365941411333,-0.19935561395316206,-0.021458140181486954,-1.8232848497291902,-0.021969852515254826,0.061648904083377865,0.0037777184553388116
0.06500005722045898,0.19664170214178892,0.0004828843369606927,0.6302910851762697,-0.6560830131298535,-0.2717584820809904,0.6561890927487474,0.2551828400521173,0.11454451852210398,0.0047357885408347315,-0.9934068278321001,0.04050352985686836,-0.19951332577487563,-0.02053280433354026,-1.8259480042163778,-0.0228405290779528,0.06428542320871933,0.0030735321475826986
0.06599998474121094,0.1967562466657516,0.0004876201257264653,0.6292976783012534,-0.6561262810688491,-0.27177640424813826,0.6562323676835748,0.2549411088646235,0.11489222537619823,0.004735446731993383,-0.9933666755495442,0.03985224524136229,-0.19966255456898419,-0.019639116661182714,-1.8286009535449517,-0.023677990767112155,0.06692050546197148,0.002408755982073677
0.06699991226196289,0.19687113889658486,0.0004923555726833803,0.6283043115785214,-0.6561695079999483,-0.27179430942925936,0.6562756016038757,0.25469936174330904,0.11522907912958301,0.004735107391899599,-0.993327658973078,0.03922891048111796,-0.19980332735962222,-0.018776006540900864,-1.8312437550979568,-0.024483763545024573,0.06955415824809785,0.0017816925485411134
0.06800007820129395,0.19698636798118754,0.0004970906803001855,0.6273109838723678,-0.6562126939204497,-0.27181219762323455,0.6563187945069476,0.254457598703283,0.11555553097276179,0.0047347702898195105,-0.9932897367897777,0.0386327461999316,-0.19993567123906478,-0.01794252879889411,-1.8338764657329498,-0.02525925412252869,0.0721863896789523,0.0011907857725826742
0.0690000057220459,0.1971019235176489,0.0005018254508148945,0.6263176940883993,-0.656255838827654,-0.2718300688289459,0.6563619463900913,0.2542158197596556,-0.08897654822393161,0.004744267735151556,-0.9960224223328568,0.03806299561203649,-0.2000596130334703,-0.01713777118639281,-1.836499142078377,-0.026005801274358756,0.0748172088779735,0.0006345515000702116
0.06999993324279785,0.19721647914325816,0.0005065602677604554,0.6253243909449523,-0.6562989427188648,-0.2718479230452765,0.6564050572506097,0.2539740249275381,-0.08708339589028938,0.004744800605627473,-0.996189725417517,0.03751991384308562,-0.20017927212054665,-0.016361812459462177,-1.839116241657356,-0.026723788072597447,0.07744693577128836,0.00011272006833514717
0.0710000991821289,0.19712849870871593,0.0005113048161008273,0.6243282804456285,-0.6563420055913879,-0.27186576027111026,0.6564481270858082,0.25373221422204256,-0.0870908839537187,0.0047444895169286095,-0.9961890722906891,0.03717689020386918,-0.2009189158323172,-0.015782292379167586,-1.8423861901423222,-0.02727107581672744,0.08010993588095516,-0.00018982700412651377
0.07200002670288086,0.19704140782062562,0.0005160493058431071,0.6233320913260214,-0.6563850274425319,-0.27188358050533246,0.6564911558929951,0.25349038765828213,-0.0870900165695034,0.004744174581420414,-0.9961891496204246,0.03684718561884197,-0.20164804150126564,-0.015217698654143139,-1.8456439218982423,-0.027802556529200537,0.08277129608488498,-0.00047420859830116235
0.07299995422363281,0.19695431779991956,0.0005207934806498637,0.6223359021290845,-0.6564280082696081,-0.27190138374682943,0.6565341436694812,0.25324854525137114,-0.08708913204420554,0.004743853422240092,-0.9961892284774491,0.036531383948313546,-0.20236937559932192,-0.014668499531254904,-1.8488921130988774,-0.028318134274237163,0.08543096015972274,-0.0007401450788960179
0.07400012016296387,0.19686722866373885,0.0005255373342974248,0.6213397128532906,-0.6564709480699301,-0.2719191699944884,0.6565770904125796,0.2530066870164246,-0.08708823019040077,0.004743525971337807,-0.9961893088784194,0.03622895691362729,-0.20308293062396995,-0.014134090930086796,-1.8521308122696272,-0.02881846959759674,0.08808895673350947,-0.0009883707472779643
0.07500004768371582,0.19678014042941197,0.000530280860494068,0.6203435234970958,-0.6565138468408142,-0.2719369392471977,0.6566199961196061,0.25276481296855874,-0.08708731082004852,0.0047431921604399845,-0.9961893908400458,0.03593976077112817,-0.20378871965539144,-0.013614249373285852,-1.8553600656267,-0.029304025842251436,0.09074531227503968,-0.001219348816481882
0.07599997520446777,0.1966930531144555,0.0005350240528797975,0.6193473340589393,-0.656556704579579,-0.27195469150384677,0.6566628607878792,0.25252292312289065,-0.087086373744489,0.004742851921048384,-0.9961894743790912,0.035663426155529386,-0.2044867551952147,-0.013108534657649744,-1.8585799202884015,-0.02977535193501575,0.09340005462747647,-0.001433673339458346
0.07699990272521973,0.19660596673657463,0.0005397669050261193,0.6183511445372437,-0.6565995212835463,-0.27197242676332606,0.6567056844147198,0.2522810174945384,0.2813940332634254,-0.11805276690502611,-0.6183511445372437,0.03539956267975998,-0.2051770495778643,-0.012616490108501528,-1.861790423182694,-0.030232987462204722,0.09605321183796733,-0.0016319344185223197
0.07800006866455078,0.19651956038047597,0.0005442831407934642,0.6173556523071533,-0.6566422969500397,-0.27199014502452723,0.6567484669974515,0.25203909609862124,0.281480439619524,-0.11805728314079347,-0.6173556523071533,0.03514689470582403,-0.2058572726132966,-0.012136942742912835,-1.864987411195725,-0.03067990137391879,0.09870294936340973,-0.0018173234531287429
0.07899999618530273,0.19680104083346509,0.0004262258520452507,0.6167382966255233,-0.6566850315763859,-0.2720078462863428,0.6567912085334002,0.2517971589502591,0.2811989591665349,-0.11793922585204526,-0.6167382966255233,0.03436555548507721,-0.2052633382840073,-0.011221924024466078,-1.8658972998980763,-0.032458944507393984,0.10034253501977419,-0.0034358882479516004
0.07999992370605469,0.19708223980598785,0.00030828662059139285,0.6161215582996042,-0.656727725159914,-0.2720255305476664,0.6568339090198948,0.25155520606457316,0.28091776019401216,-0.1178212866205914,-0.6161215582996042,0.033605457415996666,-0.20466783476552455,-0.010331198790254776,-1.866803764361436,-0.034204989051999694,0.1019808250073122,-0.005015018882536285
0.08100008964538574,0.19736315757952475,0.0001904653283745906,0.6155054367120404,-0.6567703776979555,-0.27204319780739283,0.6568765684542663,0.25131323745668543,0.28063684242047526,-0.1177034653283746,-0.6155054367120404,0.032866285286555795,-0.20407074395248334,-0.009464352569440612,-1.867706764969082,-0.0359189129815078,0.10361777502300318,-0.006555714381158519
0.0820000171661377,0.19764379443527474,7.27618574556014e-05,0.6148899312460934,-0.6568129891878447,-0.2720608480644178,0.6569191868338485,0.2510712531417189,0.28035620556472524,-0.1175857618574556,-0.6148899312460934,0.03214778118161115,-0.20347204914657077,-0.00862103033496028,-1.8686062646575077,-0.03760154664890288,0.10525334252510632,-0.008058913566086569
0.08299994468688965,0.19792415065415567,-4.482390998687821e-05,0.6142750412856416,-0.6568555596269186,-0.2720784813176383,0.6569617641559781,0.2508292531347977,0.2800758493458443,-0.11746817609001313,-0.6142750412856416,0.03144964352959744,-0.20287173491399968,-0.007800838055006475,-1.8695022293853045,-0.039253716837674014,0.10688748736069509,-0.009525558931504401
0.0840001106262207,0.1982042265168044,-0.0001622920916563303,0.6136607662151794,-0.6568980890125161,-0.2720960975659522,0.6570043004179936,0.2505872374510468,0.2797957734831956,-0.11735070790834368,-0.6136607662151794,0.030771360798525466,-0.2022697870795604,-0.007003180903277839,-1.8703946292116176,-0.040876314960316594,0.10852017312897289,-0.010956696890081118
0.08500003814697266,0.19848402230357717,-0.0002796428051385335,0.6130471054198169,-0.6569405773419794,-0.2721136968082585,0.6570467956172366,0.2503452061055921,0.2795159776964228,-0.11723335719486147,-0.6130471054198169,0.03011280402325874,-0.2016661927555971,-0.006227839656723173,-1.871283434082968,-0.042470051278869075,0.1101513623075181,-0.012353117073279471
0.08599996566772461,0.1987635382945499,-0.0003968761679016807,0.6124340582852789,-0.6569830246126529,-0.2721312790434572,0.6570892497510512,0.25010315911356057,0.2792364617054501,-0.11711612383209831,-0.6124340582852789,0.02947340791434519,-0.20106094023824353,-0.005474173959161296,-1.8721686194021308,-0.044035794475542234,0.11178102288768832,-0.013715850537495633
0.08700013160705566,0.19904277476951837,-0.0005139922972964963,0.6118216241979045,-0.6570254308218838,-0.2721488442704494,0.657131662816784,0.24986109649008023,0.2789572252304816,-0.11699900770270351,-0.6118216241979045,0.028852928462017764,-0.20045401892535414,-0.004741859101387338,-1.8730501605480605,-0.04557426022839045,0.11340912197407627,-0.015045711857199094
0.08800005912780762,0.1993217320079986,-0.0006309913105563545,0.6112098025446466,-0.6570677959670216,-0.27216639248813734,0.6571740348117843,0.24961901825027993,0.27867826799200135,-0.11688200868944365,-0.6112098025446466,0.02825096600851789,-0.19984541933128577,-0.004030422116540785,-1.8739280361752029,-0.04708620713582751,0.11503562975650694,-0.016343587131318258
0.08899998664855957,0.19960041028922712,-0.0007478733247973957,0.610598592713071,-0.6571101200454184,-0.2721839236954242,0.6572163657334036,0.2493769244092896,0.27839958971077283,-0.11676512667520261,-0.610598592713071,0.027667152974722182,-0.1992351330012372,-0.0033394242237618473,-1.8748022267419258,-0.04857236058996007,0.11666051782874187,-0.017610321668747424
0.08999991416931152,0.19987880989216117,-0.0008646384570186442,0.6099879940913561,-0.657152403054429,-0.2722014378912143,0.6572586555789964,0.2491348149822401,0.2781211901078388,-0.11664836154298136,-0.6099879940913561,0.0271010889498075,-0.19862315250661755,-0.002668397665742215,-1.8756727149019077,-0.05003343910434299,0.11828375971912064,-0.018846758736570494
0.09100008010864258,0.20015693109547905,-0.0009812868241021254,0.6093780060682918,-0.6571946449914107,-0.272218935074413,0.6573009043459197,0.24889268998426328,0.27784306890452093,-0.11653171317589787,-0.6093780060682918,0.026552504716864135,-0.19800947121403994,-0.002017004843721769,-1.8765394840581568,-0.051470091473384626,0.11990532919168362,-0.020053645676573608
0.09200000762939453,0.2004347741775804,-0.0010978185428129827,0.6087686280332797,-0.6572368458537232,-0.2722364152439267,0.6573431120315326,0.2486505494304919,0.2775652258224196,-0.11641518145718702,-0.6087686280332797,0.026020973649319018,-0.19739408355277874,-0.0013847580337757511,-1.8774025206128164,-0.05288300913716415,0.12152520303024406,-0.021231800993039007
0.09299993515014648,0.20071233941658648,-0.0012142337297995941,0.6081598593763314,-0.6572790056387293,-0.272253878398663,0.6573852786331974,0.2484083933360598,0.2772876605834135,-0.11629876627020042,-0.6081598593763314,0.02550605190697249,-0.1967769848728576,-0.0007711554982588763,-1.8782618127850454,-0.05427287100388731,0.12314335967117906,-0.02238203239431518
0.09400010108947754,0.20098962709034035,-0.0013305325015936895,0.6075516994880691,-0.657321124343794,-0.27227132453753033,0.6574274041482785,0.24816622171610173,0.27701037290965963,-0.11618246749840631,-0.6075516994880691,0.025007490923423692,-0.19615817104327332,-0.00017588745661651262,-1.8791173486627497,-0.05564026498848582,0.12475977684606843,-0.023505018627792165
0.09500002861022949,0.2012666374764073,-0.001446714974610467,0.6069441477597238,-0.6573632019662847,-0.27228875365943844,0.6574694885741432,0.24792403458575346,0.2767333625235927,-0.11606628502538954,-0.6069441477597238,0.02452489502511152,-0.19553763891568574,0.0004014961638548164,-1.879969119037032,-0.05698581774573077,0.12637443510665336,-0.024601503564134035
0.09599995613098145,0.20154337085207502,-0.0015627812651487093,0.6063372035831358,-0.6574052385035715,-0.27230616576329786,0.6575115319081611,0.2476818319601516,0.27645662914792496,-0.1159502187348513,-0.6063372035831358,0.024057909944478605,-0.1949153860122195,0.0009614029202310939,-1.880817115718205,-0.05831012391835781,0.12798731580081668,-0.025672190029993196
0.0970001220703125,0.20181982749435393,-0.0016787314893909003,0.6057308663507532,-0.6574472339530273,-0.27232356084802045,0.6575535341477047,0.2474396138544339,0.2761801725056461,-0.1158342685106091,-0.6057308663507532,0.023606283996717957,-0.19429141032979647,0.0015041387115565152,-1.8816613308712307,-0.0596137254794808,0.1295984002699042,-0.026717708009453514
0.09800004959106445,0.20209600767997743,-0.001794565763403342,0.6051251354556318,-0.6574891883120273,-0.27234093891251887,0.6575954952901487,0.2471973802837389,0.27590399232002255,-0.11571843423659665,-0.6051251354556318,0.023169324833416813,-0.19366571147442302,0.002030434214315717,-1.882501761934836,-0.06089730670808162,0.13120767606699224,-0.02773890990764247
0.0989999771118164,0.2023719116854022,-0.0019102842031362692,0.6045200102914343,-0.6575311015779493,-0.2723582999557071,0.6576374153328706,0.24695513126320623,0.2756280883145978,-0.11560271579686374,-0.6045200102914343,0.022747141389686185,-0.1930382879314162,0.002540241670396738,-1.8833384001214182,-0.062161250650453165,0.1328151225372416,-0.028736197921833573
0.09999990463256836,0.2026475397868084,-0.0020258869244239672,0.6039154902524297,-0.6575729737481737,-0.27237564397650005,0.6576792942732502,0.2467128668079765,0.2753524602131916,-0.11548711307557603,-0.6039154902524297,0.022339145066762184,-0.19240914030872935,0.0030341870864837557,-1.8841712441695626,-0.06340617471493062,0.13442072814857808,-0.029710336032811126
0.10100007057189941,0.20292289226010013,-0.0021413740429848866,0.6033115747334928,-0.6576148048200836,-0.2723929709738137,0.6577211321086702,0.24647058693319118,0.27507710773989985,-0.11537162595701513,-0.6033115747334928,0.021945057170182882,-0.19177826908069817,0.003512594298504429,-1.8850002909731352,-0.06463257213484727,0.13602447872696,-0.030661905848729683
0.10199999809265137,0.20319796938090548,-0.00225674567442176,0.6027082631301036,-0.6576565947910644,-0.27241028094656516,0.6577629288365159,0.24622829165399282,0.2748020306190945,-0.11525625432557825,-0.6027082631301036,0.021564492035274486,-0.1911456755177279,0.003975888839598233,-1.8858255394116872,-0.0658409596952589,0.13762636232597458,-0.03159153094560476
0.10299992561340332,0.20347277142457698,-0.0023720019342217164,0.6021055548383464,-0.6576983436585045,-0.27242757389367256,0.6578046844541748,0.24598598098552485,-0.803529539251237,-0.03402943128038055,-0.5942914077768822,0.02119731255411467,-0.19051136071384614,0.004424253873111236,-1.8866469868616973,-0.06703175667708805,0.13922636478399264,-0.03249969126180832
0.10400009155273438,0.2037465763233735,-0.00248718308269917,0.6015028543297464,-0.6577400514197944,-0.27244484981405503,0.6578463989590372,0.24574365494293168,-0.7979398403669371,-0.035607611185820974,-0.601684393333271,0.020843011898615666,-0.18987771402552744,0.00485814211263683,-1.8874686696331346,-0.06820532315934633,0.14082612714716158,-0.03338685566561075
0.10500001907348633,0.20294364128845746,-0.002521380377058008,0.6009077765465324,-0.6577817180723274,-0.2724621087066329,0.657888072348496,0.2455013135413587,0.27505635871154255,-0.11499161962294199,-0.6009077765465324,0.020932023099712066,-0.1925499284697052,0.0049566454248280165,-1.8917404739765125,-0.06850975540773867,0.14256156639345252,-0.03336254653393515
0.10599994659423828,0.20214669868443055,-0.002557061771768401,0.6003060928464311,-0.6578233436134993,-0.27247935057032735,0.6579297046199466,0.24525895679595217,0.2758533013155694,-0.11495593822823161,-0.6003060928464311,0.021019913081659004,-0.19520140380133263,0.005054020739216957,-1.8960013725090963,-0.06881899793697435,0.14430688680479697,-0.0333427654783622
0.10700011253356934,0.20242255199884845,-0.002672017715456747,0.5997057867250717,-0.6578649280407085,-0.27249657540406097,0.657971295770787,0.24501658472185953,0.2755774480011515,-0.11484098228454324,-0.5997057867250717,0.0206660377702553,-0.19455361440556102,0.005482864867005669,-1.8968042548625346,-0.06996885394044991,0.14590240586887804,-0.03420539619637997
0.10800004005432129,0.20269812945993884,-0.002786858703195944,0.5991060809098622,-0.657906471351356,-0.27251378320675707,0.6580128457984176,0.24477419733422898,0.27530187054006117,-0.11472614129680407,-0.5991060809098622,0.020324742907615018,-0.1939041276806338,0.0058977532378455145,-1.8976033554883955,-0.07110252479338638,0.14749601193140438,-0.035048131048010106
0.10899996757507324,0.20297343134355503,-0.002901584849941947,0.5985069748004963,-0.6579479735428454,-0.2725309739773401,0.6580543547002417,0.24453179464820965,0.2750265686564449,-0.11461141515005804,-0.5985069748004963,0.01999572919138242,-0.19325294669744258,0.006299018384005226,-1.8983986765185206,-0.07222043728879948,0.14908769584175863,-0.035871485153534666
0.1100001335144043,0.20324845792527454,-0.0030161962705357553,0.5979084677972683,-0.6579894346125827,-0.2725481477147358,0.6580958224736649,0.24428937667895184,0.2747515420747254,-0.11449680372946423,-0.5979084677972683,0.019678630604347186,-0.19260007514078986,0.006687055797788894,-1.8991902214600644,-0.07332302869165903,0.15067745009377043,-0.0366759952439493
0.11100006103515625,0.20352320948039926,-0.003130693079703526,0.5973105593010719,-0.6580308545579767,-0.2725653044178707,0.6581372491160956,0.24404694344160663,0.2744767905196007,-0.11438230692029648,-0.5973105593010719,0.019373377715706335,-0.19194551605380925,0.007061973109939171,-1.8999779913558725,-0.07441062976659679,0.15226526372920945,-0.037462036647957005
0.1119999885559082,0.2037976862839558,-0.0032450753920566905,0.5967132487134001,-0.6580722333764386,-0.27258244408567256,0.6581786346249445,0.24380449495132606,0.2742023137160442,-0.11426792460794331,-0.5967132487134001,0.019079471282958477,-0.19128927428160036,0.007424291704162183,-1.9007619923438916,-0.07548369980642683,0.1538511324272016,-0.038230190448000245
0.11299991607666016,0.20407188861069575,-0.003359343322092069,0.5961165354363444,-0.6581135710653822,-0.27259956671707014,0.6582199789976251,0.2435620312232632,0.27392811138930423,-0.11415365667790794,-0.5961165354363444,0.018796708532095394,-0.1906313539860093,0.007774245324206257,-1.901542228025593,-0.07654259238232909,0.1554350483528244,-0.038980877179121604
0.11400008201599121,0.20434581673509594,-0.003473496984191985,0.595520418872594,-0.6581548676222239,-0.2726166723109933,0.6582612822315532,0.24331955227257204,0.27365418326490404,-0.11403950301580802,-0.595520418872594,0.018524820139261232,-0.1899717598581557,0.008112130730065066,-1.9023187032289908,-0.07758767296633916,0.15701700518588968,-0.039714540495555235
0.11500000953674316,0.2046194709313587,-0.0035875364926243785,0.5949248984254357,-0.6581961230443827,-0.2726337608663729,0.6583025443241477,0.24307705811440752,0.2733805290686413,-0.11392546350737563,-0.5949248984254357,0.01826354261493142,-0.18931049685439966,0.008438237837765154,-1.9030914232198795,-0.07861929588939452,0.15859699708411812,-0.04043161099124863
0.11599993705749512,0.20489285147341224,-0.003701461961542923,0.5943299734987528,-0.6582373373292801,-0.27265083238214094,0.6583437652728293,0.24283454876392546,0.27310714852658774,-0.11381153803845709,-0.5943299734987528,0.018012532905536748,-0.18864757050567155,0.008752932175197443,-1.9038603945949244,-0.07963783056259438,0.16017501991779937,-0.041132547627286
0.11700010299682617,0.20516595863491072,-0.003815273504987138,0.5937356434970249,-0.6582785104743403,-0.2726678868572304,0.6583849450750219,0.24259202423628276,0.27283404136508926,-0.11369772649501288,-0.5937356434970249,0.01777170821221185,-0.1879829856058379,0.009056326994797508,-1.9046256215844188,-0.08064355849550048,0.1617510662350028,-0.041817674309527555
0.11800003051757812,0.20543879268923473,-0.003928971236882503,0.5931419078253269,-0.6583196424769898,-0.27268492429057545,0.6584260837281517,0.24234948454663716,0.2725612073107653,-0.11358402876311752,-0.5931419078253269,0.017540739163543418,-0.18731674811948953,0.009348772431717486,-1.9053871114914682,-0.0816368280917296,0.16332513269149396,-0.04248742497977901
0.11899995803833008,0.20571135390949147,-0.0040425552710405726,0.5925487658893289,-0.6583607333346579,-0.27270194468111114,0.6584671812296476,0.2421069297101474,0.2722886460905085,-0.11347044472895942,-0.5925487658893289,0.017319385501983923,-0.1866488638984704,0.009630531580587173,-1.9061448710508384,-0.08261795236078849,0.16489721510100797,-0.04314218150649412
0.12000012397766113,0.20598364256851498,-0.004156025721159089,0.591956217095295,-0.6584017830447765,-0.27271894802777374,0.658508237576941,0.24186435974197323,0.272016357431485,-0.11335697427884092,-0.591956217095295,0.0171074125753433,-0.18597933898204133,0.009901861130773515,-1.9068989073036915,-0.08358723479458757,0.1664673096358824,-0.04378231448661541
0.12100005149841309,0.20625565893886655,-0.004269382700822097,0.5913642608500833,-0.65844279160478,-0.2727359343295006,0.6585492527674658,0.2416217746572752,0.27174434106113343,-0.11324361729917792,-0.5913642608500833,0.016904591259623413,-0.185308179583849,0.010163011479379817,-1.9076492275760264,-0.08454496967095931,0.16803541280704581,-0.04440818358609504
0.12199997901916504,0.20652740329283484,-0.004382626323500058,0.590772896561145,-0.6584837590121053,-0.27275290358523,0.6585902267986588,0.24137917447121487,0.27147259670716517,-0.11313037367649996,-0.590772896561145,0.01671069790332295,-0.18463539207953047,0.010414226821999394,-1.908395839458162,-0.08549144234147517,0.16960152144468021,-0.04502013786044757
0.12299990653991699,0.20679887590243626,-0.004495756702549963,0.5901821236365236,-0.6585246852641921,-0.27276985579390145,0.6586311596679587,0.24113655919895483,0.2712011240975637,-0.11301724329745004,-0.5901821236365236,0.01652551418533106,-0.1839609829953473,0.010655745325325174,-1.9091387507863626,-0.0864269295347076,0.17116563268117457,-0.04561851610525846
0.12400007247924805,0.20707007703941518,-0.004608773951215444,0.5895919414848549,-0.6585655703584823,-0.27278679095445535,0.6586720513728075,0.24089392885565844,0.2709299229605848,-0.11290422604878456,-0.5895919414848549,0.016348827037396724,-0.18328495899721486,0.010887799236033838,-1.9098779696249022,-0.08735169963136573,0.17272774393402668,-0.04620364716665336
0.125,0.20734100697524424,-0.004721678182626892,0.589002349515366,-0.6586064142924206,-0.2728037090658333,0.6587129019106495,0.2406512834564902,0.2706589930247557,-0.11279132181737311,-0.589002349515366,0.016180428574513853,-0.18260732688030903,0.011110614980664702,-1.9106135042491035,-0.08826601292858065,0.17428785288949045,-0.04677585023905628
0.12599992752075195,0.2076116659811246,-0.004834469509801566,0.5884133471378745,-0.6586472170634542,-0.27282061012697784,0.6587537112789312,0.2404086230166153,0.2703883340188754,-0.11267853049019844,-0.5884133471378745,0.01602011596703997,-0.18192809355950634,0.011324413320355178,-1.911345363130034,-0.08917012191183392,0.17584595748796672,-0.047335435180090445
0.127000093460083,0.20788205432798623,-0.004947148045643707,0.5878249337627885,-0.6586879786690332,-0.2728374941368327,0.6587944794751025,0.24016594755120016,0.27011794567201375,-0.1125658519543563,-0.5878249337627885,0.015867800142253363,-0.18124726558839988,0.011529304588535351,-1.9120735537049762,-0.09006424214501363,0.17740205417347465,-0.047882654914603036
0.12800002098083496,0.20815217228648816,-0.005059713902944654,0.5872371088011056,-0.6587286991066098,-0.27285436109434275,0.6588352064966151,0.23992325707541198,0.2698478277135118,-0.11245328609705535,-0.5872371088011056,0.015723072608718854,-0.18056485102546518,0.011725706323935828,-1.9127980871974202,-0.09094866971914882,0.17895614478160904,-0.04841789672769575
0.12899994850158691,0.20842202012701877,-0.005172167194382954,0.5866498716644122,-0.658769378373639,-0.27287121099845363,0.6588758923409235,0.23968055160441887,0.2695779798729812,-0.11234083280561705,-0.5866498716644122,0.015585738805817203,-0.17988085712973556,0.011913829098130988,-1.9135189726573918,-0.0918236359394108,0.18050822806262157,-0.04894144578885179
0.13000011444091797,0.208691598119696,-0.005284508032524475,0.5860632217648833,-0.6588100164675785,-0.2728880438481123,0.6589165370054849,0.23943783115338993,0.26930840188030397,-0.11222849196747553,-0.5860632217648833,0.015455839053287625,-0.17919529022730482,0.01209365640764535,-1.9142362166949056,-0.09268930502581912,0.18205829923579242,-0.0494534800629209
0.13100004196166992,0.20896090653436777,-0.0053967365298225175,0.5854771585152819,-0.6588506133858881,-0.27290485964226674,0.6589571404877591,0.2391950957374952,0.2690390934656322,-0.1121162634701775,-0.5854771585152819,0.01533320062205039,-0.1785081576678625,0.012265376481418332,-1.9149498284817221,-0.09354589336695593,0.18360635718313256,-0.04995426540496469
0.13199996948242188,0.20922994564061206,-0.005508852798617932,0.584891681328958,-0.6588911691260307,-0.2729216583798659,0.6589977027852083,0.23895234537190566,0.26877005435938794,-0.11200414720138206,-0.584891681328958,0.015217416618119187,-0.17781946794122575,0.012429402606806026,-1.9156598199912669,-0.0943936720865996,0.185152404872168,-0.050444160923554
0.13300013542175293,0.20949871570773734,-0.005620856951139226,0.5843067896198482,-0.6589316836854717,-0.2729384400598599,0.6590382238952974,0.2387095800717932,0.2685012842922626,-0.11189214304886078,-0.5843067896198482,0.01510843190874958,-0.17712922806333672,0.012585808413082057,-1.9163661994106875,-0.09523281560209136,0.1866964397977544,-0.05092336939059562
0.13400006294250488,0.20976721700478274,-0.005732749099502678,0.5837224828024752,-0.6589721570616786,-0.27295520468119977,0.6590787038154938,0.23846679985233055,0.26823278299521724,-0.11178025090049733,-0.5837224828024752,0.015006080514214485,-0.176437445619424,0.012734773790335528,-1.917068976318615,-0.09606352244163868,0.18823846148070134,-0.05139213580866188
0.13499999046325684,0.21003544980051833,-0.005844529355712453,0.5831387602919473,-0.659012589252122,-0.2729719522428379,0.6591191425432675,0.23822400472869162,0.2679645501994816,-0.11166847064428756,-0.5831387602919473,0.014910200609932374,-0.17574412824920937,0.012876474062139046,-1.917768160385893,-0.09688598534600466,0.189778469592488,-0.05185069818577732
0.1359999179840088,0.21030341436344543,-0.005956197831660708,0.5825556215039578,-0.659052980254275,-0.27298868274372745,0.6591595400760911,0.2379811947160511,0.2676965856365545,-0.1115568021683393,-0.5825556215039578,0.014820634379274118,-0.17504928364187095,0.013011080148135496,-1.918463761367912,-0.097700391470366,0.19131646394750268,-0.05229928777770637
0.13700008392333984,0.2105711109617969,-0.0060677546391277115,0.5819730658547839,-0.6590933300656128,-0.2730053961828228,0.6591998964114397,0.23773836982958454,0.26742888903820305,-0.11144524536087229,-0.5819730658547839,0.014737228006325197,-0.17435291953069393,0.013138758590897888,-1.9191557890959048,-0.09850692254532073,0.19285244449345829,-0.05273812926582959
0.1380000114440918,0.2108385398635373,-0.006179199889781949,0.5813910927612869,-0.659133638683614,-0.2730220925590794,0.6592402115467912,0.23749553008446858,0.2671614601364627,-0.11133380011021805,-0.5813910927612869,0.014659831500999039,-0.1736550436887871,0.013259671743543769,-1.919844253470618,-0.09930575507367304,0.19438641130504508,-0.053167440997953744
0.13899993896484375,0.21110570133636325,-0.006290533695180239,0.580809701640911,-0.6591739061057589,-0.27303877187145364,0.6592804854796257,0.23725267549588064,0.26689429866363673,-0.11122246630481977,-0.580809701640911,0.014588298630131507,-0.1729556639246102,0.013373977854434145,-1.9205291644552707,-0.10009706049512176,0.19591836457627432,-0.05358743517905153
0.1400001049041748,0.2113725956477037,-0.006401756166767842,0.580228891911683,-0.659214132329531,-0.2730554341189031,0.6593207182074262,0.23700980607899916,0.26662740435229626,-0.11111124383323216,-0.580228891911683,0.014522486828849771,-0.1722547880778583,0.013481831170136103,-1.921210532069164,-0.10088100535049196,0.19744830461356755,-0.053998318064360604
0.14100003242492676,0.2116392230647201,-0.006512867415878576,0.579648662992212,-0.6592543173524161,-0.27307207930038635,0.659360909727678,0.23676692184900336,0.2663607769352799,-0.11100013258412145,-0.579648662992212,0.014462257091566032,-0.17155242401570459,0.013583382057306517,-1.9218883663819535,-0.10165775144547859,0.1989762318295918,-0.054400290154831075
0.1419999599456787,0.21190558385430686,-0.006623867553734921,0.5790690143016879,-0.6592944611719028,-0.2730887074148632,0.6594010600378694,0.2365240228210737,0.2660944161456931,-0.11088913244626508,-0.5790690143016879,0.01440761434075595,-0.17084857898325703,0.013678641748615073,-1.9225626759309937,-0.10242742367700697,0.20050214435090985,-0.05479349158263936
0.14300012588500977,0.21217167828309136,-0.006734756691448137,0.578489945259882,-0.659334563785482,-0.2731053184612943,0.6594411691354908,0.23628110901039132,0.2658283217169086,-0.11077824330855186,-0.578489945259882,0.014358147671490885,-0.1701432621733884,0.013768021780669935,-1.923233474001433,-0.10319023934220001,0.20202604751343323,-0.055178221074884376
0.14400005340576172,0.21243750661743444,-0.006845534940018373,0.5779114552871453,-0.6593746251906472,-0.2731219124386414,0.6594812370180353,0.2360381804321382,0.26556249338256555,-0.11066746505998164,-0.5779114552871453,0.014313869909150368,-0.16943648086409846,0.013851524949289765,-1.9239007691901708,-0.1039463140091543,0.20354793961288187,-0.05555460724768702
0.14499998092651367,0.21270306912343054,-0.006956202410334777,0.5773335438044088,-0.6594146453848946,-0.2731384893458675,0.6595212636829989,0.23579523710149755,0.26529693087656947,-0.11055679758966523,-0.5773335438044088,0.01427468190270427,-0.168728242876501,0.013929261568466272,-1.9245645714194877,-0.10469578614839405,0.20506782097478338,-0.05592281928710996
0.14599990844726562,0.21296836606690803,-0.007066759213175609,0.5767562102331826,-0.6594546243657229,-0.27315504918193645,0.6595612491278798,0.23555227903365328,0.2650316339330919,-0.1104462407868244,-0.5767562102331826,0.01424043561897097,-0.1680185562828727,0.014001388684242857,-1.925224891220612,-0.1054388019341314,0.20658569289212836,-0.056283041446999825
0.14700007438659668,0.21323339771342945,-0.007177205459208348,0.5761794539955549,-0.6594945621306335,-0.2731715919458133,0.659601193350179,0.2353093062437902,0.26476660228657056,-0.11033579454079165,-0.5761794539955549,0.014211012207992665,-0.1673074290441492,0.01406803485680075,-1.9258817388534533,-0.10617549770675772,0.2081015562868067,-0.05663544312507989
0.14800000190734863,0.21349816432829175,-0.007287541258989809,0.5756032745141924,-0.6595344586771303,-0.2731881176364641,0.6596410963473999,0.2350663187470942,0.26450183567170826,-0.11022545874101018,-0.5756032745141924,0.01418629539494647,-0.1665948691295867,0.01412932581495627,-1.9265351246004625,-0.10690600613365937,0.20961541215731883,-0.05698018927192538
0.14899992942810059,0.21376266617652662,-0.007397766722966247,0.5750276712123384,-0.6595743140027198,-0.2732046262528561,0.6596809581170485,0.23482331655875194,0.26423733382347336,-0.11011523327703376,-0.5750276712123384,0.014166172282991924,-0.1658808845104173,0.014185383694506124,-1.9271850587532968,-0.10763045613692164,0.21112726155951966,-0.057317440204068926
0.15000009536743164,0.21402690352290069,-0.007507881961473474,0.5744526435138138,-0.6596141281049109,-0.27322111779395736,0.6597207786566336,0.23458029969395108,0.2639730964770993,-0.11000511803852653,-0.5744526435138138,0.014150532469067027,-0.1651654831614242,0.0142363279019997,-1.9278315516185691,-0.10834897318581832,0.21263710561664095,-0.05764735204574274
0.1510000228881836,0.21429087663191584,-0.007617887084736963,0.573878190843015,-0.6596539009812153,-0.2732375922587372,0.6597605579636663,0.2343372681678802,0.26370912336808416,-0.10989511291526305,-0.573878190843015,0.014139268450836073,-0.16444867305672228,0.014282274733678426,-1.9284746135094213,-0.10906167930467878,0.21414494550732566,-0.057970076683766726
0.15199995040893555,0.21455458576780945,-0.007727782202871964,0.5733043126249142,-0.6596936326291473,-0.273254049646166,0.6598002960356604,0.2340942219957287,0.26344541423219053,-0.10978521779712805,-0.5733043126249142,0.014132275348598388,-0.16373046216882295,0.014323337654202899,-1.9291142547449445,-0.10976869322543921,0.21565078246569835,-0.058285761973617206
0.1530001163482666,0.21481803119455462,-0.00783756742588361,0.5727310082850589,-0.6597333230462233,-0.27327048995521525,0.6598399928701322,0.23385116119268706,0.26318196880544537,-0.1096754325741164,-0.5727310082850589,0.014129451165347359,-0.1630108584653689,0.014359627056239376,-1.9297504856438505,-0.11047013042393256,0.2171546177723338,-0.058594551746054095
0.15400004386901855,0.21508121317586054,-0.00794724286366703,0.5721582772495706,-0.6597729722299632,-0.2732869131848573,0.6598796484646008,0.2336080857739465,0.26291878682413944,-0.10956575713633297,-0.5721582772495706,0.014130695974814143,-0.16228986991088962,0.014391251052997977,-1.9303833165301931,-0.11116610337419183,0.2186564527640642,-0.058896586195402764
0.1549999713897705,0.21534413197517266,-0.008056808626007458,0.571586118945145,-0.6598125801778886,-0.27330331933406576,0.6599192628165876,0.23336499575469927,0.2626558680248273,-0.10945619137399255,-0.571586118945145,0.01413591275368696,-0.161567504461154,0.014418314685489634,-1.931012757721076,-0.11185672146072559,0.22015628881539917,-0.05919200167415213
0.15600013732910156,0.21560678785567297,-0.00816626482258034,0.571014532799051,-0.659852146887524,-0.2733197084018152,0.6599588359236168,0.23312189115013848,0.262393212144327,-0.10934673517741966,-0.571014532799051,0.014145006862370113,-0.16084377006382033,0.014440920432123115,-1.931638819529512,-0.11254209116711589,0.2216541273436332,-0.05948093097042269
0.15700006484985352,0.2158691810802803,-0.008275611562951452,0.5704435182391302,-0.6598916723563965,-0.2733360803870813,0.6599983677832151,0.2328787719754582,0.2621308189197197,-0.10923738843704855,-0.5704435182391302,0.014157885775328045,-0.1601186746580278,0.014459168477437013,-1.9322615122646343,-0.11322231620686993,0.22314996980981716,-0.059763503488157226
0.15799999237060547,0.21613131191165058,-0.008384848956576998,0.5698730746937964,-0.6599311565820357,-0.27335243528884084,0.6600378583929116,0.23263563824585337,0.2618686880883494,-0.10912815104342301,-0.5698730746937964,0.014174459486662482,-0.15939222617102453,0.01447315632947598,-1.9328808462246523,-0.11389749751802158,0.22464381770811026,-0.06003984518936634
0.15899991989135742,0.21639318061217702,-0.00849397711280373,0.5693032015920352,-0.6599705995619739,-0.27336877310607166,0.6600773077502384,0.23239248997651984,0.26160681938782293,-0.10901902288719628,-0.5693032015920352,0.01419464015681397,-0.1586644325183373,0.014482979168465375,-1.9334968316983117,-0.11456773340640915,0.22613567256854372,-0.06031007879918883
0.16000008583068848,0.2166547874439905,-0.008602996140869052,0.5687338983634027,-0.660010001293746,-0.27338509383775267,0.6601167158527298,0.23214932718265444,0.2613452125560095,-0.10891000385913095,-0.5687338983634027,0.014218342105305577,-0.15793530160245003,0.014488729861565422,-1.9341094789626618,-0.11523311961702783,0.22762553595389456,-0.06057432388647723
0.16100001335144043,0.21691613266895973,-0.008711906149901132,0.5681651644380259,-0.6600493617748893,-0.27340139748286374,0.6601560826979227,0.23190614987945474,0.2610838673310403,-0.10880109385009887,-0.5681651644380259,0.014245481731159257,-0.15720484131189524,0.014490499047063767,-1.9347187982817675,-0.11589374941707475,0.2291134094579823,-0.06083269696664614
0.16199994087219238,0.2171772165486916,-0.008820707248919006,0.5675969992466015,-0.6600886810029437,-0.2734176840403859,0.6601954082833567,0.23166295808211934,0.2608227834513084,-0.10869229275108098,-0.5675969992466015,0.014275977646788764,-0.1564730595194643,0.014488375012391579,-1.93532479990321,-0.11654971363671682,0.23059929470034857,-0.06108531153069245
0.16300010681152344,0.21743803934453132,-0.008929399546832693,0.5670294022203954,-0.6601279589754518,-0.27343395350930133,0.660234692606574,0.23141975180584778,0.26056196065546866,-0.1085836004531673,-0.5670294022203954,0.014309750238988896,-0.15573996408305557,0.014482444124397758,-1.935927494060934,-0.11720110081491684,0.23208319333113492,-0.06133227826312822
0.1640000343322754,0.21769860131756283,-0.009037983152443304,0.5664623727912426,-0.6601671956899589,-0.27345020588859315,0.6602739356651193,0.23117653106584046,0.2603013986824372,-0.1084750168475567,-0.5664623727912426,0.01434672207643486,-0.15500556284280764,0.014472790442934463,-1.9365268909690168,-0.11784799718476219,0.23356510702122635,-0.06157370497504657
0.16499996185302734,0.2179589027286089,-0.009146458174443147,0.5658959103915459,-0.6602063911440125,-0.27346644117724556,0.66031313745654,0.23093329587729863,0.2600410972713911,-0.10836654182555687,-0.5658959103915459,0.014386817525266719,-0.15426986362183193,0.014459496097976391,-1.9371230008241258,-0.11849048680427667,0.23504503746641792,-0.06180969679841576
0.1660001277923584,0.2182189438382316,-0.009254824721415839,0.5653300144542757,-0.660245545335163,-0.2734826593742438,0.6603522979783858,0.2306900462554245,0.2597810561617684,-0.10825817527858417,-0.5653300144542757,0.01442996276225707,-0.15353287422522707,0.014442641283054997,-1.9377158338037601,-0.11912865161058578,0.2365229863847269,-0.06204035624511691
0.16700005531311035,0.2184787249067323,-0.00936308290183641,0.5647646844129697,-0.6602846582609632,-0.2734988604785743,0.6603914172282092,0.23044678221542111,0.25952127509326767,-0.1081499170981636,-0.5647646844129697,0.014476085841824792,-0.15279460243892523,0.014422304196478995,-1.9383054000640143,-0.11976257146338916,0.23799895551285344,-0.062265783247641655
0.1679999828338623,0.2187382461941522,-0.009471232824071418,0.5641999197017318,-0.6603237299189685,-0.27351504448922453,0.6604304952035656,0.23020350377249266,0.2592617538058478,-0.10804176717592859,-0.5641999197017318,0.014525116494887462,-0.15205505602976518,0.014398561241049355,-1.9388917097403109,-0.12039232423439118,0.2394729466074732,-0.062486075284080164
0.16899991035461426,0.21899750796027231,-0.009579274596379056,0.563635719755232,-0.660362760306737,-0.27353121140518294,0.6604695319020121,0.2299602109418439,0.2590024920397277,-0.10793372540362094,-0.563635719755232,0.014576986311425767,-0.15131424274394562,0.014371486853327,-1.9394747729441124,-0.12101798582720104,0.2409449614398793,-0.06270132737852098
0.1700000762939453,0.219256510464614,-0.009687208326909254,0.5630720840087055,-0.6604017494218293,-0.27354736122543905,0.6605085273211092,0.22971690373868067,0.25874348953538595,-0.10782579167309074,-0.5630720840087055,0.014631628331463786,-0.15057217030809383,0.014341153903560739,-1.9400545997660092,-0.12163963029850246,0.2424150018011224,-0.06291163228661487
0.17100000381469727,0.21951525396643903,-0.009795034123703795,0.5625090118979522,-0.6604406972618084,-0.2735634939489836,0.6605474814584197,0.22947358217820965,0.258484746033561,-0.10771796587629621,-0.5625090118979522,0.014688977400391157,-0.14982884642706643,0.014307633357821568,-1.9406312002707578,-0.12225732984499049,0.2438830694938019,-0.06311708043829434
0.17199993133544922,0.21977373872474995,-0.00990275209469642,0.5619465028593366,-0.6604796038242403,-0.27357960957480826,0.6605863943115088,0.22923024627563848,0.25822626127525006,-0.10761024790530359,-0.5619465028593366,0.014748969833393586,-0.14908427878478306,0.01427099460669421,-1.9412045844997172,-0.12287115490787831,0.24534916633609516,-0.06331776009566478
0.17300009727478027,0.22003196499829028,-0.010010362347712937,0.5613845563297862,-0.6605184691066933,-0.27359570810190575,0.6606252658779446,0.22898689604617561,0.25796803500170973,-0.10750263765228707,-0.5613845563297862,0.01481154354435585,-0.14833847504309772,0.01423130534552429,-1.9417747624684407,-0.12348117419622275,0.24681329415770192,-0.06351375736399911
0.17400002479553223,0.2202899330455448,-0.010117864990471325,0.5608231717467921,-0.6605572931067383,-0.27361178952926996,0.6606640961552975,0.22874353150503046,0.2577100669544552,-0.10739513500952869,-0.5608231717467921,0.014876637883075833,-0.1475914428419546,0.014188631736041672,-1.9423417441673947,-0.12408745475795784,0.24827545480099356,-0.06370515629114126
0.17499995231628418,0.22054764312473984,-0.010225260130581849,0.5602623485484076,-0.6605960758219488,-0.2736278538558958,0.6607028851411407,0.2285001526674133,0.25745235687526014,-0.10728773986941816,-0.5602623485484076,0.014944193663537464,-0.14684318979876737,0.014143038383393211,-1.9429055395607318,-0.12469006201739412,0.24973565011888432,-0.06389203890650454
0.17600011825561523,0.22080509549384345,-0.010332547875547162,0.5597020861732481,-0.6606348172499008,-0.27364390108077924,0.66074163283305,0.22825675954853533,0.25719490450615656,-0.10718045212445285,-0.5597020861732481,0.015014153203750531,-0.1460937235077928,0.014094588301807034,-1.9434661585850157,-0.12528905981017968,0.2511938819725703,-0.06407448525606094
0.1770000457763672,0.22106229041056571,-0.010439728332762414,0.5591423840604904,-0.6606735173881729,-0.27365993120291726,0.6607803392286035,0.22801335216360857,0.2569377095894343,-0.10707327166723761,-0.5591423840604904,0.01508646010038992,-0.14534305154063976,0.014043343136210674,-1.9440236111507412,-0.12588451045933416,0.2526501522339928,-0.06425257351452533
0.17799997329711914,0.22131922813235905,-0.010546801609515358,0.5585832416498722,-0.6607121762343466,-0.27367594422130814,0.660819004325382,0.22776993052784605,0.25668077186764093,-0.10696619839048464,-0.5585832416498722,0.01516105924132217,-0.14459118144580757,0.013989363154027863,-1.944577907141426,-0.12647647481098911,0.2541044627841902,-0.06442638002419697
0.1790001392364502,0.22157590891641837,-0.010653767812986464,0.558024658381691,-0.6607507937860058,-0.27369194013495096,0.6608576281209692,0.2275264946564616,0.2564240910835816,-0.10685923218701354,-0.558024658381691,0.015237897074730136,-0.14383812074721167,0.013932706988904756,-1.9451290564101302,-0.12706501222997882,0.2555568155072172,-0.06459597925926061
0.18000006675720215,0.22183233301968144,-0.010760627050249019,0.5574666336968046,-0.6607893700407365,-0.27370791894284596,0.6608962106129507,0.22728304456466994,0.25616766698031856,-0.10675237294975098,-0.5574666336968046,0.01531692104234521,-0.1430838769461662,0.013873432191759731,-1.94567706878461,-0.12765018072421397,0.25700721229877765,-0.06476144403158154
0.1809999942779541,0.22208850069882907,-0.010867379428269236,0.5569091670366295,-0.6608279049961278,-0.2737238806439945,0.6609347517989154,0.22703958026768672,0.2559114993011709,-0.10664562057173077,-0.5569091670366295,0.015398080009145266,-0.14232845751930542,0.01381159481914125,-1.9462219540622758,-0.12823203691277965,0.25845565505744617,-0.06492284540550963
0.18199992179870605,0.2223444122102854,-0.010974025053906362,0.5563522578431411,-0.6608663986497713,-0.2737398252373989,0.6609732516764544,0.22679610178072848,0.2556555877897146,-0.10653897494609364,-0.5563522578431411,0.015481323959418746,-0.1415718699195259,0.013747249730174195,-1.9467637220127108,-0.1288106361064942,0.2599021456888022,-0.06508025282384819
0.1830000877380371,0.2226000678102181,-0.011080564033912785,0.5557959055588727,-0.6609048509992611,-0.27375575272206276,0.6610117102431615,0.2265526091190126,0.25539993218978185,-0.10643243596608722,-0.5557959055588727,0.015566604071583152,-0.14081412157540876,0.013680450517482828,-1.947302382376349,-0.12938603232900467,0.2613466861029776,-0.06523373412331146
0.18400001525878906,0.22285546775453874,-0.011186996474934142,0.555240109626915,-0.660943262042194,-0.27377166309699047,0.661050127496633,0.22630910229775733,0.25514453224546124,-0.10632600352506587,-0.555240109626915,0.015653872705366865,-0.14005521989102435,0.01361124952264471,-1.9478379448641014,-0.12995827835058515,0.26278927821379794,-0.06538335557444595
0.18499994277954102,0.22311061229890292,-0.011293322483509421,0.5546848694909156,-0.6609816317761695,-0.2737875563611878,0.6610885034344679,0.22606558133218196,0.25488938770109704,-0.10621967751649058,-0.5546848694909156,0.015743083287667138,-0.13929517224615368,0.013539697949487756,-1.948370419158015,-0.13052742573558762,0.26422992393972855,-0.0655291819483111
0.18600010871887207,0.2233655016987106,-0.011399542166071076,0.5541301845950786,-0.6610199601987893,-0.27380343251366124,0.6611268380542675,0.22582204623750646,0.25463449830128937,-0.10611345783392893,-0.5541301845950786,0.015834190403218994,-0.13853398599572128,0.01346584577930359,-1.948899814909923,-0.1310935248590211,0.2656686252013041,-0.06567127652532902
0.18700003623962402,0.2236201362091064,-0.011505655628945123,0.5535760543841637,-0.6610582473076578,-0.27381929155341866,0.6611651313536361,0.22557849702895177,0.2543798637908936,-0.10600734437105488,-0.5535760543841637,0.015927149629026242,-0.13777166847025316,0.013389741933675725,-1.949426141742679,-0.13165662495922464,0.26710538392305705,-0.06580970117353901
0.18799996376037598,0.22387451608497969,-0.011611662978351258,0.553022478303486,-0.6610964931003821,-0.27383513347946875,0.6612033833301801,0.22533493372173974,0.2541254839150203,-0.10590133702164875,-0.553022478303486,0.0160219176401822,-0.1370082269752863,0.013311434174825758,-1.9499494092487137,-0.1322167741506755,0.2685402020307692,-0.06594451635159645
0.18900012969970703,0.22412864158096502,-0.01171756432040295,0.5524694557989154,-0.661134697574572,-0.27385095829082157,0.6612415939815092,0.22509135633109317,0.25387135841903496,-0.10579543567959705,-0.5524694557989154,0.01611845206258116,-0.13624366879177827,0.01323096925061067,-1.9504696269911337,-0.1327740194718226,0.269973081453162,-0.0660757811794072
0.19000005722045898,0.2243825129514423,-0.011823359761107561,0.5519169863168756,-0.6611728607278394,-0.27386676598648785,0.6612797633052347,0.22484776487223548,0.2536174870485577,-0.10568964023889243,-0.5519169863168756,0.016216711512529004,-0.13547800117581088,0.013148392858706058,-1.950986804502994,-0.13332840690559747,0.2714040241203717,-0.06620355345719073
0.19099998474121094,0.22463613045053704,-0.011929049406366441,0.551365069304344,-0.6612109825577995,-0.27388255656547983,0.6613178912989714,0.22460415936039133,0.25336386954946294,-0.10558395059363357,-0.551365069304344,0.016316655612231844,-0.1347112313583989,0.01306374963399462,-1.9515009512868355,-0.1338799814029302,0.27283303196289554,-0.06632788969074088
0.1919999122619629,0.22488949433212063,-0.012034633361975043,0.5508137042088512,-0.6612490630620693,-0.2738983300268104,0.6613559779603362,0.2243605398107859,0.25311050566787935,-0.10547836663802494,-0.5508137042088512,0.016418244862019548,-0.1339433665458616,0.012977083274486932,-1.9520120768156548,-0.13442878692475912,0.2742601069130344,-0.06644884515314878
0.19300007820129395,0.2251426048498106,-0.012140111733623022,0.5502628904784801,-0.6612871022382691,-0.2739140863694938,0.6613940232869486,0.22411690623864547,0.25285739515018935,-0.10537288826637699,-0.5502628904784801,0.01652144069210118,-0.13317441391951698,0.012888436493481282,-1.952520190532125,-0.1349748664588316,0.27568525090327856,-0.0665664738984585
0.1940000057220459,0.22539546225697088,-0.012245484626894343,0.5497126275618656,-0.6613251000840213,-0.2739298255925453,0.6614320272764309,0.22387325865919713,0.2526045377430291,-0.10526751537310566,-0.5497126275618656,0.016626205434584658,-0.13240438063569823,0.012797851048774986,-1.9530253018486288,-0.13551826204674103,0.2771084658660905,-0.06668082879563024
0.19499993324279785,0.22564806680671198,-0.012350752147267387,0.5491629149081938,-0.661363056596951,-0.2739455476949812,0.6614699899264078,0.22362959708766889,0.25235193319328797,-0.10516224785273262,-0.5491629149081938,0.016732502262551033,-0.1316332738258949,0.012705367803704572,-1.9535274201476227,-0.1360590148143786,0.27852975373429456,-0.06679196156983708
0.1960000991821289,0.22590041875189135,-0.012455914400115058,0.5486137519672017,-0.6614009717746859,-0.2739612526758188,0.6615079112345066,0.22338592153928957,0.2520995812481086,-0.10505708559988494,-0.5486137519672017,0.016840295191118432,-0.13086110059667685,0.012611026728124707,-1.9540265547814164,-0.13659716499350838,0.27994911644041953,-0.06689992282705652
0.19700002670288086,0.22615251834511355,-0.012560971490704887,0.5480651381891768,-0.6614388456148563,-0.27397694053407656,0.6615457911983572,0.2231422320292889,0.25184748165488646,-0.10495202850929512,-0.5480651381891768,0.016949549072820033,-0.13008786802965153,0.012514866904809364,-1.9545227150720312,-0.13713275194357136,0.2813665559161722,-0.06700476207958046
0.1979999542236328,0.22640436583873055,-0.012665923524199136,0.5475170730249559,-0.6614766781150953,-0.273992611268774,0.6615836298155922,0.22289852857289746,0.2515956341612694,-0.10484707647580085,-0.5475170730249559,0.017060229553017045,-0.12931358318157152,0.012416926574484708,-1.9550159103114562,-0.13766581417788967,0.2827820740926261,-0.06710652778072856
0.19900012016296387,0.22665596148484196,-0.012770770605654905,0.5469695559259252,-0.661514469273038,-0.27400826487893165,0.6616214270838465,0.22265481118534675,0.251344038515158,-0.1047422293943451,-0.5469695559259252,0.017172303072085938,-0.12853825308428585,0.012317243135510995,-1.95550614976147,-0.1381963893833302,0.2841956728996242,-0.06720526734721252
0.20000004768371582,0.2269073055352953,-0.01287551284002424,0.5464225863440196,-0.6615522190863228,-0.27402390136357124,0.661659183000758,0.2224110798818691,0.25109269446470467,-0.10463748715997576,-0.5464225863440196,0.01728573677466948,-0.12776188474501954,0.012215853233532234,-1.955993442654349,-0.13872451445070821,0.2856073542667923,-0.06730102720333149
0.20099997520446777,0.22715839824168627,-0.012980150332154229,0.545876163731722,-0.6615899275525902,-0.2740395207217155,0.6616968975639668,0.22216733467769767,0.2508416017583137,-0.10453284966784578,-0.545876163731722,0.01740049862641125,-0.12698448514594252,0.012112792650069234,-1.9564777981916575,-0.1392502254793316,0.2870171201210594,-0.06739385277432713
0.20199990272521973,0.2274092398553589,-0.013084683186787118,0.5453302875420626,-0.6616275946694835,-0.2740551229523882,0.6617345707711159,0.22192357558806663,0.2505907601446411,-0.10442831681321289,-0.5453302875420626,0.017516557233189827,-0.12620606124477093,0.012008096479279853,-1.9569592255458061,-0.13977355781705028,0.28842497238922493,-0.0674837885507831
0.20300006866455078,0.22765983062740597,-0.01318911150856041,0.5447849572286187,-0.6616652204346483,-0.2740707080546141,0.6617722026198505,0.22167980262821085,0.250340169372594,-0.1043238884914396,-0.5447849572286187,0.017633882011949476,-0.12542661997417576,0.011901798963986127,-1.9574377338583893,-0.14029454605758715,0.2898309129946266,-0.06757087806837246
0.20399999618530273,0.22791017080866907,-0.013293435402006969,0.5442401722455142,-0.6617028048457331,-0.27408627602741925,0.6618097931078187,0.22143601581336617,0.25008982919133094,-0.10421956459799303,-0.5442401722455142,0.017752442990957927,-0.1246461682424501,0.0117939336907602,-1.9579133322419218,-0.1408132240813754,0.2912349438600559,-0.06765516397495161
0.2049999237060547,0.22816026064973904,-0.013397654971555125,0.5436959320474187,-0.6617403479003889,-0.2741018268698306,0.6618473422326712,0.22119221515876927,0.24983973935026094,-0.10411534502844488,-0.5436959320474187,0.017872210857379087,-0.1238647129333443,0.01168453354531282,-1.9583860297793283,-0.14132962506634963,0.2926370669065341,-0.06773668803815466
0.20600008964538574,0.22841010040095605,-0.013501770321528783,0.5431522360895471,-0.6617778495962693,-0.2741173605808762,0.6618848499920611,0.22094840067965768,0.24958989959904393,-0.10401122967847122,-0.5431522360895471,0.017993157006136018,-0.12308226090590896,0.011573630666525475,-1.9588558355234327,-0.1418437814986308,0.29403728405209706,-0.06781549115294105
0.2070000171661377,0.22865969031240999,-0.013605781556147521,0.5426090838276592,-0.6618153099310302,-0.2741328771595853,0.6619223163836442,0.22070457239126978,0.24934030968759,-0.10390721844385248,-0.5426090838276592,0.0181152534283704,-0.12229881899487596,0.011461256555968002,-1.9593227584979152,-0.14235572520097292,0.2954355972132712,-0.06789161338541881
0.20799994468688965,0.2289090306339406,-0.013709688779526701,0.5420664747180589,-0.6618527289023306,-0.274148376604988,0.6619597414050787,0.22046073030884486,0.24909096936605937,-0.1038033112204733,-0.5420664747180589,0.01823847277706216,-0.12151439401045318,0.011347442015589829,-1.9597868076966725,-0.14286548734062393,0.29683200830361867,-0.06796509397551107
0.2090001106262207,0.22915812161513785,-0.013813492095677567,0.5415244082175941,-0.6618901065078318,-0.27416385891611555,0.6619971250540257,0.22021687444762308,0.24884187838486213,-0.10369950790432245,-0.5415244082175941,0.018362788312572202,-0.12072899273852951,0.011232217201806801,-1.9602479920842788,-0.14337309845032922,0.29822651923429455,-0.06803597136657462
0.21000003814697266,0.22940696350534207,-0.013917191608507351,0.5409828837836554,-0.6619274427451975,-0.27417932409200046,0.6620344673281486,0.2199730048228454,0.24859303649465792,-0.10359580839149266,-0.5409828837836554,0.018488173832227953,-0.11994262194091042,0.011115611695072962,-1.9607063205965662,-0.14387858845026696,0.2996191319148671,-0.06810428323750345
0.2109999656677246,0.22965555655364425,-0.014020787421819381,0.5404419008741764,-0.6619647376120945,-0.27419477213167603,0.6620717682251136,0.2197291214497537,0.24834444344635573,-0.10349221257818063,-0.5404419008741764,0.018614603762931243,-0.11915528835505805,0.010997654411229274,-1.961161802139797,-0.14438198665198207,0.3010098482514785,-0.06817006649838896
0.21200013160705566,0.22990390100888633,-0.014124279639313179,0.5399014589476326,-0.6620019911061917,-0.27421020303417687,0.6621090277425895,0.2194852243435907,0.24809609899111365,-0.10338872036068683,-0.5399014589476326,0.018742053086875213,-0.11836699869435384,0.010878373674733807,-1.9616144455912983,-0.14488332178007476,0.30239867014776123,-0.06823335732277976
0.21300005912780762,0.2301519971196614,-0.014227668364584566,0.539361557463041,-0.6620392032251606,-0.27422561679853846,0.6621462458782473,0.21924131351959988,0.2478480028803386,-0.10328533163541542,-0.539361557463041,0.018870497343961092,-0.11757775964812751,0.01075779721744066,-1.9620642597994418,-0.14538262198514923,0.303785599504512,-0.06829419116245619
0.21399998664855957,0.23039984513431389,-0.014330953701125772,0.5388221958799597,-0.6620763739666755,-0.2742410134237974,0.662183422629761,0.21899738899302573,0.24760015486568612,-0.10318204629887423,-0.5388221958799597,0.018999912600573737,-0.11678757788178872,0.010635952210000459,-1.9625112535839127,-0.14587991485989882,0.3051706382199213,-0.06835260276902355
0.21499991416931152,0.23064744530093995,-0.01443413575232553,0.5382833736584871,-0.6621135033284136,-0.27425639290899156,0.6622205579948073,0.2187534507791136,0.24735255469906003,-0.10307886424767447,-0.5382833736584871,0.019130275430095336,-0.11599646003692259,0.010512865281845108,-1.9629554357358803,-0.1463752274535084,0.30655378818962764,-0.06840862621240852
0.21600008010864258,0.23089479786738762,-0.014537214621469188,0.5377450902592615,-0.6621505913080538,-0.2742717552531596,0.6622576519710648,0.21850949889310955,0.24710520213261236,-0.10297578537853082,-0.5377450902592615,0.019261562972754026,-0.11520441273115878,0.010388562464073709,-1.9633968150175065,-0.1468685862778117,0.30793505130549437,-0.06846229488249687
0.21700000762939453,0.2311419030812571,-0.014640190411738807,0.5372073451434608,-0.6621876379032784,-0.2742871004553414,0.6622947045562154,0.2182655333502606,0.2468580969187429,-0.1028728095882612,-0.5372073451434608,0.019393752819743277,-0.1144114425585593,0.010263069302986655,-1.9638354001629488,-0.1473600173307649,0.3093144294572503,-0.0685136415271182
0.21799993515014648,0.23138876118990095,-0.014743063226213264,0.5366701377728014,-0.6622246431117718,-0.2743024285145778,0.6623317157479431,0.21802155416581454,0.24661123881009903,-0.10276993677378674,-0.5366701377728014,0.019526823065984147,-0.11361755608950987,0.010136410809801176,-1.9642711998779385,-0.14784954610257275,0.3106919245314017,-0.06856269825428687
0.21900010108947754,0.23163537244042445,-0.01484583316786836,0.5361334676095381,-0.6622616069312213,-0.27431773942991095,0.6623686855439351,0.21777756135502016,0.24636462755957553,-0.10266716683213165,-0.5361334676095381,0.019660752303651552,-0.11282275987079156,0.010008611467851375,-1.964704222839865,-0.14833719758759667,0.31206753841112755,-0.06860949654669485
0.2200000286102295,0.2318817370796857,-0.01494850033957692,0.5355973341164636,-0.6622985293593168,-0.27433303320038377,0.6624056139418805,0.21753355493312698,0.24611826292031427,-0.10256449966042308,-0.5355973341164636,0.01979551955284921,-0.11202706042582823,0.009879695300860277,-1.9651344776983861,-0.14882299630186782,0.3134412729771756,-0.06865406728835625
0.22099995613098145,0.232127855354296,-0.015051064844108895,0.5350617367569076,-0.6623354103937505,-0.2743483098250406,0.6624425009394712,0.2172895349153854,0.245872144645704,-0.10246193515589111,-0.5350617367569076,0.01993110431841797,-0.11123046425458383,0.009749685818597593,-1.9655619730750027,-0.14930696628819415,0.3148131301067636,-0.06869644076543828
0.2220001220703125,0.23237372751062002,-0.015153526784131467,0.5345266749947366,-0.6623722500322172,-0.2743635693029265,0.6624793465344019,0.21704550131704667,0.24562627248937996,-0.10235947321586854,-0.5345266749947366,0.02006748655336051,-0.1104329778337179,0.009618606053261411,-1.9659867175633974,-0.1497891311299858,0.31618311167397106,-0.06873664668569467
0.22300004959106445,0.23261935379477602,-0.01525588626220915,0.5339921482943533,-0.6624090482724148,-0.27437881163308775,0.6625161507243698,0.21680145415336288,0.24538064620522396,-0.10225711373779085,-0.5339921482943533,0.020204646614925485,-0.10963460761676534,0.009486478603004106,-1.966408719729842,-0.15026951396526372,0.317551219550257,-0.06877471419866933
0.2239999771118164,0.2328647344526362,-0.015358143380803893,0.5334581561206957,-0.662445805112043,-0.27439403681457175,0.6625529135070743,0.216557393439587,0.24513526554736378,-0.10215485661919611,-0.5334581561206957,0.020342565309931553,-0.10883536003407196,0.009353325588648303,-1.966827988112883,-0.1507481374922086,0.31891745560357276,-0.0688106718981781
0.22499990463256836,0.23310986972982686,-0.015460298242275185,0.5329246979392371,-0.6624825205488046,-0.27440924484642687,0.6625896348802182,0.2163133191909728,0.24489013027017312,-0.10205270175772481,-0.5329246979392371,0.020481223863659397,-0.10803524149293732,0.009219168684696284,-1.9672445312236428,-0.15122502398153828,0.32028182169869646,-0.06884454783952884
0.22600007057189941,0.23335475987172868,-0.015562350948880152,0.5323917732159853,-0.662519194580405,-0.2744244357277027,0.6626263148415061,0.21606923142277493,0.2446452401282713,-0.10195064905111985,-0.5323917732159853,0.020620603882354847,-0.10723425837777728,0.009084029156559141,-1.9676583575461823,-0.15170019528902287,0.3216443196976604,-0.06887636955738445
0.22699999809265137,0.233599405123477,-0.01566430160277367,0.531859381417482,-0.662555827204552,-0.2744396094574497,0.6626629533886458,0.2158251301502489,0.244400594876523,-0.10184869839722634,-0.531859381417482,0.020760687392857337,-0.10643241705008222,0.008947927822717038,-1.9680694755372403,-0.15217367286095235,0.3230049514589901,-0.06890616406874495
0.22799992561340332,0.2338438057299619,-0.01576615030600845,0.5313275220108026,-0.662592418418956,-0.27445476603471963,0.662699550519347,0.21558101538865101,0.24415619427003804,-0.10174684969399155,-0.5313275220108026,0.020901456795812165,-0.10562972384860278,0.008810885100944603,-1.968477893626675,-0.15264547774698833,0.32436371883829374,-0.06893395789201483
0.22900009155273438,0.23408796193582876,-0.015867897160535157,0.5307961944635551,-0.6626289682213303,-0.27446990545856514,0.6627361062313228,0.21533688715323848,0.24391203806417125,-0.10164510283946486,-0.5307961944635551,0.021042894864112226,-0.10482618508941556,0.008672921010512962,-1.9688836202175322,-0.15311563060874556,0.32572062368815224,-0.06895977705716344
0.23000001907348633,0.23433187398547814,-0.015969542268202505,0.5302653982438801,-0.6626654766093903,-0.27448502772804,0.662772620522288,0.21509274545926926,0.24366812601452184,-0.1015434577317975,-0.5302653982438801,0.021184984761922994,-0.10402180706594365,0.008534055154316263,-1.9692866636859745,-0.15358415172650025,0.3270756678577067,-0.06898364711200841
0.23099994659423828,0.23457554212306628,-0.01607108573075736,0.5297351328204499,-0.6627019435808544,-0.2745001328421991,0.6628090933899607,0.21484859032200224,0.2434244578769337,-0.10144191426924265,-0.5297351328204499,0.02132770999471409,-0.10321659604914574,0.008394306768163528,-1.969687032381735,-0.15405106101144808,0.3284288531933057,-0.0690055931407814
0.23200011253356934,0.23481896659250526,-0.016172527649844833,0.5292053976624684,-0.6627383691334433,-0.2745152208000983,0.6628455248320614,0.21460442175669714,0.24318103340749472,-0.10134047235015517,-0.5292053976624684,0.021471054442678893,-0.10241055828750206,0.00825369468884663,-1.9700847346279364,-0.15451637801079296,0.32978018153788713,-0.06902563976733027
0.2330000400543213,0.23506214763746322,-0.016273868127008404,0.5286761922396701,-0.6627747532648803,-0.2745302916007947,0.6628819148463132,0.2143602397786145,0.24293785236253676,-0.1012391318729916,-0.5286761922396701,0.02161500232060795,-0.10160370000717907,0.008112237393822207,-1.9704797787214714,-0.1549801219187042,0.3311296547314806,-0.06904381117131592
0.23399996757507324,0.2353050855013647,-0.016375107263689997,0.5281475160223197,-0.6628110959728915,-0.27454534524334623,0.6629182634304415,0.21411604440301557,0.2426949144986353,-0.10113789273631,-0.5281475160223197,0.021759538158536,-0.10079602741214118,0.007969953020662954,-1.9708721729332241,-0.15544231158522995,0.3324772746113942,-0.06906013110023664
0.2350001335144043,0.23554778042739072,-0.0164762451612301,0.5276193684812117,-0.6628473972552055,-0.27456038172681224,0.6629545705821746,0.21387183564516274,0.24245221957260926,-0.10103675483876991,-0.5276193684812117,0.02190464684879612,-0.09998754668410811,0.007826859321764018,-1.9712619255077926,-0.1559029655198494,0.3338230430114213,-0.0690746228697869
0.23600006103515625,0.23579023265847918,-0.016577281920867857,0.52709174908767,-0.6628836571095534,-0.27457540105025285,0.6629908362992433,0.21362761352031898,0.24220976734152078,-0.10093571807913215,-0.52709174908767,0.022050313615344007,-0.09917826398270016,0.0076829736947694825,-1.971649044663811,-0.15636210190105573,0.33516696176221883,-0.06908730937767726
0.2369999885559082,0.23603244243732505,-0.016678217643741177,0.5265646573135468,-0.6629198755336692,-0.2745904032127294,0.663027060579381,0.21338337804374816,0.24196755756267493,-0.10083478235625883,-0.5265646573135468,0.022196548789657284,-0.09836818539059121,0.007538289018248805,-1.9720335384142225,-0.156819736734996,0.33650903233067564,-0.06909820898357849
0.23799991607666016,0.23627441000638055,-0.016779052430886832,0.5260380926312228,-0.6629560525252889,-0.2746053882133041,0.6630632434203237,0.213139129230715,0.24172558999361943,-0.10073394756911318,-0.5260380926312228,0.022343288207525923,-0.09755731713512449,0.007392870794201145,-1.9724154152906181,-0.15727589131808886,0.3378492572712848,-0.06910735215701622
0.2390000820159912,0.23651613560785553,-0.01687978638324055,0.5255120545136062,-0.6629921880821517,-0.27462035605104057,0.6630993848198101,0.2128948670964851,0.24148386439214445,-0.10063321361675945,-0.5255120545136062,0.022490543483307816,-0.09674566525295654,0.0072467105946318255,-1.972794683248509,-0.15773058095622916,0.3391876380332801,-0.0691147563140474
0.24000000953674316,0.23675761948371754,-0.016980419601637133,0.5249865424341321,-0.6630282822019989,-0.2746353067250032,0.6631354847755812,0.2126505916563248,0.24124238051628244,-0.1005325803983629,-0.5249865424341321,0.022638300463229222,-0.09593323581753005,0.007099825090343994,-1.973171350408551,-0.1581838226228672,0.34052417644417465,-0.06912044287557291
0.24099993705749512,0.23699886187569222,-0.017080952186810536,0.5244615558667625,-0.6630643348825748,-0.27465024023425755,0.6631715432853806,0.21240630292550125,0.24100113812430776,-0.10043204781318947,-0.5244615558667625,0.022786545673374393,-0.09512003487973685,0.006952230260399829,-1.973545424863284,-0.15863563296645883,0.34185887432284545,-0.0691244328237569
0.24200010299682617,0.23723986302526345,-0.01718138423939399,0.5239370942859851,-0.663100346121626,-0.27466515657787044,0.663207560346955,0.21216200091928267,0.24076013697473655,-0.10033161576060601,-0.5239370942859851,0.022935266452809223,-0.09430606846777531,0.006803941262230879,-1.9739169146764006,-0.1590860283093043,0.3431917334777579,-0.06912674669169677
0.24300003051757812,0.2374806231736737,-0.017281715859920093,0.5234131571668135,-0.6631363159169019,-0.2746800557549095,0.6632435359580532,0.21191768565293784,0.2405193768263263,-0.10023128414007991,-0.5234131571668135,0.02308444950627783,-0.09349134259023983,0.006654973844852894,-1.9742858278929964,-0.1595350247552616,0.34452275572746927,-0.06912740480089341
0.24399995803833008,0.23772114256192406,-0.017381947148820902,0.5228897439847858,-0.6631722442661544,-0.2746949377644436,0.6632794701164266,0.2116733571417365,0.24027885743807592,-0.1001310528511791,-0.5228897439847858,0.023234082810677924,-0.0926758632322398,0.006505342488143807,-1.9746521725263284,-0.15998263806230256,0.34585194287356646,-0.06912642696602568
0.24500012397766113,0.23796142143077476,-0.01748207820642805,0.5223668542159651,-0.6632081311671377,-0.27470980260554245,0.6633153628198294,0.21142901540094905,0.24003857856922522,-0.10003092179357195,-0.5223668542159651,0.023384153946190225,-0.09185963635890927,0.006355062032584466,-1.9750159565695384,-0.16042888376411538,0.34717929672421244,-0.06912383276492433
0.24600005149841309,0.23820146002074521,-0.017582109132972836,0.521844487336938,-0.6632439766176093,-0.27472465027727716,0.6633512140660184,0.21118466044584702,0.23979853997925477,-0.09993089086702717,-0.521844487336938,0.02353465092464946,-0.09104266791376754,0.006204146870923734,-1.975377187989968,-0.1608737771180523,0.34850481908238895,-0.06911964141442688
0.24699997901916504,0.2384412585721143,-0.017682040028586327,0.5213226428248148,-0.6632797806153284,-0.2747394807787196,0.6633870238527527,0.21094029229170252,0.2395587414278857,-0.09983095997141368,-0.5213226428248148,0.02368556195306859,-0.09022496381926945,0.00605261117950805,-1.9757358747308869,-0.1613173331266103,0.3498285117491744,-0.06911387181349399
0.247999906539917,0.2386808173249206,-0.01778187099329946,0.5208013201572285,-0.6633155431580576,-0.27475429410894303,0.6634227921777942,0.2106959109537886,0.23931918267507937,-0.09973112900670053,-0.5208013201572285,0.023836875611495882,-0.0894065299765302,0.005900468744871779,-1.9760920247103828,-0.16175956653106408,0.3511503765212578,-0.0691065425227194
0.24900007247924805,0.23892013651896274,-0.017881602127043133,0.5202805188123345,-0.6633512642435616,-0.2747690902670215,0.6634585190389075,0.210451516447379,0.23907986348103724,-0.09963139787295687,-0.5202805188123345,0.02398858077426687,-0.0885873722655617,0.005747733040977143,-1.9764456458220163,-0.16220049182210192,0.3524704151920268,-0.06909767178293334
0.25,0.23915921639379947,-0.017981233529648328,0.5197602382688101,-0.6633869438696081,-0.27478386925203035,0.6634942044338598,0.2102071087877485,0.2388407836062005,-0.09953176647035168,-0.5197602382688101,0.024140666194731097,-0.0877674965460997,0.005594417635614444,-1.9767967459376217,-0.1626401232706834,0.3537886295571375,-0.06908727758135683
0.25099992752075195,0.23939805718875,-0.018080765300846183,0.519240478005854,-0.6634225820339666,-0.2747986310630458,0.6635298483604204,0.2099626879901725,0.23860194281124997,-0.09943223469915383,-0.519240478005854,0.02429312131676015,-0.08694690865617433,0.005440535397391704,-1.9771453329020743,-0.16307847488186028,0.3551050214034963,-0.06907537753886837
0.252000093460083,0.23963665914289425,-0.018180197540268114,0.5187212375031856,-0.66345817873441,-0.27481337569914527,0.6635654508163619,0.2097182540699273,0.23836334085710573,-0.09933280245973189,-0.5187212375031856,0.02444593535349029,-0.08612561441386031,0.00528609939687156,-1.9774914145393918,-0.16351556045683088,0.35641959252164757,-0.06906198904907021
0.25300002098083496,0.239875022495073,-0.0182795303474459,0.5182025162410444,-0.6634937339687137,-0.2748281031594072,0.6636010117994589,0.20947380704229007,0.23812497750492698,-0.09923346965255411,-0.5182025162410444,0.024599097943838147,-0.08530361961614803,0.005131122264974595,-1.9778349986485488,-0.16395139355672297,0.3577323446969065,-0.06904712918872373
0.2539999485015869,0.24011314748388826,-0.01837876382181179,0.5176843137001901,-0.6635292477346552,-0.2748428134429111,0.663636531307489,0.20922934692253872,0.23788685251611172,-0.09913423617818821,-0.5176843137001901,0.024752599276953353,-0.08448093003882916,0.004975616071301683,-1.9781760930028491,-0.16438598750081773,0.35904327970780336,-0.06903081470775979
0.25500011444091797,0.24035103434770339,-0.018477898062698603,0.5171666293619012,-0.663564720030015,-0.27485750654873764,0.6636720093382321,0.208984873725952,0.2376489656522966,-0.0990351019373014,-0.5171666293619012,0.0249064292669559,-0.08365755143798778,0.004819593131955494,-1.978514705355236,-0.164819355419639,0.36035239933692287,-0.0690130621492237
0.2560000419616699,0.2405886833246434,-0.01857693316933982,0.5166494627079752,-0.6636001508525761,-0.2748721824759685,0.6637074458894711,0.2087403874678095,0.2374113166753566,-0.09893606683066018,-0.5166494627079752,0.025060577880144694,-0.08283348954946204,0.0046630656899763765,-1.9788508434362335,-0.16525151023863668,0.3616597053664419,-0.06899388780652259
0.2569999694824219,0.2408260946525952,-0.01867586924086969,0.5161328132207277,-0.6636355402001239,-0.2748868412236864,0.6637428409589907,0.20849588816339162,0.2371739053474048,-0.09883713075913031,-0.5161328132207277,0.025215036097533863,-0.08200875008734201,0.004506044973193665,-1.979184514948142,-0.16568246462836045,0.36296519956575435,-0.06897330759977974
0.25800013542175293,0.24106326856920776,-0.018774706376323332,0.5156166803829919,-0.6636708880704468,-0.2749014827909752,0.6637781945445792,0.20825137582797956,0.23693673143079222,-0.09873829362367667,-0.5156166803829919,0.025369794403849094,-0.08118333874653605,0.004348542673723496,-1.9795157275744666,-0.16611223109454257,0.3642688837109911,-0.06895133728488861
0.2590000629425049,0.24130020531189245,-0.018873444674636825,0.5151010636781185,-0.6637061944613356,-0.2749161071769198,0.6638135066440268,0.20800685047685535,0.23669979468810753,-0.09863955532536318,-0.5151010636781185,0.025524843783980376,-0.08035726120119599,0.004190569972733105,-1.97984448897387,-0.1665408219255527,0.3655707595721478,-0.06892799232397409
0.25999999046325684,0.2415369051178232,-0.018972084234647316,0.5145859625899744,-0.6637414593705834,-0.274930714380606,0.6638487772551265,0.20776231212530175,0.2364630948821768,-0.09854091576535269,-0.5145859625899744,0.02568017494879261,-0.07953052310600292,0.004032138299044008,-1.980170806784922,-0.16696824923852194,0.3668708289228759,-0.06890328799122898
0.2609999179840088,0.24177336822393677,-0.01907062515509311,0.5140713766029429,-0.6637766827959862,-0.27494530440112114,0.6638840063756739,0.20751776078860254,0.2362266317760632,-0.0984423748449069,-0.5140713766029429,0.02583577964413072,-0.07870313009421184,0.003873258046904134,-1.98049468861841,-0.16739452491313006,0.36816909352405847,-0.06887723920898912
0.26200008392333984,0.242009594866933,-0.01916906753461378,0.5135573052019229,-0.6638118647353427,-0.2749598772375532,0.6639191940034672,0.2072731964820421,0.235990405133067,-0.09834393246538622,-0.5135573052019229,0.025991648862101552,-0.07787508778045973,0.003713940328899931,-1.9808161420680288,-0.1678196606903898,0.36946555514616874,-0.06884986078125634
0.2630000114440918,0.242245585283275,-0.01926741147175025,0.5130437478723283,-0.6638470051864539,-0.2749744328889914,0.6639543401363072,0.2070286192209057,0.23575441471672498,-0.09824558852824976,-0.5130437478723283,0.026147774451984924,-0.07704640175838072,0.003554195397635367,-1.9811351747009727,-0.16824366809130692,0.37076021554919625,-0.06882116719297644
0.26399993896484375,0.24248133970918945,-0.019365657064944915,0.5125307041000877,-0.6638821041471236,-0.274988971354526,0.6639894447719972,0.2067840290204795,0.23551866029081053,-0.09814734293505509,-0.5125307041000877,0.02630414820506775,-0.07621707760205658,0.003394033542818995,-1.9814517940634158,-0.16866655846853962,0.37205307649402974,-0.06879117273050218
0.2650001049041748,0.24271685838066678,-0.01946380441254172,0.5120181733716437,-0.663917161615158,-0.2750034926332483,0.6640245079083431,0.20653942589605026,0.2352831416193332,-0.09804919558745828,-0.5120181733716437,0.026460762079790985,-0.07538712086573754,0.0032334648708941,-1.9817660076792767,-0.16908834299793826,0.37334413973964486,-0.0687598914569964
0.26600003242492676,0.24295214153346148,-0.019561853612786267,0.5115061551739525,-0.6639521775883662,-0.2750179967242508,0.6640595295431535,0.20629480986290577,0.2350478584665385,-0.09795114638721374,-0.5115061551739525,0.026617608102214238,-0.07455653708403923,0.0030724994029416946,-1.9820778230508524,-0.1695090326866723,0.37463340704427917,-0.06872733722819797
0.2669999599456787,0.2431871894030922,-0.01965980476382591,0.5109946489944833,-0.6639871520645594,-0.2750324836266269,0.6640945096742396,0.20605018093633445,0.23481281059690778,-0.0978531952361741,-0.5109946489944833,0.02677467847639152,-0.07372533177184616,0.002911146966700115,-1.9823872476582856,-0.16992863837094355,0.3759208801640881,-0.06869352368277108
0.26800012588500977,0.24342200222484212,-0.019757657963709863,0.5104836543212179,-0.664022085041552,-0.2750469533394713,0.6641294482994152,0.20580553913162578,0.23457799777515784,-0.09775534203629015,-0.5104836543212179,0.026931965959261756,-0.0728935104238883,0.002749416828798925,-1.982694288957625,-0.1703471707019453,0.3772065608487869,-0.06865846420329925
0.2690000534057617,0.24365658023375913,-0.019855413310389283,0.50997317064265,-0.6640569765171606,-0.2750614058618796,0.6641643454164965,0.2055608844640697,0.23434341976624085,-0.09765758668961072,-0.50997317064265,0.027089462975262525,-0.07206107851598476,0.0025873185638229505,-1.9829989543857758,-0.17076464019080856,0.37849045085207944,-0.06862217202334207
0.26999998092651367,0.2438909236646561,-0.01995307090171738,0.5094631974477849,-0.6640918264892043,-0.2750758411929484,0.6641992010233025,0.2053162169489572,0.2341090763353439,-0.09755992909828261,-0.5094631974477849,0.027247162167452245,-0.07122804150435305,0.002424861513847222,-1.9833012513575294,-0.17118105718513155,0.3797725519250994,-0.06858466016581333
0.2709999084472656,0.244125032752111,-0.02005063083544951,0.5089537342261389,-0.6641266349555052,-0.27509025933177567,0.6642340151176547,0.20507153660157998,0.23387496724788898,-0.09746236916455049,-0.5089537342261389,0.027405056663236182,-0.07039440482535243,0.002262054527587205,-1.9836011872642798,-0.17159643186059553,0.3810528658134469,-0.0685459414178783
0.2720000743865967,0.24435890773046737,-0.020148093209243278,0.5084447804677388,-0.6641614019138876,-0.2751046602774601,0.6642687876973772,0.20482684343723057,0.2336410922695326,-0.09736490679075673,-0.5084447804677388,0.02756313949862295,-0.0695601738962784,0.0020989065258695413,-1.9838987694771928,-0.17201077425002298,0.38233139426382756,-0.06850602839956015
