argallab/potential_fields/data/planned_path.csv
time_s,ee_px,ee_py,ee_pz,ee_qx,ee_qy,ee_qz,ee_qw,ee_vx,ee_vy,ee_vz,fer_joint1,fer_joint2,fer_joint3,fer_joint4,fer_joint5,fer_joint6,fer_joint7
0.0,0.466,0.0,0.644,0.0,0.0,0.0,1.0,4.5819456646874144e-06,-4.4869848407867845e-05,-0.00024589775067155884,0.0,-0.7853981633974483,0.0,-2.356194490192345,0.0,1.5707963267948966,0.7853981633974483
0.0010001659393310547,0.4660000045819459,-4.4869850539071285e-08,0.6439997541022376,0.0,0.0,0.0,1.0,9.163890141463147e-06,-8.973968518281355e-05,-0.0004917954375918573,1.6496275464895926,-1.5121725889122692,-1.3402857675813746,-2.3484687548839904,1.7755027896776925,1.6925079887945174,-0.09041073560286031
0.002000093460083008,0.4660000137458365,-1.3460953998429118e-07,0.6439992623067767,0.0,0.0,0.0,1.0,1.3745831393909355e-05,-0.00013460949038270636,-0.0007376929514731383,1.6496271790177617,-1.5121728574966018,-1.3402868609876157,-2.348469126798173,1.7755018585832147,1.692507342458467,-0.09041055247820304
0.003000020980834961,0.4660000274916685,-2.692190367606052e-07,0.6439985246137903,0.0,0.0,0.0,1.0,1.832776636740739e-05,-0.00017947923409442938,-0.0009835901283842,1.6496266278131806,-1.5121732603768379,-1.3402885010966377,-2.3484696846653956,1.7755004619381174,1.6925063729590712,-0.09041027779191002
0.004000186920166016,0.46600004581943577,-4.4869827937984075e-07,0.6439975410236152,0.0,0.0,0.0,1.0,2.2909690989153002e-05,-0.0002243488764340289,-0.0012294867497512157,1.6496258928797674,-1.5121737975576184,-1.3402906879077814,-2.348470428480722,1.7754985997384045,1.6925050803022526,-0.09040991154487883
0.005000114440917969,0.46600006872912786,-6.730471664698694e-07,0.643996311536807,0.0,0.0,0.0,1.0,2.7491600168183348e-05,-0.0002692183675469785,-0.0014753825423591787,1.6496249742151838,-1.5121744690138061,-1.3402934214274644,-2.3484713582387347,1.7754962719956948,1.6925034644681713,-0.0904094537335087
0.006000041961669922,0.46600009622072935,-9.422655468040343e-07,0.6439948361541946,0.0,0.0,0.0,1.0,3.2073487795418874e-05,-0.0003140876476085895,-0.0017212771783541537,1.6496238718292124,-1.5121752747654873,-1.3402967016509821,-2.3484724739305043,1.7754934786971428,1.6925015254781868,-0.09040890436132842
0.006999969482421875,0.46600012829421866,-1.2563532093309865e-06,0.6439931148769346,0.0,0.0,0.0,1.0,3.6655346743723815e-05,-0.00035895664682460295,-0.0019671702752465207,1.6496225857256033,-1.5121762148034896,-1.3403005285803251,-2.3484737755465166,1.7754902198454132,1.6924992633285585,-0.09040826342749789
0.00800013542175293,0.46600016494956714,-1.6153098732051153e-06,0.6439911477065658,0.0,0.0,0.0,1.0,4.123716886798837e-05,-0.00040382528543199495,-0.002213061395915387,1.6496211159086176,-1.5121772891159624,-1.3403049022176459,-2.3484752630755703,1.7754864954445349,1.69249667801424,-0.09040753093094726
0.009000062942504883,0.466000206186738,-2.0191351778177822e-06,0.6439889346450648,0.0,0.0,0.0,1.0,4.58189450052362e-05,-0.00044869347370002886,-0.0024589500486143553,1.6496194623867255,-1.5121784977033053,-1.3403098225615329,-2.3484769365041376,1.775482305491993,1.6924937695422848,-0.09040670687270944
0.009999990463256836,0.4660002520056852,-2.4678286728296075e-06,0.6439864756948994,0.0,0.0,0.0,1.0,5.040066497476048e-05,-0.000493561111931588,-0.0027048356869788267,1.6496176251688381,-1.5121798405625717,-1.3403152896106394,-2.3484787958169453,1.7754776499871696,1.6924905379180386,-0.09040579125353243
0.01100015640258789,0.46600030240635254,-2.9613898082040905e-06,0.643983770859084,0.0,0.0,0.0,1.0,5.4982317578292057e-05,-0.0005384280904648221,-0.002950717710035023,1.6496156042665353,-1.5121813176963663,-1.3403213033614125,-2.3484808409965785,1.7754725289266649,1.6924869831531757,-0.09040478407528127
0.012000083923339844,0.46600035738867274,-3.4998179242428746e-06,0.6439808201412338,0.0,0.0,0.0,1.0,5.956389060020281e-05,-0.0005832942896751391,-0.0031965954622109015,1.6496133996852909,-1.51218292907675,-1.3403278638166602,-2.3484830720248766,1.7754669423237166,1.6924831052336138,-0.09040368533538054
0.013000011444091797,0.46600041695256617,-4.083112241623006e-06,0.6439776235456198,0.0,0.0,0.0,1.0,6.414537080774798e-05,-0.0006281595799775773,-0.003442468233349161,1.64961101144027,-1.5121846747096916,-1.3403349709698933,-2.348485488880318,1.7754608901737698,1.6924789041770703,-0.09040249503680606
0.014000177383422852,0.46600048109794,-4.711271851436562e-06,0.6439741810772229,0.0,0.0,0.0,1.0,6.872674395135056e-05,-0.0006730238218295917,-0.003688335258722501,1.6496084395447739,-1.5121865545875834,-1.3403426248166388,-2.3484880915398767,1.7754543724799965,1.692474379990832,-0.09040121318076699
0.015000104904174805,0.46600054982468725,-5.38429570523307e-06,0.643970492741789,0.0,0.0,0.0,1.0,7.330799476493116e-05,-0.0007178868657342837,-0.0039341957190513295,1.6496056840107234,-1.5121885686910161,-1.3403508253538827,-2.348490879978905,1.7754473892524296,1.6924695326734327,-0.09039983976700665
0.016000032424926758,0.4660006231326855,-6.10218260506515e-06,0.643966558545883,0.0,0.0,0.0,1.0,7.788910696628702e-05,-0.0007627485522441116,-0.004180048740524096,1.649602744857568,-1.5121907170250601,-1.3403595725711996,-2.348493854169647,1.7754399404886227,1.6924643622470967,-0.09039837479943506
0.017000198364257812,0.46600070102179614,-6.864931193537874e-06,0.6439623784969439,0.0,0.0,0.0,1.0,8.247006325752292e-05,-0.0008076087119651122,-0.004425893394820424,1.649599622101918,-1.512192999576618,-1.3403688664609008,-2.3484970140828962,1.7754320261965757,1.6924588687198172,-0.09039681827956157
0.018000125885009766,0.4660007834918633,-7.672539943862342e-06,0.6439579526033389,0.0,0.0,0.0,1.0,8.705084532553813e-05,-0.0008524671655616684,-0.004671728699137242,1.64959631575878,-1.5121954163192908,-1.3403787070167326,-2.348500359687757,1.7754236463922175,1.6924530520897927,-0.09039517020727052
0.01900005340576172,0.4660008705427128,-8.525007149914028e-06,0.6439532808744178,0.0,0.0,0.0,1.0,9.16314338425721e-05,-0.0008973237237618532,-0.004917553616218067,1.6495928258506203,-1.5121979672502868,-1.3403890942248544,-2.348503890950135,1.7754148010797257,1.6924469123784274,-0.09039343058655501
0.019999980926513672,0.466000962174151,-9.422330916296471e-06,0.643948363320568,0.0,0.0,0.0,1.0,9.621180846681257e-05,-0.0009421781873633845,-0.005163367054385641,1.6495891523985833,-1.5122006523542775,-1.3404000280724198,-2.3485076078341347,1.7754054902709724,1.6924404495982097,-0.09039159941995113
0.021000146865844727,0.466001058385964,-1.0364509148410918e-05,0.6439431999532684,0.0,0.0,0.0,1.0,0.00010079194784306951,-0.000987030347240225,-0.005409167867578099,1.6495852954277812,-1.5122034716248522,-1.340411508542279,-2.3485115103011616,1.7753957139741208,1.6924336637719337,-0.09038967671188144
0.02200007438659668,0.4660011591779166,-1.135153954253257e-05,0.6439377907851439,0.0,0.0,0.0,1.0,0.00010537182960351793,-0.0010318799843498563,-0.005654954855388832,1.6495812549606557,-1.512206425037149,-1.340423535619444,-2.3485155983109696,1.7753854722083702,1.6924265549083994,-0.0903876624644476
0.023000001907348633,0.4660012645497512,-1.2383419575894095e-05,0.64393213583002,0.0,0.0,0.0,1.0,0.00010995143036851309,-0.0010767268697412628,-0.00590072676311024,1.6495770310232811,-1.5122095125734636,-1.3404361092847903,-2.3485198718206033,1.7753747649903289,1.6924191230253405,-0.09038555668141522
0.024000167846679688,0.4660013745011868,-1.346014649677714e-05,0.6439262351029765,0.0,0.0,0.0,1.0,0.00011453072574748151,-0.001121570764563656,-0.006146482281781547,1.6495726236422383,-1.5122127342102551,-1.3404492295180603,-2.348524330784869,1.7753635923410591,1.6924113681379374,-0.09038335936622892
0.02500009536743164,0.46600148903191796,-1.458171731461255e-05,0.6439200886204028,0.0,0.0,0.0,1.0,0.00011910969033989083,-0.0011664114200759723,-0.006392220048240848,1.6495680328528253,-1.5122160899515773,-1.34046289628968,-2.3485289751549643,1.7753519542682645,1.692403290288716,-0.09038107052720522
0.026000022888183594,0.46600160814161395,-1.5748128790090093e-05,0.643913696400051,0.0,0.0,0.0,1.0,0.00012368829773630203,-0.001211248577657178,-0.006637938645181583,1.6495632586820383,-1.5122195797591909,-1.3404771095774697,-2.34853380488122,1.7753398508037999,1.6923948894853458,-0.0903786901667551
0.02700018882751465,0.46600173182991755,-1.695937742527849e-05,0.6439070584610905,0.0,0.0,0.0,1.0,0.00012826652051950733,-0.0012560819688174115,-0.006883636601213601,1.6495583011609594,-1.5122232036030885,-1.3404918693543417,-2.3485388199110466,1.7753272819767028,1.692386165745775,-0.0903762182892173
0.0280001163482666,0.4660018600964442,-1.8215459453756597e-05,0.6439001748241624,0.0,0.0,0.0,1.0,0.00013284433026575674,-0.0013009113152099951,-0.007129312390928985,1.6495531603287064,-1.512226961477492,-1.3405071755843208,-2.348544020188252,1.775314247804715,1.6923771191125914,-0.09037365490335571
0.029000043869018555,0.46600199294078076,-1.9516370830756565e-05,0.6438930455114329,0.0,0.0,0.0,1.0,0.00013742169754607674,-0.0013457363286443489,-0.0073749644349728255,1.6495478362210443,-1.5122308533540152,-1.3405230282336984,-2.348549405654873,1.7753007483194498,1.692367749611364,-0.09037100001514639
0.029999971389770508,0.46600213036248483,-2.086210722331996e-05,0.6438856705466476,0.0,0.0,0.0,1.0,0.00014199859192768458,-0.001390556711099839,-0.007620591100119113,1.649542328877611,-1.5122348792110576,-1.3405394272638262,-2.3485549762499587,1.7752867835507402,1.6923580572769437,-0.0903682536323432
0.031000137329101562,0.4660022723610835,-2.2252664000467697e-05,0.6438780499551855,0.0,0.0,0.0,1.0,0.00014657498197550073,-0.0014353721547405904,-0.007866190699351912,1.6495366383355408,-1.512239039007492,-1.3405563726373257,-2.348560731910575,1.7752723535408137,1.6923480421301027,-0.09036541576043776
0.032000064849853516,0.4660024189360724,-2.3688036223384807e-05,0.6438701837641125,0.0,0.0,0.0,1.0,0.00015115083525376336,-0.0014801823419312967,-0.008111761491952007,1.649530764641847,-1.5122433327332157,-1.3405738643057836,-2.3485666725697576,1.775257458317312,1.692337704222697,-0.09036248641049373
0.03299999237060547,0.46600257008691487,-2.516821863562099e-05,0.6438620720022353,0.0,0.0,0.0,1.0,0.00015572611832774774,-0.0015249869452540572,-0.008357301683589169,1.6495247078369975,-1.5122477603416467,-1.3405919022258874,-2.3485727981591538,1.7752420979295231,1.6923270435775841,-0.09035946558874296
0.03400015830993652,0.4660027258130406,-2.6693205653308043e-05,0.6438537147001548,0.0,0.0,0.0,1.0,0.00016030079676559365,-0.0015697856275262729,-0.008602809426420234,1.6495184679710346,-1.5122523218155994,-1.3406104863434285,-2.3485791086063617,1.7752262724131929,1.6923160602474456,-0.09035635330678651
0.03500008583068848,0.46600288611384494,-2.8262991355395132e-05,0.6438451118903198,0.0,0.0,0.0,1.0,0.00016487483514024428,-0.0016145780418196326,-0.00884828281919315,1.6495120450925072,-1.512257017121728,-1.3406296166041503,-2.348585603836702,1.775209981815008,1.6923047542742715,-0.0903531495745815
0.03600001335144043,0.4660030509886879,-2.9877569473903108e-05,0.6438362636070804,0.0,0.0,0.0,1.0,0.000169448197031499,-0.0016593638314802168,-0.009093719907357151,1.6495054392491746,-1.5122618462132336,-1.3406492929529699,-2.348592283773072,1.7751932261912309,1.6922931256918683,-0.09034985440088412
0.037000179290771484,0.46600322043689296,-3.1536933384198874e-05,0.643827169886741,0.0,0.0,0.0,1.0,0.0001740208450281843,-0.0017041426301497564,-0.009339118683179262,1.6494986504994151,-1.5122668090764175,-1.3406695153226373,-2.348599148334048,1.7751760055828574,1.6922811745674537,-0.09034646780046363
0.03800010681152344,0.46600339445774625,-3.324107609529106e-05,0.6438178307676142,0.0,0.0,0.0,1.0,0.00017859274073044463,-0.001748914061788066,-0.009584477085867233,1.6494916788941942,-1.5122719056566027,-1.3406902836514556,-2.3486061974368013,1.7751583200553724,1.6922689009357177,-0.09034298978268662
0.03900003433227539,0.46600357305049545,-3.4989990240148086e-05,0.6438082462900732,0.0,0.0,0.0,1.0,0.0001831638447521573,-0.0017936777406966924,-0.009829793001699144,1.649484524494757,-1.5122771359304497,-1.3407115978657327,-2.3486134309941735,1.7751401696601108,1.69225630486338,-0.09033942036270856
0.040000200271606445,0.4660037562143489,-3.67836680660399e-05,0.6437984164966045,0.0,0.0,0.0,1.0,0.00018773411672347353,-0.0018384332715437992,-0.01007506426415978,1.6494771873567589,-1.5122824998407227,-1.3407334578953736,-2.3486208489172364,1.7751215544692742,1.6922433863911353,-0.09033575955142488
0.0410001277923584,0.46600394394847455,-3.862210142490459e-05,0.6437883414318618,0.0,0.0,0.0,1.0,0.00019230351529348936,-0.0018831802493903213,-0.010320288654083963,1.6494696675446,-1.512287997354873,-1.3407558636596408,-2.348628451112922,1.7751024745446473,1.6922301455859692,-0.09033200736454068
0.04200005531311035,0.466004136251999,-4.050528176374118e-05,0.6437780211427175,0.0,0.0,0.0,1.0,0.00019687199813304897,-0.0019279182597174182,-0.010565463899806993,1.649461965124887,-1.5122936284380442,-1.3407788150735322,-2.348636237485052,1.7750829299521382,1.6922165825171873,-0.09032816381842577
0.042999982833862305,0.46600433312400646,-4.24332001150298e-05,0.643767455678316,0.0,0.0,0.0,1.0,0.00020143952193768343,-0.0019726468784552523,-0.010810587677322375,1.6494540801617665,-1.512299393033748,-1.340802312052314,-2.348644207935077,1.7750629207722115,1.692202697239287,-0.09032422892715793
0.04400014877319336,0.46600453456353796,-4.440584708718075e-05,0.6437566450901252,0.0,0.0,0.0,1.0,0.00020600604243068769,-0.0020173656720131193,-0.011055657610446936,1.6494460127260269,-1.512305291101004,-1.3408263545024475,-2.3486523623605526,1.775042447080085,1.6921884898251551,-0.09032020270827786
0.04500007629394531,0.4660047405695902,-4.6423212855013596e-05,0.6437455894319897,0.0,0.0,0.0,1.0,0.00021057151436633883,-0.0020620741973109667,-0.011300671270993545,1.6494377628903134,-1.5123113225945448,-1.340850942326236,-2.3486607006558913,1.7750215089564156,1.6921739603485144,-0.09031608517975794
0.046000003814697266,0.46600495114111457,-4.848528715026783e-05,0.6437342887601819,0.0,0.0,0.0,1.0,0.00021513589153325803,-0.0021067720018123144,-0.011545626178951541,1.649429330727237,-1.5123174874568555,-1.3408760754236173,-2.3486692227126413,1.775000106491645,1.692159108876925,-0.09031187635879813
0.04700016975402832,0.4660051662770163,-5.059205925214645e-05,0.6437227431334546,0.0,0.0,0.0,1.0,0.00021969912675791939,-0.002151458623558617,-0.011790519802675033,1.6494207163170764,-1.5123237856496026,-1.3409017536844712,-2.348677928418196,1.7749782397692562,1.692143935499889,-0.09030757626669884
0.04800009727478027,0.46600538597615354,-5.2743517977893866e-05,0.6437109526130919,0.0,0.0,0.0,1.0,0.0002242611719083084,-0.0021961335912050886,-0.012035349559079244,1.6494119197330517,-1.512330217093025,-1.3409279770030955,-2.3486868176581708,1.7749559088983107,1.6921284402749168,-0.09030318491953447
0.04900002479553223,0.4660056102373361,-5.4939651673409704e-05,0.6436989172629611,0.0,0.0,0.0,1.0,0.00022882197789773193,-0.002240796424058016,-0.012280112813844973,1.6494029410662314,-1.5123367817679618,-1.340954745253509,-2.348695890312302,1.7749331139589013,1.692112623318566,-0.0902987023439136
0.05000019073486328,0.46600583905932486,-5.718044820389984e-05,0.643686637149564,0.0,0.0,0.0,1.0,0.00023338149468878338,-0.002285446632113585,-0.012524806881631401,1.6493937803949417,-1.5123434795901303,-1.3409820583196128,-2.3487051462594173,1.7749098550695541,1.6920964846944662,-0.09029412855761397
0.051000118255615234,0.46600607244083064,-5.946589494456632e-05,0.6436741123420875,0.0,0.0,0.0,1.0,0.00023793967129746507,-0.002330083716098253,-0.012769429026297319,1.6493844378084397,-1.51235031050711,-1.3410099160717073,-2.348714585373535,1.7748861323353804,1.6920800244998582,-0.09028946358456023
0.05200004577636719,0.46600631038051327,-6.17959787713376e-05,0.6436613429124547,0.0,0.0,0.0,1.0,0.00024249645579747035,-0.0023747071675106796,-0.013013976461130936,1.649374913399806,-1.512357274468991,-1.3410383183734425,-2.3487242075249966,1.7748619458638781,1.6920632428395228,-0.09028470745032177
0.05299997329711914,0.46600655287698056,-6.417068605164082e-05,0.6436483289353754,0.0,0.0,0.0,1.0,0.000247051795324628,-0.002419316468665253,-0.013258446349088395,1.6493652072586387,-1.512364371398206,-1.3410672650889643,-2.3487340125816334,1.7748372957811656,1.6920461397989794,-0.09027986017748556
0.054000139236450195,0.46600679992878763,-6.659000263521744e-05,0.6436350704883965,0.0,0.0,0.0,1.0,0.0002516056360815115,-0.0024639110927372233,-0.013502835803041143,1.6493553194828265,-1.512371601237689,-1.341096756071195,-2.3487440004068105,1.7748121822062792,1.6920287154875027,-0.09027492179310279
0.05500006675720215,0.46600705153443567,-6.905391384498416e-05,0.6436215676519521,0.0,0.0,0.0,1.0,0.0002561579233422155,-0.0025084905038094824,-0.013747141886032257,1.6493452501737338,-1.5123789639309355,-1.3411267911665168,-2.348754170860186,1.7747866052619325,1.6920109700204384,-0.09026989232563604
0.0559999942779541,0.4660073076923712,-7.156240446794055e-05,0.6436078205094131,0.0,0.0,0.0,1.0,0.00026070860145730135,-0.0025530541569209896,-0.013991361611541867,1.649334999425918,-1.5123864593795955,-1.3411573702248667,-2.348764523799363,1.7747605650973013,1.691992903481491,-0.09026477179844909
0.057000160217285156,0.46600756840098506,-7.41154587461251e-05,0.643593829147137,0.0,0.0,0.0,1.0,0.0002652576138589149,-0.0025976014981168908,-0.014235491943761796,1.6493245673551125,-1.5123940875582411,-1.3411884930719782,-2.3487750590752885,1.7747340618266585,1.6919745160251123,-0.09025956024751543
0.05800008773803711,0.46600783365861154,-7.671306036762145e-05,0.6435795936545171,0.0,0.0,0.0,1.0,0.0002698049030660776,-0.0026421319645003336,-0.014479529797879531,1.6493139540591608,-1.5124018483537176,-1.3412201595479538,-2.348785776538609,1.774707095615468,1.6919558077333925,-0.09025425769668426
0.05900001525878906,0.4660081034635274,-7.935519245761632e-05,0.6435651141240315,0.0,0.0,0.0,1.0,0.00027435041069015395,-0.002686644984286007,-0.01472347204037163,1.649303159653224,-1.5124097417096152,-1.3412523694723555,-2.348796676033889,1.7746796666031137,1.6919367787449242,-0.09024886417996494
0.06000018119812012,0.4660083778139511,-8.204183756951111e-05,0.6435503906512918,0.0,0.0,0.0,1.0,0.000278894077440497,-0.002731139976855429,-0.014967315489306706,1.6492921842485455,-1.5124177675388535,-1.3412851226651394,-2.3488077574030544,1.7746517749497817,1.691917429176968,-0.09024337972808125
0.06100010871887207,0.4660086567080418,-8.477297767608874e-05,0.6435354233350916,0.0,0.0,0.0,1.0,0.00028343584313027405,-0.002775616352813993,-0.015211056914658074,1.6492810279645016,-1.5124259257730335,-1.3413184189346565,-2.348819020483396,1.774623420810118,1.6918977591695323,-0.09023780437609394
0.06200003623962402,0.46600894014389843,-8.754859416073742e-05,0.6435202122774545,0.0,0.0,0.0,1.0,0.000287975646682474,-0.0028200735140497995,-0.01545469303862614,1.6492696909213638,-1.5124342163325304,-1.3413522580847403,-2.3488304651087253,1.7745946043493197,1.6918777688587985,-0.09023213815881835
0.06300020217895508,0.4660092281195588,-9.036866780873352e-05,0.6435047575836818,0.0,0.0,0.0,1.0,0.0002925134261360996,-0.002864510853794292,-0.015698220535970715,1.6492581732382752,-1.5124426391179997,-1.3413866399166379,-2.348842091109678,1.7745653257477612,1.6918574583696326,-0.0902263811095386
0.06400012969970703,0.46600952063299883,-9.323317879858478e-05,0.6434890593624002,0.0,0.0,0.0,1.0,0.000297049118652544,-0.002908927756684703,-0.01594163603435323,1.649246475046401,-1.5124511940643017,-1.3414215642159095,-2.348853898311541,1.7745355851722027,1.6918368278637401,-0.09022053326832971
0.06500005722045898,0.46600981768213157,-9.614210669343614e-05,0.6434731177256087,0.0,0.0,0.0,1.0,0.00030158266052215574,-0.002953323598828344,-0.016184936114689064,1.6492345964707413,-1.5124598810655239,-1.341457030770375,-2.3488658865371947,1.7745053828160087,1.6918158774729128,-0.09021459467053917
0.06599998474121094,0.4660101192648064,-9.909543043253983e-05,0.6434569327887253,0.0,0.0,0.0,1.0,0.0003061139871709929,-0.002997697747868744,-0.016428117311509994,1.6492225376470737,-1.512468700044533,-1.34149303935325,-2.348878055604324,1.7744747188619894,1.691794607361111,-0.09020856535751175
0.06700015068054199,0.4660104253788081,-0.00010209312832279157,0.6434405046706335,0.0,0.0,0.0,1.0,0.00031064303316776713,-0.0030420495630536547,-0.016671176113336877,1.6492102987126398,-1.5124776509144995,-1.3415295897323027,-2.348890405326911,1.7744435935030773,1.6917730176902468,-0.09020244537069047
0.06800007820129395,0.466010736021856,-0.00010513517803033483,0.6434238334937283,0.0,0.0,0.0,1.0,0.00031516973223098035,-0.003086378395304936,-0.016914108963062655,1.6491978798013829,-1.5124867335591279,-1.341566681674503,-2.3489029355159907,1.774412006952986,1.691751108602646,-0.09019623474859541
0.0690000057220459,0.4660110511916032,-0.00010822155657223488,0.6434069193839619,0.0,0.0,0.0,1.0,0.00031969401723625526,-0.0031306835872903413,-0.01715691225834574,1.649185281061211,-1.5124959479035622,-1.3416043149288397,-2.3489156459768035,1.774379959408327,1.69172888028433,-0.09018993353775322
0.07000017166137695,0.4660113708856356,-0.00011135224030822471,0.6433897624708886,0.0,0.0,0.0,1.0,0.00032421582022386033,-0.003174964473497211,-0.01739958235201388,1.6491725026320765,-1.5125052938240033,-1.341642489247975,-2.348928536512355,1.7743474510970714,1.6917063328845319,-0.09018354177881513
0.0710000991821289,0.4660116951014712,-0.00011452720493252464,0.6433723628877102,0.0,0.0,0.0,1.0,0.0003287350724064307,-0.0032192203803080768,-0.01764211555247849,1.6491595446673792,-1.5125147712356644,-1.3416812043669606,-2.348941606919896,1.7743144822315369,1.6916834665941758,-0.09017705952010541
0.07200002670288086,0.46601202383655926,-0.00011774642546573748,0.6433547207713197,0.0,0.0,0.0,1.0,0.0003332517041768873,-0.003263450626078215,-0.01788450812415966,1.6491464073207105,-1.5125243800380552,-1.3417204600163046,-2.3489548569930614,1.774281053037756,1.6916602815971837,-0.09017048680922493
0.07300019264221191,0.46601235708827926,-0.00012100987624682128,0.6433368362623461,0.0,0.0,0.0,1.0,0.00033776564511655313,-0.003307654521215128,-0.018126756287921725,1.6491330907476738,-1.512534120122327,-1.341760255920097,-2.348968286521554,1.774247163751616,1.6916367780771002,-0.09016382369420216
0.07400012016296387,0.4660126948539404,-0.00012431753092514156,0.6433187095051972,0.0,0.0,0.0,1.0,0.00034227682400347014,-0.0033518313682599846,-0.018368856221519604,1.6491195951066284,-1.5125439913741838,-1.341800591795205,-2.3489818952909993,1.7742128146173723,1.6916129562197655,-0.09015707022396201
0.07500004768371582,0.4660130371307807,-0.000127669362452605,0.6433003406481033,0.0,0.0,0.0,1.0,0.0003467851688209152,-0.00339598046197102,-0.018610804060055823,1.6491059205613399,-1.5125539936846613,-1.3418414673485743,-2.348995683082488,1.7741780058819527,1.6915888162229933,-0.09015022645000044
0.07599997520446777,0.466013383915966,-0.00013106534307587644,0.6432817298431592,0.0,0.0,0.0,1.0,0.00035129060676611785,-0.0034401010894089027,-0.018852595896448363,1.6490920672754086,-1.5125641269270227,-1.3418828822826894,-2.349009649673467,1.7741427378073946,1.6915643582760593,-0.09014329242285564
0.07700014114379883,0.46601373520658945,-0.0001345054443286814,0.6432628772463673,0.0,0.0,0.0,1.0,0.00035579306425917966,-0.0034841925300240833,-0.019094227781909345,1.649078035426409,-1.5125743910149019,-1.3419248362814729,-2.3490237948354094,1.774107010639794,1.6915395826115973,-0.09013626820105679
0.07800006866455078,0.4660140909996706,-0.00013798963702419575,0.6432437830176785,0.0,0.0,0.0,1.0,0.00036029246695219546,-0.0035282540557461137,-0.019335695726434524,1.6490638251833085,-1.5125847858090948,-1.3419673290326264,-2.3490381183374804,1.774070824659267,1.6915144894225909,-0.09012915383682656
0.07899999618530273,0.4660144512921547,-0.00014151789124752494,0.6432244473210337,0.0,0.0,0.0,1.0,0.0003647887397385781,-0.0035722849310749626,-0.019576995699303726,1.649049436723137,-1.5125953111861192,-1.3420103602110254,-2.349052619943794,1.7740341801433244,1.6914890789235564,-0.09012194938663208
0.08000016212463379,0.4660148160809118,-0.00014509017634827434,0.6432048703244045,0.0,0.0,0.0,1.0,0.00036928180676258594,-0.0036162844131743155,-0.01981812362959215,1.6490348702291366,-1.5126059670304766,-1.342053929480483,-2.349067299413698,1.7739970773710774,1.6914633513437183,-0.09011465491001296
0.08100008964538574,0.46601518536273606,-0.00014870646093321295,0.6431850521998337,0.0,0.0,0.0,1.0,0.0003737715914290541,-0.003660251751966872,-0.02005907540669261,1.649020125886199,-1.5126167532156927,-1.3420980364982198,-2.3490821565024977,1.7739595166334585,1.6914373069101787,-0.09010727046668865
0.0820000171661377,0.4660155591343452,-0.00015236671285903246,0.6431649931234742,0.0,0.0,0.0,1.0,0.0003782580164133295,-0.0037041861902316346,-0.02029984688084872,1.6490052038804066,-1.5126276696023,-1.3421426809152517,-2.34909719096151,1.7739214982343654,1.6914109458461886,-0.09009979611626705
0.08300018310546875,0.4660159373923796,-0.0001560708992252035,0.6431446932756292,0.0,0.0,0.0,1.0,0.0003827410036714093,-0.0037480869637031952,-0.020540433863699,1.648990104407173,-1.5126387160712995,-1.3421878623682397,-2.3491124025367207,1.7738830224728186,1.6913842684010414,-0.09009223192339912
0.0840001106262207,0.4660163201334015,-0.0001598189863669313,0.6431241528407898,0.0,0.0,0.0,1.0,0.0003872204744502839,-0.00379195330117302,-0.02078083212883194,1.6489748276614724,-1.5126498924837133,-1.342233580489136,-2.3491277909703596,1.7738440896646768,1.6913572748140915,-0.09008457795158807
0.08500003814697266,0.46601670735389433,-0.00016361093984821243,0.643103372007674,0.0,0.0,0.0,1.0,0.00039169634929848307,-0.003835784424592723,-0.021021037412351968,1.6489593738453878,-1.512661198711623,-1.3422798348976186,-2.349143355999647,1.773804700126088,1.6913299653424794,-0.0900768342679692
0.08600020408630371,0.46601709905026223,-0.00016744672445499512,0.6430823509692631,0.0,0.0,0.0,1.0,0.00039616854807682597,-0.0038795795491793406,-0.021261045413456373,1.6489437431547838,-1.5126726345830208,-1.3423266252142745,-2.3491590973589602,1.7737648542030706,1.691302340212047,-0.09006900093487027
0.08700013160705566,0.4660174952188291,-0.0001713263041884446,0.6430610899228398,0.0,0.0,0.0,1.0,0.0004006369899693736,-0.003923337883522587,-0.0215008517950231,1.6489279358068216,-1.5126841999953071,-1.3423739510331927,-2.349175014775318,1.77372455221083,1.691274399718565,-0.09006107802723021
0.08800005912780762,0.46601789585583814,-0.00017524964225831575,0.6430395890700236,0.0,0.0,0.0,1.0,0.0004051015934945852,-0.003967058629694103,-0.021740452184209457,1.6489119520085895,-1.5126958947856468,-1.342421811953081,-2.3491911079734895,1.7736837945032107,1.6912461441122362,-0.0900530656127385
0.08899998664855957,0.4660183009574509,-0.00017921670107643502,0.6430178486168068,0.0,0.0,0.0,1.0,0.0004095622765166753,-0.004010740983358677,-0.02197984217306163,1.6488957919741836,-1.5127077188013751,-1.3424702075602322,-2.3492073766731907,1.773642581435072,1.691217573660517,-0.09004496376264745
0.09000015258789062,0.46601871051974686,-0.00018322744225029368,0.6429958687735897,0.0,0.0,0.0,1.0,0.0004140189562571737,-0.004054384133887443,-0.022219017319135045,1.6488794559261137,-1.5127196719057279,-1.3425191374270604,-2.3492238205888376,1.7736009133592856,1.6911886886532836,-0.09003677255266257
0.09100008010864258,0.4660191245387228,-0.00018728182657675404,0.6429736497552152,0.0,0.0,0.0,1.0,0.00041847154930668473,-0.004097987264473043,-0.022457973146125475,1.6488629440842253,-1.5127317539319332,-1.3425686011230658,-2.349240439431342,1.7735587906513617,1.6911594893619706,-0.09002849205592639
0.09200000762939453,0.46601954301029197,-0.00019137981403587103,0.6429511917810024,0.0,0.0,0.0,1.0,0.00042291997163684754,-0.004141549552246746,-0.022696705144510883,1.6488462566768691,-1.5127439647292908,-1.3426185982036618,-2.349257232906275,1.7735162136848497,1.6911299760807055,-0.0900201223500924
0.09300017356872559,0.4660199659302837,-0.00019552136378483083,0.6429284950747798,0.0,0.0,0.0,1.0,0.0004273641386124943,-0.004185070168397512,-0.02293520877220393,1.6488293939360064,-1.5127563041428285,-1.342669128214991,-2.3492742007146523,1.773473182842281,1.6911001491082294,-0.09001166351422338
0.09400010108947754,0.4660203932944426,-0.00019970643415200852,0.6429055598649183,0.0,0.0,0.0,1.0,0.00043180396500400647,-0.004228548278292993,-0.023173479455215085,1.6488123560947823,-1.5127687720031675,-1.3427201906962838,-2.3492913425533155,1.7734296985206501,1.6910700087389223,-0.0900031156272543
0.09500002861022949,0.4660208250984281,-0.00020393498263114677,0.6428823863843623,0.0,0.0,0.0,1.0,0.00043623936499986724,-0.004271983041602459,-0.023411512588326282,1.6487951433944477,-1.5127813681550584,-1.342771785172914,-2.3493086581137934,1.773385761116201,1.6910395552882884,-0.08999447877237822
0.09600019454956055,0.46602126133781385,-0.00020820696587565754,0.642858974870662,0.0,0.0,0.0,1.0,0.00044067025221940887,-0.004315373612421626,-0.023649303535775018,1.6487777560771952,-1.5127940924276526,-1.3428239111634752,-2.349326147083459,1.773341371040388,1.691008789066518,-0.0899857530325058
0.0970001220703125,0.466021702008087,-0.0002125223396930484,0.642835325566003,0.0,0.0,0.0,1.0,0.00044509653972575424,-0.004358719139399391,-0.02388684763194889,1.6487601943896635,-1.5128069446489079,-1.3428765681762407,-2.3493438091449446,1.7732965287122238,1.6909777103913746,-0.0899769384924871
0.09800004959106445,0.4660221471046479,-0.00021688105903947585,0.6428114387172364,0.0,0.0,0.0,1.0,0.0004495181400389492,-0.004402018765866432,-0.024124140182090355,1.6487424585812815,-1.5128199246386422,-1.34292975571076,-2.3493616439764042,1.7732512345620464,1.6909463195820569,-0.0899680352380633
0.0989999771118164,0.4660225966228093,-0.00022128307801442697,0.6427873145759085,0.0,0.0,0.0,1.0,0.0004539349651492858,-0.004445271629965682,-0.02436117646301176,1.6487245489115963,-1.5128330322388006,-1.342983473250506,-2.3493796512503056,1.7732054890153763,1.6909146169862255,-0.08995904336050484
0.10000014305114746,0.466023050557796,-0.00022572834985553172,0.6427629533982885,0.0,0.0,0.0,1.0,0.0004583469265308139,-0.004488476864784642,-0.024597951723820437,1.6487064656355401,-1.5128462672523586,-1.3430377202775041,-2.3493978306358296,1.77315929252566,1.6908826029255954,-0.08994996294728609
0.10100007057189941,0.4660235089047443,-0.00023021682693350756,0.6427383554453964,0.0,0.0,0.0,1.0,0.0004627539351550388,-0.004531633598489521,-0.024834461186653844,1.6486882090191077,-1.5128596295081689,-1.3430924962566628,-2.3494161817962955,1.7731126455396202,1.6908502777537786,-0.08994079409200888
0.10199999809265137,0.46602397165870146,-0.00023474846074723812,0.6427135209830301,0.0,0.0,0.0,1.0,0.0004671559015048032,-0.0045747409544611775,-0.025070700047424538,1.64866977932945,-1.5128731188198645,-1.3431478006455935,-2.3494347043907795,1.7730655485192932,1.690817641819706,-0.08993153688813477
0.10300016403198242,0.46602443881462513,-0.00023932320191898782,0.6426884502817919,0.0,0.0,0.0,1.0,0.0004715527355883513,-0.004617798051432844,-0.025306663476574957,1.648651176839401,-1.512886735004531,-1.3432036328900532,-2.349453398073361,1.7730180019320878,1.690784695484306,-0.08992219143185026
0.10400009155273438,0.46602491036738314,-0.00024394100018975431,0.6426631436171133,0.0,0.0,0.0,1.0,0.000475944346953573,-0.004660804003629619,-0.025542346619841855,1.648632401822433,-1.5129004778617279,-1.3432599924289297,-2.3494722624939404,1.7729700062620555,1.690751439101856,-0.08991275781887177
0.10500001907348633,0.4660253863117527,-0.00024860180441476027,0.6426376012692803,0.0,0.0,0.0,1.0,0.0004803306447024242,-0.004703757920909683,-0.02577774459903021,1.6486134545608555,-1.5129143472074198,-1.343316878686015,-2.349491297296901,1.7729215619917789,1.6907178730502637,-0.0899032361496422
0.10600018501281738,0.46602586664242024,-0.00025330556255908645,0.6426118235234569,0.0,0.0,0.0,1.0,0.00048471153750552287,-0.004746658908907228,-0.026012852512796506,1.6485943353379842,-1.5129283428414313,-1.3433742910777766,-2.3495105021223717,1.7728726696198298,1.6906839977020973,-0.08989362652437008
0.10700011253356934,0.4660263513539808,-0.0002580522216934479,0.6425858106697085,0.0,0.0,0.0,1.0,0.000489086933616917,-0.004789506069177084,-0.026247665437441326,1.6485750444416933,-1.512942464562127,-1.343432229009768,-2.3495298766056516,1.7728233296529583,1.6906498134377144,-0.08988392904528184
0.10800004005432129,0.4660268404409376,-0.0002628417279901143,0.6425595630030244,0.0,0.0,0.0,1.0,0.000493456740889021,-0.004832298499340982,-0.026482178427710914,1.6485555821656155,-1.512956712171332,-1.343490691875387,-2.3495494203770053,1.7727735426035003,1.6906153206496777,-0.0898741438173832
0.10900020599365234,0.46602733389770196,-0.00026767402671897715,0.6425330808233388,0.0,0.0,0.0,1.0,0.000497820866787719,-0.004875035293235459,-0.026716386517607715,1.648535948805308,-1.5129710854583653,-1.343549679059665,-2.3495691330622854,1.7727233089979613,1.6905805197285657,-0.08986427094603194
0.1100001335144043,0.4660278317185924,-0.00027254906224376436,0.6425063644355522,0.0,0.0,0.0,1.0,0.0005021792184076317,-0.004917715541061359,-0.026950284721209698,1.6485161446654795,-1.512985584230005,-1.343609189932004,-2.3495890142817495,1.7726726293610224,1.6905454110897087,-0.08985431054151817
0.11100006103515625,0.46602833389783466,-0.00027746677801840467,0.6424794141495509,0.0,0.0,0.0,1.0,0.0005065317024875415,-0.0049603383295348975,-0.027183868033498197,1.6484961700465173,-1.5130002082544725,-1.343669223859602,-2.3496090636522604,1.7726215042455495,1.6905099951232996,-0.08984426271053209
0.1119999885559082,0.4660288404295612,-0.000282427116583543,0.6424522302802262,0.0,0.0,0.0,1.0,0.0005108782254259762,-0.005002902742040255,-0.0274171314311942,1.648476025260795,-1.5130149573291343,-1.3437297801911188,-2.34962928078462,1.772569934196406,1.6904742722547657,-0.08983412756649463
0.11300015449523926,0.4660293513078109,-0.00028743001956320834,0.6424248131474928,0.0,0.0,0.0,1.0,0.0005152186932969451,-0.005045407858783687,-0.027650069873602873,1.6484557106226392,-1.5130298312387866,-1.3437908582666633,-2.349649665285207,1.7725179197728071,1.690438242907615,-0.0898239052232053
0.11400008201599121,0.46602986652652867,-0.000292475427661636,0.6423971630763059,0.0,0.0,0.0,1.0,0.0005195530118658253,-0.0050878527569490906,-0.027882678303466114,1.6484352264487707,-1.5130448297574428,-1.343852457417319,-2.3496702167559036,1.772465461547399,1.6904019075050607,-0.0898135957951247
0.11500000953674316,0.4660303860795652,-0.00029756328066024514,0.6423692803966781,0.0,0.0,0.0,1.0,0.0005238810866053935,-0.005130236510854998,-0.028114951647822944,1.6484145730618636,-1.513059952663092,-1.343914576961551,-2.349690934793517,1.7724125600983927,1.6903652664831992,-0.08980319939962954
0.11600017547607422,0.4660309099606767,-0.0003026935174147733,0.6423411654436949,0.0,0.0,0.0,1.0,0.0005282028227120005,-0.0051725581921129755,-0.028346884818877528,1.6483937507903008,-1.51307519973666,-1.3439772162054162,-2.3497118189898174,1.7723592160101553,1.6903283202901112,-0.08979271615686026
0.11700010299682617,0.4660314381635245,-0.00030786607585256957,0.6423128185575296,0.0,0.0,0.0,1.0,0.0005325181251218847,-0.00521481686978737,-0.02857847271487465,1.6483727599625713,-1.513090570738681,-1.3440403744481333,-2.34973286893246,1.7723054298857162,1.6902910693650888,-0.0897821461861789
0.11800003051757812,0.4660319706816749,-0.00031308089297004744,0.6422842400834574,0.0,0.0,0.0,1.0,0.0005368268985276191,-0.005257011610556378,-0.0288097102209824,1.6483516009161145,-1.5131060654460622,-1.3441040509732065,-2.3497540842035365,1.7722512023271308,1.690253514171429,-0.08977148961176745
0.11900019645690918,0.4660325075085989,-0.0003183379048302985,0.642255430371868,0.0,0.0,0.0,1.0,0.0005411290473946897,-0.005299141478874385,-0.029040592210181865,1.6483302739871168,-1.5131216836096024,-1.3441682450586045,-2.34977546438125,1.7721965339582317,1.6902156551585878,-0.08976074655617451
0.12000012397766113,0.46603304863767203,-0.0003236370465608686,0.6422263897782785,0.0,0.0,0.0,1.0,0.0005454244759781996,-0.005341205537135553,-0.02927111354416357,1.648308779523209,-1.5131374250068454,-1.3442329559640198,-2.349797009037843,1.7721414253963823,1.6901774928093065,-0.08974991714835626
0.12100005149841309,0.46603359406217393,-0.0003289782523516978,0.6421971186633441,0.0,0.0,0.0,1.0,0.0005497130883396951,-0.005383202845838589,-0.0295012690742305,1.6482871178706104,-1.513153289388532,-1.344298182943714,-2.3498187177417025,1.772085877281146,1.6901390275919017,-0.08973900151554054
0.12199997901916504,0.4660341437752884,-0.0003343614554532248,0.6421676173928685,0.0,0.0,0.0,1.0,0.0005539947883641094,-0.0054251324637526735,-0.029731053642207402,1.648265289383679,-1.5131692765183633,-1.3443639252369273,-2.349840590055803,1.7720298902530383,1.6901002599957213,-0.08972799978927444
0.1230001449584961,0.4660346977701031,-0.00033978658817465743,0.6421378863378142,0.0,0.0,0.0,1.0,0.0005582694797768192,-0.005466993448084489,-0.029960462081356165,1.6482432944160603,-1.5131853861361182,-1.3444301820767217,-2.349862625539162,1.7719734649732781,1.690061190498285,-0.08971691209982736
0.12400007247924805,0.4660352560396094,-0.00034525358188241016,0.6421079258743098,0.0,0.0,0.0,1.0,0.0005625370661608097,-0.005508784854646312,-0.030189489217296993,1.648221133330646,-1.5132016179991656,-1.3444969526799737,-2.349884823745219,1.771916602101604,1.6900218196022923,-0.08970573858249908
0.125,0.4660358185767023,-0.0003507623669987097,0.6420777363836585,0.0,0.0,0.0,1.0,0.0005667974509739434,-0.005550505738025128,-0.03041812986893517,1.648198806493418,-1.5132179718567975,-1.3445642362535255,-2.3499071842228454,1.77185930231002,1.6899821478127603,-0.08969447937372332
0.12600016593933105,0.4660363853741802,-0.0003563128730003697,0.6420473182523447,0.0,0.0,0.0,1.0,0.0005710505375663276,-0.0055921551517526995,-0.030646378849393127,1.64817631427214,-1.513234447444777,-1.3446320319954739,-2.3499297065165714,1.7718015662857323,1.6899421756321704,-0.08968313461024688
0.127000093460083,0.46603695642474485,-0.00036190502841773554,0.6420166718720397,0.0,0.0,0.0,1.0,0.0005752962291977762,-0.0056337321484765685,-0.03087423096694754,1.648153657042295,-1.5132510445101226,-1.3447003390891945,-2.3499523901656207,1.7717433947179064,1.6899019035825626,-0.08967170443289167
0.12800002098083496,0.4660375317210014,-0.00036753876083380003,0.6419857976396063,0.0,0.0,0.0,1.0,0.0005795344290553593,-0.005675235780131917,-0.031101681025971172,1.6481308351807273,-1.5132677627845825,-1.3447691567097038,-2.34997523470496,1.771684788311872,1.6898613321819018,-0.08966018898253175
0.12900018692016602,0.46603811125545797,-0.0003732139968834912,0.6419546959571031,0.0,0.0,0.0,1.0,0.0005837650402710382,-0.005716665098114258,-0.03132872382787928,1.648107849072374,-1.5132846020127693,-1.34483848401688,-2.349998239664212,1.7716257477740855,1.6898204619691546,-0.08964858840436284
0.13000011444091797,0.466038695020526,-0.00037893066225313247,0.6419233672317872,0.0,0.0,0.0,1.0,0.0005879879659393782,-0.005758019153452896,-0.0315553541720802,1.6480846991010514,-1.513301561913685,-1.3449083201647045,-2.350021404569166,1.7715662738327231,1.6897792934699989,-0.0896369028420706
0.13100004196166992,0.4660392830085198,-0.0003846886816800766,0.6418918118761163,0.0,0.0,0.0,1.0,0.0005922031091353346,-0.005799296996985099,-0.03178156685692986,1.6480613856591093,-1.5133186422210818,-1.3449786642915467,-2.35004472894022,1.771506367216101,1.6897378272327976,-0.08962513244394983
0.13200020790100098,0.4660398752116571,-0.0003904879789525135,0.6418600303077499,0.0,0.0,0.0,1.0,0.0005964103729321074,-0.005840497679530948,-0.032007356680690005,1.6480379091428126,-1.5133358426642032,-1.3450495155247884,-2.3500682122931407,1.7714460286629883,1.6896960638114285,-0.08961327735998446
0.13300013542175293,0.4660404716220583,-0.0003963284769094532,0.6418280229495489,0.0,0.0,0.0,1.0,0.000600609660419058,-0.005881620252068785,-0.03223271844248969,1.6480142699498113,-1.51335316295723,-1.3451208729833561,-2.3500918541394933,1.771385258928256,1.6896540037558772,-0.08960133774024964
0.13400006294250488,0.46604107223174723,-0.000402210097440884,0.6417957902295754,0.0,0.0,0.0,1.0,0.0006048008747196838,-0.00592266376591124,-0.032457646943289946,1.6479904684865128,-1.513370602830146,-1.3451927357703,-2.3501156539854513,1.7713240587663774,1.6896116476397374,-0.0895893137395861
0.13499999046325684,0.4660416770326507,-0.00040813276148810664,0.6417633325810905,0.0,0.0,0.0,1.0,0.0006089839190096429,-0.005963627272881738,-0.03268213698685109,1.6479665051592818,-1.513388161991974,-1.3452651029816287,-2.3501396113332462,1.771262428951093,1.6895689960274405,-0.08957720551203255
0.1360001564025879,0.46604228601659864,-0.00041409638904424547,0.6417306504425514,0.0,0.0,0.0,1.0,0.0006131586965348264,-0.00600450982549148,-0.0329061833807026,1.6479423803796116,-1.513405840152444,-1.3453379737011046,-2.350163725680342,1.771200370263826,1.6895260494935573,-0.0895650132141057
0.13700008392333984,0.4660428991753243,-0.00042010089915493586,0.6416977442576077,0.0,0.0,0.0,1.0,0.0006173251106294697,-0.006045310477116799,-0.033129780937115126,1.6479180945682546,-1.5134236370393528,-1.3454113469960758,-2.3501879965187715,1.7711378834843985,1.689482808638255,-0.08955273700742247
0.1380000114440918,0.46604351650046427,-0.0004261462099191895,0.641664614475097,0.0,0.0,0.0,1.0,0.0006214830647342986,-0.006086028282176864,-0.03335292447407428,1.6478936481403075,-1.5134415523361464,-1.3454852219324838,-2.350212423337594,1.7710749694244141,1.6894392740316615,-0.08954037704925824
0.13900017738342285,0.46604413798355854,-0.00043223223849043715,0.6416312615490388,0.0,0.0,0.0,1.0,0.0006256324624147035,-0.00612666229631165,-0.033575608816256014,1.6478690415250958,-1.5134595857652624,-1.3455595975548422,-2.35023700561966,1.771011628882683,1.6893954462881235,-0.08952793350514655
0.1400001049041748,0.4660447636160507,-0.00043835890107774965,0.6415976859386278,0.0,0.0,0.0,1.0,0.000629773207378937,-0.006167211576560149,-0.03379782879600322,1.6478442751493654,-1.5134777370177794,-1.345634472903156,-2.350261742844381,1.7709478626828434,1.6893513260034945,-0.08951540653824085
0.14100003242492676,0.46604539338928797,-0.0004445261129472366,0.6415638881082264,0.0,0.0,0.0,1.0,0.0006339052034963275,-0.006207675181538726,-0.03401957925430318,1.6478193494488158,-1.5134960058018065,-1.3457098470013042,-2.350286634485856,1.770883671647478,1.6893069137982393,-0.08950279631662332
0.1420001983642578,0.46604602729452155,-0.0004507337884236241,0.6415298685273563,0.0,0.0,0.0,1.0,0.0006380283548155037,-0.0062480521716195905,-0.03424085504176564,1.647794264859503,-1.5135143918065146,-1.3457857188657016,-2.350311680014305,1.7708190566173438,1.6892622102853632,-0.08949010300786725
0.14300012588500977,0.4660466653229067,-0.00045698184089201023,0.6414956276706881,0.0,0.0,0.0,1.0,0.0006421425655826231,-0.006288341609109301,-0.03446165101960105,1.6477690218219712,-1.513532894719518,-1.3458620875011378,-2.3503368788954053,1.7707540184420676,1.689217216085875,-0.08947732678165958
0.14400005340576172,0.46604730746550277,-0.0004632701827997997,0.6414611660180317,0.0,0.0,0.0,1.0,0.0006462477402596008,-0.006328542558427275,-0.034681962060598856,1.6477436207848015,-1.513551514241864,-1.345938951897196,-2.3503622305897407,1.7706885579721223,1.6891719318421283,-0.08946446781205541
0.14499998092651367,0.46604795371327373,-0.0004695987256588166,0.6414264840543238,0.0,0.0,0.0,1.0,0.0006503437835423278,-0.006368654086284201,-0.0349017830501052,1.6477180621980028,-1.513570250060357,-1.346016311034928,-2.350387734553895,1.7706226760736161,1.6891263581931246,-0.08945152627329743
0.14600014686584473,0.46604860405708814,-0.00047596738004759565,0.6413915822696159,0.0,0.0,0.0,1.0,0.0006544306003788779,-0.0064086752618603285,-0.03512110888700006,1.6476923465127196,-1.5135891018464165,-1.3460941638871493,-2.3504133902405298,1.7705563736288894,1.6890804957734764,-0.0894385023396392
0.14700007438659668,0.4660492584877196,-0.0004823760556138517,0.6413564611590608,0.0,0.0,0.0,1.0,0.0006585080959876937,-0.00644860515698356,-0.03533993448467318,1.6476664741888076,-1.5136080692879745,-1.346172509410805,-2.350439197097164,1.7704896515194448,1.6890343452417995,-0.08942539619014875
0.14800000190734863,0.46604991699584686,-0.0004888246610771276,0.6413211212228975,0.0,0.0,0.0,1.0,0.0006625761758757457,-0.006488442846307283,-0.03555825477199864,1.647640445690078,-1.5136271520695976,-1.3462513465517751,-2.3504651545669755,1.770422510636562,1.688987907262967,-0.08941220800570332
0.1490001678466797,0.4660505795720542,-0.0004953131042316194,0.6412855629664366,0.0,0.0,0.0,1.0,0.00066663474585666,-0.006528187407487882,-0.03577606469430771,1.6476142614808205,-1.5136463498579689,-1.3463306742483931,-2.3504912620893976,1.770354951889043,1.6889411824951428,-0.08939893796679622
0.15000009536743164,0.46605124620683175,-0.0005018412919491795,0.641249786900043,0.0,0.0,0.0,1.0,0.0006706837120688061,-0.006567837921361877,-0.035993359214359553,1.6475879220313607,-1.5136656623253248,-1.34641049142585,-2.3505175190992307,1.7702869761906603,1.6888941716106318,-0.08938558625706101
0.1510000228881836,0.4660519168905757,-0.000508409130182497,0.641213793539119,0.0,0.0,0.0,1.0,0.0006747229809933402,-0.00660739347212261,-0.03621013331330955,1.6475614278179256,-1.513685089149025,-1.346490796996333,-2.3505439250266935,1.7702185844603704,1.6888468752954588,-0.08937215306319561
0.15200018882751465,0.4660525916135887,-0.0005150165239684539,0.6411775834040858,0.0,0.0,0.0,1.0,0.0006787524594721966,-0.006646853147496433,-0.03642638199167485,1.6475347793164081,-1.5137046299854031,-1.3465715898653468,-2.350570479298467,1.7701497776362707,1.6887992942260315,-0.08935863857101933
0.1530001163482666,0.4660532703660804,-0.0005216633774316589,0.641141157020364,0.0,0.0,0.0,1.0,0.0006827720547260222,-0.006686216038918335,-0.036642100270296823,1.647507977011982,-1.513724284510345,-1.3466528689220068,-2.35059718133615,1.7700805566538815,1.6887514291052579,-0.08934504297157113
0.15400004386901855,0.46605395313816755,-0.0005283495937881554,0.6411045149183533,0.0,0.0,0.0,1.0,0.0006867816743720448,-0.006725481241706924,-0.036857283191300036,1.6474810213871347,-1.5137440523690167,-1.3467346330511565,-2.350624030558245,1.770010922473,1.6887032806177105,-0.08933136645353605
0.1550002098083496,0.46605463991987456,-0.0005350750753493056,0.6410676576334113,0.0,0.0,0.0,1.0,0.0006907812264418738,-0.006764647855238744,-0.03707192581904753,1.6474539129360537,-1.5137639332365809,-1.3468168811188301,-2.350651026377832,1.7699408760452124,1.6886548494836855,-0.08931760921236753
0.15600013732910156,0.4660553307011338,-0.0005418397235258479,0.6410305857058315,0.0,0.0,0.0,1.0,0.0006947706193992217,-0.006803714983121814,-0.03728602324109187,1.6474266521513068,-1.5137839267621906,-1.346899611985751,-2.3506781682047757,1.769870418343808,1.6886061364092524,-0.08930377144185614
0.15700006484985352,0.4660560254717862,-0.0005486434388321288,0.6409932996808194,0.0,0.0,0.0,1.0,0.0006987497621575435,-0.006842681733368371,-0.03749957056912181,1.647399239529621,-1.5138040325934665,-1.3469828245015043,-2.3507054554448117,1.7697995503506663,1.6885571421080185,-0.08928985333779892
0.15799999237060547,0.46605672422158156,-0.000555486120890507,0.6409558001084692,0.0,0.0,0.0,1.0,0.000702718564097587,-0.006881547218566733,-0.037712562939904146,1.647371675574151,-1.5138242503861887,-1.3470665175022585,-2.3507328874992055,1.7697282730510415,1.6885078673097185,-0.08927585509944438
0.15900015830993652,0.46605742694017904,-0.0005623676684359297,0.640918087543738,0.0,0.0,0.0,1.0,0.0007066769350848461,-0.006920310556052217,-0.03792499551622039,1.6473439607896514,-1.5138445797840736,-1.3471506898156786,-2.350760463765571,1.769656587444346,1.6884583127421418,-0.0892617769264429
0.16000008583068848,0.4660581336171477,-0.000569287979320679,0.6408801625464204,0.0,0.0,0.0,1.0,0.0007106247854869136,-0.006958970868077064,-0.03813686348779801,1.6473160956883628,-1.5138650204437487,-1.3472353402549837,-2.3507881836369435,1.769584494530761,1.688408479153338,-0.08924761902258391
0.16100001335144043,0.466058844241967,-0.0005762469505192895,0.6408420256811213,0.0,0.0,0.0,1.0,0.0007145620261907248,-0.006997527281979313,-0.03834816207223588,1.647288080779648,-1.5138855719911242,-1.3473204676294832,-2.3508160465035024,1.7695119953345284,1.6883583672726867,-0.08923338158923771
0.16200017929077148,0.4660595588040271,-0.0005832444781336335,0.6408036775172276,0.0,0.0,0.0,1.0,0.0007184885686196869,-0.007035978930350533,-0.03855888651592352,1.6472599165811959,-1.5139062340688494,-1.3474060707332405,-2.3508440517507734,1.7694390908785407,1.6883079778531285,-0.08921906483246257
0.16300010681152344,0.46606027729262983,-0.0005902804573981751,0.6407651186288802,0.0,0.0,0.0,1.0,0.0007224043247506874,-0.00707432495120239,-0.03876903209495389,1.647231603616324,-1.5139270063250838,-1.347492148347833,-2.350872198760104,1.769365782190311,1.688257311661105,-0.08920466896130415
0.1640000343322754,0.4660609996969889,-0.0005973547826853899,0.6407263495949438,0.0,0.0,0.0,1.0,0.0007263092071309764,-0.007112564488131966,-0.0389785941160294,1.6472031424067912,-1.513947888383256,-1.3475786992496803,-2.3509004869098713,1.769292070318095,1.6882063694495517,-0.08919019418325214
0.16500020027160645,0.4660617260062305,-0.0006044673475113506,0.6406873709989763,0.0,0.0,0.0,1.0,0.0007302031288949156,-0.007150696690485783,-0.039187567917360805,1.647174533481565,-1.5139688798792812,-1.3476657222011705,-2.3509289155740856,1.7692179563109556,1.688155151991005,-0.08917564070980188
0.1660001277923584,0.4660624562093941,-0.0006116180445414762,0.6406481834291976,0.0,0.0,0.0,1.0,0.0007340860037805876,-0.007188720713522449,-0.039395948869558536,1.647145777372086,-1.5139899804416863,-1.3477532159555063,-2.3509574841231955,1.7691434412293467,1.6881036600598265,-0.0891610087534623
0.16700005531311035,0.46606319029543275,-0.0006188067655964445,0.6406087874784568,0.0,0.0,0.0,1.0,0.0007379577461462614,-0.007226635718573902,-0.03960373237651636,1.64711687461326,-1.5140111896959785,-1.3478411792557246,-2.3509861919239645,1.7690685261427328,1.688051894436035,-0.08914629852839724
0.1679999828338623,0.46606392825321397,-0.0006260334016582651,0.6405691837441992,0.0,0.0,0.0,1.0,0.0007418182709867058,-0.007264440873205165,-0.03981091387628688,1.6470878257447004,-1.5140325072700545,-1.3479296108334726,-2.3510150383393054,1.7689932121266518,1.6879998559100637,-0.08913151025121717
0.16900014877319336,0.4660646700715202,-0.0006332978428765127,0.640529372828432,0.0,0.0,0.0,1.0,0.0007456674939493471,-0.007302135351372572,-0.04001748884194863,1.647058631307345,-1.5140539327800486,-1.3480185094124797,-2.3510440227288663,1.7689175002702333,1.6879475452700803,-0.08911664413884895
0.1700000762939453,0.4660654157390496,-0.0006405999785747182,0.6404893553376894,0.0,0.0,0.0,1.0,0.0007495053313502627,-0.007339718333580389,-0.04022345278246443,1.647029291847511,-1.5140754658476623,-1.3481078737044765,-2.3510731444484074,1.7688413916668886,1.6878949633173634,-0.08910170041111037
0.17100000381469727,0.4660661652444165,-0.0006479396972569164,0.6404491318829963,0.0,0.0,0.0,1.0,0.000753331700190007,-0.007377189007035797,-0.04042880124353072,1.6469998079144736,-1.5140971060901056,-1.3481977024116876,-2.3511024028502363,1.7687648874196358,1.6878421108572694,-0.0890866792891892
0.17200016975402832,0.4660669185761525,-0.0006553168866143499,0.6404087030798326,0.0,0.0,0.0,1.0,0.0007571465181692632,-0.00741454656580216,-0.04063352980841747,1.6469701800601206,-1.5141188531187706,-1.3482879942272317,-2.3511317972832995,1.7686879886417586,1.6877889886979824,-0.08907158099543004
0.17300009727478027,0.46606767572270663,-0.0006627314335323241,0.6403680695480941,0.0,0.0,0.0,1.0,0.0007609497037043146,-0.007451790210950535,-0.040837634098798564,1.64694040884097,-1.514140706547996,-1.3483787478331029,-2.3511613270928935,1.768610696452071,1.6877355976582458,-0.08905640575462552
0.17400002479553223,0.46606843667244646,-0.0006701832240972157,0.6403272319120556,0.0,0.0,0.0,1.0,0.0007647411759423305,-0.007488919150709366,-0.041041109775572085,1.6469104948170015,-1.5141626659902865,-1.3484699619014018,-2.351190991620896,1.768533011977417,1.687681938563036,-0.08904115379328326
0.17500019073486328,0.4660692014136587,-0.0006776721436036297,0.6402861908003308,0.0,0.0,0.0,1.0,0.0007685208547764621,-0.007525932600612311,-0.04124395253967049,1.6468804385498534,-1.5141847310488317,-1.34856163509622,-2.3512207902060998,1.7684549363566142,1.687628012236816,-0.08902582533849497
0.17600011825561523,0.46606996993454997,-0.0006851980765617046,0.6402449468458321,0.0,0.0,0.0,1.0,0.0007722886608607413,-0.0075628297836441375,-0.04144615813286014,1.6468502406050864,-1.5142069013273107,-1.3486537660713758,-2.3512507221838814,1.7683764707351584,1.6875738195121972,-0.08901042061937786
0.1770000457763672,0.4660707422232475,-0.0006927609067045639,0.6402035006857306,0.0,0.0,0.0,1.0,0.0007760445156247769,-0.007599609930384647,-0.04164772233853005,1.6468199015519869,-1.5142291764292506,-1.348746353470659,-2.3512807868862784,1.7682976162655082,1.6875193612292905,-0.08899493986696282
0.17800021171569824,0.4660715182678,-0.0007003605169959106,0.6401618529614139,0.0,0.0,0.0,1.0,0.0007797883412882463,-0.0076362722791505884,-0.04184864098246958,1.646789421963752,-1.5142515559590124,-1.3488393959276888,-2.3513109836419974,1.7682183741064998,1.6874646382365028,-0.08897938331432015
0.1790001392364502,0.46607229805617834,-0.0007079967896377647,0.6401200043184437,0.0,0.0,0.0,1.0,0.0007835200608751735,-0.007672816076135472,-0.04204890993363468,1.6467588024153332,-1.5142740395128114,-1.3489328920681627,-2.3513413117768076,1.7681387454280866,1.6874096513824575,-0.08896375119520301
0.18000006675720215,0.4660730815762764,-0.0007156696060783394,0.6400779554065129,0.0,0.0,0.0,1.0,0.0007872395982279906,-0.007709240575547272,-0.04224852510490253,1.6467280434849922,-1.514296626685532,-1.3490268405083181,-2.3513717706133326,1.7680587314076326,1.6873544015219826,-0.08894804374504357
0.1809999942779541,0.46607386881591206,-0.0007233788470200559,0.6400357068794013,0.0,0.0,0.0,1.0,0.0007909468780213768,-0.007745545039743956,-0.04244748245381426,1.6466971457524395,-1.5143193170630032,-1.3491212398568853,-2.3514023594713946,1.7679783332339805,1.6872988895091474,-0.08893226119978347
0.18200016021728516,0.46607465976282764,-0.0007311243924276935,0.6399932593949313,0.0,0.0,0.0,1.0,0.0007946418257758721,-0.00778172873936679,-0.0426457779833055,1.6466661098063768,-1.514342110254339,-1.3492160887074263,-2.351433077666826,1.7678975520901075,1.6872431162259895,-0.0889164038006643
0.1830000877380371,0.46607545440469117,-0.0007389061215366725,0.6399506136149224,0.0,0.0,0.0,1.0,0.0007983243678712573,-0.007817790953471375,-0.04284340774242452,1.6466349362320172,-1.514365005838973,-1.3493113856511483,-2.35146392451355,1.767816389181359,1.687187082535238,-0.08890047178632751
0.18400001525878906,0.466076252729097,-0.0007467239128614691,0.6399077702051451,0.0,0.0,0.0,1.0,0.0008019944315597004,-0.007853730969656376,-0.04304036782703763,1.6466036256192598,-1.5143880034016988,-1.349407129268597,-2.3514948993222946,1.7677348457166606,1.687130789311448,-0.08888446539800787
0.18500018119812012,0.46607705472356664,-0.0007545776442041577,0.6398647298352738,0.0,0.0,0.0,1.0,0.0008056519449786609,-0.007889548084189901,-0.04323665438052184,1.6465721785627392,-1.5144111025330986,-1.3495033181296614,-2.351526001400622,1.7676529229082225,1.6870742374412933,-0.0888683848795715
0.18600010871887207,0.4660778603755499,-0.000762467192663081,0.6398214931788396,0.0,0.0,0.0,1.0,0.0008092968371635496,-0.007925241602133471,-0.04343226359444421,1.6465405957766313,-1.5144343033201544,-1.3495999506760068,-2.3515572300341927,1.7675706217093874,1.6870174282605606,-0.08885223055028658
0.18700003623962402,0.4660786696724255,-0.0007703924346416433,0.6397780609131822,0.0,0.0,0.0,1.0,0.0008129290380601393,-0.00796081083746355,-0.04362719170922786,1.6465088778421977,-1.5144576052687932,-1.3496970254796297,-2.3515885845281144,1.7674879433901542,1.6869603625941447,-0.08883600264484287
0.18800020217895508,0.46607948260150217,-0.0007783532458572251,0.6397344337194009,0.0,0.0,0.0,1.0,0.0008165484785367222,-0.007996255113190609,-0.04382143501480448,1.6464770252658714,-1.5144810075511237,-1.349794541183643,-2.351620064197489,1.7674048894050056,1.6869030409762338,-0.0888197013501721
0.18900012969970703,0.4660802991500195,-0.0007863495013502174,0.6396906122823046,0.0,0.0,0.0,1.0,0.00082015509039601,-0.00803157376147565,-0.044014989851252934,1.6464450386469593,-1.514504509722189,-1.3498924963304755,-2.3516516683400157,1.7673214610099468,1.68684546428877,-0.08880332691173583
0.19000005722045898,0.46608111930514884,-0.0007943810754931723,0.6396465972903628,0.0,0.0,0.0,1.0,0.0008237488063867727,-0.008066766123744191,-0.044207852609423864,1.6464129185948293,-1.5145281113666942,-1.349990889446726,-2.3516833962495847,1.7672376594511647,1.6867876334466199,-0.08878687958105608
0.19099998474121094,0.46608194305399436,-0.0008024478420000673,0.6396023894356536,0.0,0.0,0.0,1.0,0.0008273295602152128,-0.008101831550797649,-0.04440001973155015,1.6463806657214541,-1.5145518120673895,-1.3500897190508614,-2.3517152472175487,1.7671534859818385,1.6867295493693129,-0.08877035961100119
0.192000150680542,0.46608277038359386,-0.0008105496739356813,0.6395579894138131,0.0,0.0,0.0,1.0,0.0008308972865560714,-0.008136769402922094,-0.0445914877118429,1.646348280637441,-1.5145756113883078,-1.350188983657353,-2.351747220533415,1.7670689418710201,1.686671212966009,-0.08875376725327984
0.19300007820129395,0.46608360128091986,-0.0008186864437250791,0.6395133979239833,0.0,0.0,0.0,1.0,0.0008344519210634614,-0.008171579049994337,-0.04478225309707284,1.6463157639580532,-1.5145995089007354,-1.3502886817705655,-2.35177931548391,1.7669840283896856,1.686612625158541,-0.08873710276226798
0.1940000057220459,0.46608443573288055,-0.0008268580231632027,0.6394686156687592,0.0,0.0,0.0,1.0,0.0008379934003814256,-0.00820625987158533,-0.044972312487136915,1.6462831163000071,-1.5146235041697562,-1.3503888118881036,-2.3518115313535493,1.7668987468178452,1.6865537868693252,-0.08872036639298848
0.19500017166137695,0.46608527372632075,-0.0008350642834245645,0.639423643354136,0.0,0.0,0.0,1.0,0.0008415216621542169,-0.008240811257060833,-0.045161662535610055,1.6462503382831486,-1.5146475967616604,-1.3504893724991565,-2.351843867424413,1.7668130984405082,1.6864946990278638,-0.08870355840218766
0.1960000991821289,0.46608611524802285,-0.0008433050950730428,0.6393784816894553,0.0,0.0,0.0,1.0,0.0008450366450362971,-0.008275232605679325,-0.0453502999502817,1.646217430530784,-1.514671786245602,-1.3505903620842228,-2.351876322976136,1.7667270845467185,1.6864353625721202,-0.08868667904855036
0.19700002670288086,0.46608696028470803,-0.0008515803280717746,0.639333131387351,0.0,0.0,0.0,1.0,0.0008485382887020504,-0.00830952332668713,-0.045538221493677124,1.6461843936683802,-1.5146960721882805,-1.3506917791165078,-2.351908897286173,1.7666407064323175,1.6863757784436786,-0.08866972859189226
0.19800019264221191,0.466087808823037,-0.0008598898517931429,0.6392875931636944,0.0,0.0,0.0,1.0,0.0008520265338552091,-0.008343682839410725,-0.045725423983563315,1.6461512283206257,-1.5147204541415535,-1.3507936220650194,-2.351941589630325,1.7665539654064764,1.6863159475766074,-0.08865270729130416
0.19900012016296387,0.46608866084961137,-0.0008682335350288573,0.639241867737539,0.0,0.0,0.0,1.0,0.0008555013222379924,-0.008377710573346226,-0.04591190429343935,1.6461179351202864,-1.5147449316806973,-1.35089588938552,-2.3519743992813402,1.7664668627711813,1.6862558709314406,-0.08863561541077769
0.20000004768371582,0.46608951635097423,-0.0008766112460001234,0.6391959558310648,0.0,0.0,0.0,1.0,0.0008589625966399492,-0.00841160596824599,-0.046097659353011036,1.6460845146947731,-1.5147695043469693,-1.3509985795344241,-2.3520073255111615,1.7663793998518278,1.6861955494439025,-0.08861845321070219
0.20100021362304688,0.4660903753136117,-0.0008850228523678992,0.6391498581695223,0.0,0.0,0.0,1.0,0.0008624103009065087,-0.00844536847420234,-0.04628268614864973,1.6460509676780837,-1.5147941716991404,-1.3511016909565716,-2.352040367589019,1.7662915779696142,1.6861349840707147,-0.08860122095544282
0.20200014114379883,0.46609123772395356,-0.000893468221243235,0.6391035754811754,0.0,0.0,0.0,1.0,0.000865844379947233,-0.008478997551728394,-0.04646698172383527,1.6460172947079,-1.5148189333012942,-1.3512052220882842,-2.3520735247819555,1.7662033984479755,1.6860741757786157,-0.08858391891151321
0.20300006866455078,0.4660921035683746,-0.0009019472191976942,0.6390571084972445,0.0,0.0,0.0,1.0,0.0008692647797437717,-0.00851249267183595,-0.046650543179582844,1.6459834964209974,-1.5148437887033368,-1.3513091713621654,-2.352106796355631,1.7661148626229057,1.686013125526897,-0.0885665473446779
0.20399999618530273,0.4660929728331956,-0.0009104597122738518,0.6390104579518492,0.0,0.0,0.0,1.0,0.0008726714473575153,-0.008545853316110437,-0.04683336767485375,1.6459495734582283,-1.5148687374626673,-1.3514135372020397,-2.3521401815735463,1.7660259718313007,1.6859518342865947,-0.08854910652311677
0.2050001621246338,0.4660938455046844,-0.0009190055659958685,0.6389636245819499,0.0,0.0,0.0,1.0,0.0008760643309369451,-0.0085790789767829,-0.04701545242694982,1.6459155264596605,-1.5148937791235184,-1.351518318028034,-2.352173679697903,1.7659367274219018,1.6858903030219845,-0.08853159671436088
0.20600008964538574,0.46609472156905696,-0.0009275846453801358,0.6389166091272899,0.0,0.0,0.0,1.0,0.0008794433797246818,-0.008612169156799009,-0.04719679471189169,1.645881356070033,-1.5149189132406982,-1.3516235122510227,-2.3522072899887476,1.765847130742534,1.6858285327116156,-0.08851401818875676
0.2070000171661377,0.46609560101247843,-0.0009361968149459909,0.6388694123303362,0.0,0.0,0.0,1.0,0.000882808544064225,-0.008645123369885072,-0.047377391864780516,1.6458470629327953,-1.5149441393541558,-1.3517291182788584,-2.3522410117050043,1.7657571831535979,1.6857665243255495,-0.08849637121570084
0.20800018310546875,0.46609648382106444,-0.0009448419387264973,0.6388220349362211,0.0,0.0,0.0,1.0,0.0008861597754063897,-0.008677941140611056,-0.04755724128014335,1.645812647698609,-1.5149694570258987,-1.351835134507658,-2.352274844103131,1.7656668860082692,1.6857042788581331,-0.08847865606903843
0.2090001106262207,0.4660973699808819,-0.0009535198802792885,0.6387744776926821,0.0,0.0,0.0,1.0,0.0008894970263154317,-0.008710622004450577,-0.04773634041226194,1.6457781110130114,-1.5149948657870442,-1.3519415593346276,-2.3523087864391896,1.7655762406806812,1.6856417972807227,-0.08846087301925583
0.21000003814697266,0.46609825947795047,-0.0009622305026974714,0.6387267413500025,0.0,0.0,0.0,1.0,0.0008928202504748663,-0.00874316550783788,-0.04791468677548494,1.6457434535284514,-1.515020365189995,-1.3520483911456984,-2.352342837966925,1.765485248537978,1.68557908058805,-0.08844302234111925
0.2110002040863037,0.46609915229824334,-0.0009709736686205874,0.6386788266609512,0.0,0.0,0.0,1.0,0.0008961294026929766,-0.00877557120822178,-0.048092277944523525,1.6457086758969792,-1.5150459547771586,-1.3521556283231573,-2.3523769979390137,1.7653939109569239,1.6855161297702466,-0.08842510430905196
0.21200013160705566,0.4661000484276886,-0.0009797492402456264,0.6386307343807225,0.0,0.0,0.0,1.0,0.0008994244389080114,-0.008807838674116563,-0.0482691115547304,1.6456737787726643,-1.515071634091643,-1.3522632692432244,-2.3524112656067167,1.7653022293181042,1.6854529458222582,-0.08840711919867814
0.21300005912780762,0.4661009478521702,-0.0009885570793380929,0.6385824652668751,0.0,0.0,0.0,1.0,0.000902705316193073,-0.00883996748514985,-0.04844518530236203,1.6456387628101508,-1.5150974026712685,-1.3523713122776273,-2.352445640220169,1.7652102050090301,1.685389529738401,-0.08838906728591821
0.21399998664855957,0.4661018505575293,-0.0009973970472431186,0.6385340200792717,0.0,0.0,0.0,1.0,0.0009059719927606923,-0.008871957232107404,-0.048620496944824274,1.6456036286680402,-1.515123260063465,-1.3524797557901695,-2.352480121027873,1.7651178394160927,1.6853258825255142,-0.08837094884914207
0.21500015258789062,0.46610275652956507,-0.0010062690048966215,0.6384853995800176,0.0,0.0,0.0,1.0,0.0009092244279670946,-0.0089038075169749,-0.048795044300901196,1.6455683770036962,-1.5151492058030647,-1.352588598142193,-2.3525147072776016,1.765025133936329,1.6852620051830687,-0.08835276416588905
0.21600008010864258,0.4661036657540362,-0.0010151728128365044,0.638436604533399,0.0,0.0,0.0,1.0,0.0009124625823161531,-0.008935517952976643,-0.04896882525096734,1.6455330084762108,-1.5151752394253744,-1.352697837689587,-2.3525493982159635,1.7649320899703473,1.6851978987146967,-0.0883345135147563
0.21700000762939453,0.4661045782166619,-0.0010241083312138954,0.6383876357058221,0.0,0.0,0.0,1.0,0.0009156864174630303,-0.008967088164611224,-0.04914183773718308,1.6454975237473786,-1.5152013604706789,-1.3528074727818507,-2.352584193088291,1.7648387089198327,1.6851335641320873,-0.08831619717602812
0.21800017356872559,0.46610549390312284,-0.0010330754198044204,0.6383384938657508,0.0,0.0,0.0,1.0,0.0009188958962175094,-0.00899851778768415,-0.04931407976367346,1.645461923480851,-1.5152275684808554,-1.3529175017630466,-2.3526190911388345,1.7647449921892608,1.6850690024518598,-0.08829781543115196
0.21900010108947754,0.4661064127990627,-0.0010420739380195112,0.6382891797836449,0.0,0.0,0.0,1.0,0.0009220909825470152,-0.009029806469337417,-0.049485549396690275,1.645426208338636,-1.515253862984437,-1.3530279229755204,-2.35265409161138,1.7646509411937759,1.6850042146821398,-0.08827936856052697
0.2200000286102295,0.46610733489008904,-0.0010511037449177413,0.6382396942318977,0.0,0.0,0.0,1.0,0.0009252716415793241,-0.00906095386807606,-0.04965624476475752,1.6453903789865156,-1.5152802435203785,-1.3531387347543524,-2.352689193748416,1.76455655734641,1.684939201843618,-0.08826085684694975
0.22100019454956055,0.4661082601617746,-0.0010601646992161894,0.6381900379847745,0.0,0.0,0.0,1.0,0.000928437839604965,-0.009091959653791656,-0.04982616405880025,1.645354436089013,-1.5153067096164927,-1.3532499354326646,-2.352724396792007,1.7644618420695015,1.6848739649502242,-0.08824228057243638
0.2220001220703125,0.4661091885996583,-0.001069256659301826,0.638140211818349,0.0,0.0,0.0,1.0,0.0009315895440793117,-0.009122823507782814,-0.049995305532256853,1.6453183803141398,-1.5153332608103078,-1.3533615233367693,-2.3527596999830687,1.7643667967834649,1.684808505027593,-0.08822364002124052
0.22300004959106445,0.4661101201892466,-0.0010783794832429196,0.6380902165104421,0.0,0.0,0.0,1.0,0.0009347267236243682,-0.009153545122772668,-0.05016366750117489,1.6452822123303648,-1.5153598966361896,-1.3534734967893987,-2.352795102561909,1.7642714229135705,1.6847428231014734,-0.08820493547794123
0.2240002155303955,0.4661110549160146,-0.0010875330288004624,0.6380400528405582,0.0,0.0,0.0,1.0,0.0009378493480302465,-0.009184124202923333,-0.05033124834429036,1.6452459328060447,-1.51538661662312,-1.3535858541103787,-2.352830603768377,1.7641757218910348,1.6846769201956404,-0.08818616722709464
0.22500014305114746,0.4661119927654072,-0.0010967171534396081,0.6379897215898233,0.0,0.0,0.0,1.0,0.0009409573882563397,-0.009214560463847407,-0.0504980465030907,1.6452095424113191,-1.5154134203031966,-1.35369859361474,-2.3528662028415996,1.7640796951483877,1.6846107973393458,-0.08816733555444395
0.22600007057189941,0.4661129337228402,-0.0011059317143411237,0.6379392235409216,0.0,0.0,0.0,1.0,0.0009440508164321922,-0.009244853632616488,-0.05066406048186146,1.6451730418173907,-1.5154403072087768,-1.3538117136135466,-2.35290189902015,1.7639833441209023,1.6845444555646583,-0.08814844074647435
0.22699999809265137,0.46611387777370145,-0.0011151765684128472,0.6378885594780334,0.0,0.0,0.0,1.0,0.0009471296058580662,-0.009275003447766715,-0.050829288847716696,1.645136431694981,-1.5154672768660147,-1.3539252124155872,-2.352937691542351,1.763886670249947,1.684477895900595,-0.08812948308944242
0.22800016403198242,0.46611482490335227,-0.001124451572301153,0.6378377301867714,0.0,0.0,0.0,1.0,0.0009501937310052081,-0.009305009659301389,-0.05099373023061331,1.645099712716313,-1.5154943288037497,-1.3540390883253928,-2.352973579645997,1.7637896749781465,1.684411119380918,-0.08811046287064499
0.22900009155273438,0.4661157750971284,-0.0011337565824024185,0.6377867364541187,0.0,0.0,0.0,1.0,0.0009532431675158164,-0.00933487202869065,-0.05115738332334929,1.645062885556164,-1.5155214625583886,-1.3541533396422136,-2.3530095625682366,1.7636923597466807,1.6843441270483708,-0.0880913803790965
0.23000001907348633,0.46611672834034124,-0.0011430914548744917,0.6377355790683654,0.0,0.0,0.0,1.0,0.0009562778922027127,-0.009364590328868253,-0.05132024688154606,1.6450259508858038,-1.5155486776477152,-1.354267964666433,-2.353045639546609,1.7635947260091638,1.684276919931232,-0.08807223590169476
0.23100018501281738,0.46611768461827885,-0.0011524560456481541,0.6376842588190463,0.0,0.0,0.0,1.0,0.0009592978830487178,-0.00939416434422547,-0.051482319723615,1.6449889093814827,-1.5155759736081826,-1.354382961690786,-2.3530818098177044,1.7634967752116495,1.6842094990764187,-0.08805302972861259
0.23200011253356934,0.46611864391620744,-0.0011618502104385785,0.6376327764968774,0.0,0.0,0.0,1.0,0.0009623031192057347,-0.009423593870602097,-0.05164360073070824,1.644951761718932,-1.5156033499712065,-1.3544983290061807,-2.3531180726181176,1.7633985088051838,1.6841418655282514,-0.0880337621498226
0.2330000400543213,0.4661196062193724,-0.0011712738047567773,0.6375811328936938,0.0,0.0,0.0,1.0,0.0009652935809935425,-0.009452878715274653,-0.05180408884665393,1.644914508570058,-1.5156308062489363,-1.3546140649052454,-2.353154427185032,1.7632999282532993,1.6840740203156703,-0.08801443345300766
0.23400020599365234,0.46612057151299924,-0.0011807266839210396,0.6375293288023866,0.0,0.0,0.0,1.0,0.0009682692498983014,-0.009482018696941732,-0.05196378307787599,1.6448771506129354,-1.5156583419782101,-1.3547301676719576,-2.3531908727546353,1.7632010350084695,1.6840059644912664,-0.08799504392990916
0.2350001335144043,0.46612153978229515,-0.001190208703068353,0.6374773650168405,0.0,0.0,0.0,1.0,0.0009712301085707722,-0.00951101364570657,-0.05212268249329859,1.6448396885240215,-1.5156859566867957,-1.3548466355898656,-2.353227408563443,1.763101830530022,1.683937699101099,-0.08797559387140058
0.23600006103515625,0.46612251101244984,-0.0011997197171658084,0.6374252423318715,0.0,0.0,0.0,1.0,0.000974176140824255,-0.009539863403056865,-0.05228078622423551,1.6448021229804355,-1.51571364990361,-1.3549634669397892,-2.353264033847971,1.7630023162785908,1.6838692251936829,-0.08795608356894045
0.2369999885559082,0.46612348518863694,-0.0012092595810219845,0.637372961543164,0.0,0.0,0.0,1.0,0.0009771073316322454,-0.009568567821841813,-0.05243809346426433,1.64476445465627,-1.5157414211428104,-1.3550806600037693,-2.3533007478453887,1.762902493724507,1.6838005438057055,-0.0879365133122432
0.23800015449523926,0.466124462296015,-0.0012188281492983089,0.6373205234472091,0.0,0.0,0.0,1.0,0.0009800236671258157,-0.009597126766246475,-0.05259460346908595,1.644726684232189,-1.5157692699461196,-1.3551982130550873,-2.3533375497919944,1.762802364325125,1.6837316559996083,-0.08791688339537605
0.2390000820159912,0.4661254423197287,-0.0012284252765203945,0.637267928841242,0.0,0.0,0.0,1.0,0.000982925134590721,-0.009625540111763429,-0.05275031555636921,1.6446888123822918,-1.515797195825508,-1.3553161243721206,-2.353374438925415,1.762701929555299,1.683662562812425,-0.08789719410843717
0.24000000953674316,0.46612642524491,-0.0012380508170893466,0.6372151785231801,0.0,0.0,0.0,1.0,0.000985811722464236,-0.009653807745161794,-0.05290522910558119,1.6446508397852755,-1.5158251983123938,-1.3554343922267162,-2.3534114144828244,1.7626011908810475,1.6835932652994843,-0.08787744574464554
0.24100017547607422,0.46612741105667926,-0.0012477046252930397,0.6371622732915616,0.0,0.0,0.0,1.0,0.0009886834203317217,-0.009681929564453615,-0.053059343557802924,1.6446127671192594,-1.515853276935199,-1.3555530148897053,-2.353448475701836,1.762500149771426,1.68352376451431,-0.08785763859706427
0.24200010299682617,0.4661283997401466,-0.0012573865553173603,0.6371092139454836,0.0,0.0,0.0,1.0,0.0009915402189229294,-0.009709905478857667,-0.053212658415531085,1.6445745950603978,-1.5158814312135114,-1.3556719906324386,-2.353485621820778,1.7623988077015467,1.6834540615033091,-0.08783777295773311
0.24300003051757812,0.4661293912804126,-0.0012670964612574137,0.6370560012845405,0.0,0.0,0.0,1.0,0.0009943821101080442,-0.009737735408760701,-0.05336517324246559,1.6445363242872955,-1.515909660677738,-1.3557913177222323,-2.3535228520780183,1.7622971661420004,1.6833841573231585,-0.08781784912047769
0.24400019645690918,0.4661303856625699,-0.001276834197128692,0.6370026361087634,0.0,0.0,0.0,1.0,0.0009972090868934694,-0.009765419285676175,-0.05351688766328341,1.644497955478869,-1.5159379648599631,-1.355910994424694,-2.353560165712356,1.7621952265636394,1.6833140530325574,-0.08779786737955997
0.24500012397766113,0.4661313828717042,-0.0012865996168782007,0.6369491192185582,0.0,0.0,0.0,1.0,0.0010000211434173574,-0.00979295705220048,-0.05366780136339874,1.644459489310011,-1.515966343275131,-1.3560310190083666,-2.3535975619637806,1.762092990447516,1.683243749675352,-0.08777782802693922
0.24600005149841309,0.4661323828928951,-0.0012963925743955417,0.6368954514146458,0.0,0.0,0.0,1.0,0.0010028182749448927,-0.009820348661966752,-0.053817914088709805,1.6444209264595202,-1.5159947954561768,-1.356151389736466,-2.353635040072219,1.761990459266053,1.6831732483117148,-0.08775773135730965
0.24700021743774414,0.46613338571121765,-0.00130621292352395,0.6368416334980008,0.0,0.0,0.0,1.0,0.0010056004778633246,-0.009847594079596227,-0.053967225645332316,1.6443822676037985,-1.5160233209265415,-1.3562721048735966,-2.353672599278609,1.7618876344976093,1.6831025499935548,-0.08773757766411051
0.2480001449584961,0.4661343913117433,-0.0013160605180712818,0.6367876662697922,0.0,0.0,0.0,1.0,0.0010083677496767597,-0.009874693280647245,-0.05411573589932001,1.644343513417548,-1.5160519192034763,-1.356393162685098,-2.3537102388248328,1.7617845176246216,1.6830316557673513,-0.08771736723997867
0.24900007247924805,0.4661353996795409,-0.0013259352118209517,0.6367335505313225,0.0,0.0,0.0,1.0,0.0010111200890007158,-0.009901646251561919,-0.054263444776372335,1.6443046645801322,-1.5160805898263345,-1.3565145614304237,-2.353747957952717,1.7616811101184249,1.6829605666992375,-0.08769710038078907
0.25,0.4661364107996779,-0.0013358368585428167,0.6366792870839688,0.0,0.0,0.0,1.0,0.00101385749555644,-0.00992845298961049,-0.05441035226152955,1.6442657217692493,-1.5161093323289516,-1.3566362993698802,-2.3537857559051165,1.7615774134538884,1.6828892838502998,-0.08767677738165396
0.25100016593933105,0.4661374246572216,-0.0013457653120040034,0.6366248767291229,0.0,0.0,0.0,1.0,0.0010165799701649966,-0.009955113502833433,-0.05455645839885542,1.6442266856554617,-1.5161381462156927,-1.3567583747704948,-2.3538236319268493,1.7614734291220953,1.6828178082551324,-0.08765639853345747
0.252000093460083,0.46613844123724,-0.0013557204259796794,0.6365703202681328,0.0,0.0,0.0,1.0,0.001019287514741128,-0.009981627809981346,-0.05470176329110782,1.6441875569175475,-1.5161670310294932,-1.3568807858898833,-2.3538615852622278,1.7613691585939681,1.6827461409823268,-0.08763596413260456
0.25300002098083496,0.46613946052480315,-0.0013657020542637626,0.6365156185022435,0.0,0.0,0.0,1.0,0.0010219801322868948,-0.010007995940452652,-0.05484626709939729,1.6441483362297524,-1.5161959862958017,-1.3570035309897903,-2.353899615157189,1.7612646033500698,1.6826742830844446,-0.08761547447293919
0.254000186920166,0.46614048250498397,-0.0013757100506795695,0.636460772232539,0.0,0.0,0.0,1.0,0.0010246578268850942,-0.01003421793422917,-0.05498997004283399,1.6441090242661074,-1.516225011541886,-1.3571266083316094,-2.3539377208586294,1.7611597648702157,1.6826022356150985,-0.08759492984849511
0.25500011444091797,0.4661415071628595,-0.0013857442690903986,0.6364057822598843,0.0,0.0,0.0,1.0,0.0010273206036924701,-0.010060293841809599,-0.05513287239816316,1.6440696216996713,-1.5162541062937278,-1.3572500161772603,-2.3539759016145716,1.7610546446350412,1.682529999626087,-0.08757433055302055
0.2560000419616699,0.466142534483512,-0.0013958045634100465,0.6363506493848675,0.0,0.0,0.0,1.0,0.0010299684689327076,-0.010086223724140935,-0.055274974499389236,1.6440301292045185,-1.516283270085046,-1.3573737527871668,-2.3540141566738804,1.7609492441210979,1.6824575761753235,-0.08755367688124721
0.257000207901001,0.46614356445202987,-0.0014058907876132573,0.6362953744077428,0.0,0.0,0.0,1.0,0.001032601429889227,-0.01011200765254789,-0.05541627673738911,1.6439905474523686,-1.5163125024426252,-1.3574978164238967,-2.3540524852868527,1.7608435648085883,1.6823849663136632,-0.0875329691267617
0.25800013542175293,0.4661445970535088,-0.0014160027957460998,0.6362399581283732,0.0,0.0,0.0,1.0,0.0010352194948977757,-0.010137645708660353,-0.055556779559514546,1.6439508771156008,-1.5163418028998843,-1.3576222053490532,-2.3540908867047694,1.7607376081740411,1.6823121710968871,-0.08751220758392236
0.2590000629425049,0.4661456322730529,-0.0014261404419362725,0.6361844013461748,0.0,0.0,0.0,1.0,0.0010378226733388232,-0.010163137984338919,-0.055696483469184085,1.6439111188616615,-1.5163711709723109,-1.3577469178292745,-2.354129360180849,1.7606313757033185,1.6822391915637234,-0.08749139254432176
0.25999999046325684,0.46614667009577554,-0.0014363035804033347,0.6361287048600602,0.0,0.0,0.0,1.0,0.001040410975629765,-0.010188484581598541,-0.05583538902546464,1.6438712733663492,-1.5164006062166457,-1.3578719521222242,-2.3541679049681097,1.760524868859979,1.6821660287884435,-0.08747052430522098
0.2610001564025879,0.4661477105068006,-0.0014464920654688603,0.6360728694683827,0.0,0.0,0.0,1.0,0.0010429844132169412,-0.010213685612530362,-0.055973496842643106,1.643831341295646,-1.5164301081504705,-1.3579973064959359,-2.3542065203223896,1.7604180891280543,1.682092683809163,-0.08744960315803048
0.26200008392333984,0.46614875349126333,-0.0014567057515665147,0.6360168959688814,0.0,0.0,0.0,1.0,0.0010455429985674698,-0.010238741199221753,-0.05611080758978815,1.6437913233165555,-1.5164596763005094,-1.3581229792174003,-2.3542452055006056,1.7603110379862141,1.6820191576707475,-0.08742862939519218
0.2630000114440918,0.4661497990343116,-0.0014669444932520505,0.6359607851586265,0.0,0.0,0.0,1.0,0.0010480867451609045,-0.010263651473674612,-0.05624732199030248,1.6437512200981512,-1.516489310207567,-1.3582489685515127,-2.354283959760622,1.7602037169050484,1.68194545142911,-0.08740760331085418
0.26400017738342285,0.46615084712110655,-0.0014772081452132223,0.6359045378339646,0.0,0.0,0.0,1.0,0.0010506156674807185,-0.01028841657772197,-0.056383040821465835,1.6437110323074111,-1.5165190094082122,-1.3583752727655778,-2.3543227823619723,1.7600961273567457,1.6818715661348065,-0.08738652519823147
0.2650001049041748,0.4661518977368239,-0.0014874965622796179,0.6358481547904651,0.0,0.0,0.0,1.0,0.00105312978100562,-0.010313036662942953,-0.0565179649139689,1.643670760607207,-1.516548773426041,-1.358501890131523,-2.354361672566223,1.7599882708196635,1.6817975028251544,-0.08736539534834004
0.26600003242492676,0.4661529508666549,-0.0014978095994324038,0.6357916368228667,0.0,0.0,0.0,1.0,0.0010556291022007058,-0.010337511890576129,-0.0566520951514385,1.643630405663846,-1.5165786018054697,-1.3586288189179485,-2.3544006296357787,1.7598801487602316,1.6817232625542278,-0.08734421405478791
0.2670001983642578,0.46615400649580724,-0.0015081471118139854,0.6357349847250244,0.0,0.0,0.0,1.0,0.001058113648508452,-0.010361842431431312,-0.05678543246995422,1.643589968140268,-1.5166084940816613,-1.3587560573974382,-2.3544396528350306,1.7597717626488987,1.681648846365985,-0.08732298160946353
0.26800012588500977,0.466155064609506,-0.0015185089547375779,0.6356781992898574,0.0,0.0,0.0,1.0,0.0010605834383395551,-0.010386028465799845,-0.05691797785755674,1.643549448697923,-1.5166384497890888,-1.3588836038446352,-2.3544787414300856,1.759663113955486,1.6815742553017952,-0.08730169830373606
0.2690000534057617,0.4661561251929947,-0.0015288949836966875,0.6356212813092963,0.0,0.0,0.0,1.0,0.0010630384910636213,-0.010410070183363443,-0.057049732353748286,1.6435088479982727,-1.5166684684684493,-1.3590114565347122,-2.3545178946885565,1.7595542041454166,1.6814994904065008,-0.08728036442941285
0.26999998092651367,0.4661571882315363,-0.0015393050543745027,0.6355642315742328,0.0,0.0,0.0,1.0,0.0010654788269997106,-0.010433967783101582,-0.05718069704898508,1.6434681667012998,-1.5166985496602174,-1.3591396137450324,-2.3545571118798434,1.7594450346830723,1.68142455272259,-0.0872589802778017
0.2710001468658447,0.4661582537104139,-0.001549739022653191,0.6355070508744679,0.0,0.0,0.0,1.0,0.0010679044674067445,-0.010457721473197564,-0.05731087308416258,1.643427405461584,-1.5167286928873065,-1.3592680737594094,-2.3545963922758073,1.7593356070409525,1.6813494432746592,-0.08723754613722354
0.2720000743865967,0.46615932161493207,-0.0015601967446231037,0.6354497399986616,0.0,0.0,0.0,1.0,0.0010703154344737743,-0.01048133147094322,-0.05744026165009318,1.6433865649408985,-1.5167588977115873,-1.3593968348547287,-2.3546357351487424,1.7592259226694735,1.6812741631196488,-0.0872160623010158
0.27300000190734863,0.46616039193041736,-0.0015706780765918835,0.6353922997342832,0.0,0.0,0.0,1.0,0.0010727117513101225,-0.01050479800264237,-0.0575688639869772,1.6433456457932278,-1.5167891636671065,-1.3595258953170126,-2.3546751397738652,1.7591159830324776,1.6811987132872903,-0.0871945290580287
0.2740001678466797,0.46616146464221964,-0.001581182875093477,0.6353347308675619,0.0,0.0,0.0,1.0,0.001075093441935397,-0.010528121303513027,-0.05769668138386693,1.6433046486720098,-1.5168194902926522,-1.359655253433759,-2.3547146054281627,1.7590057895898008,1.681123094809017,-0.08717294669722706
0.27500009536743164,0.46616253973571264,-0.001591710996897049,0.6352770341834375,0.0,0.0,0.0,1.0,0.0010774605312693863,-0.010551301617588452,-0.05782371517812437,1.6432635742299848,-1.516849877131286,-1.3597849074941677,-2.3547541313904445,1.7588953437974437,1.6810473087174524,-0.08715131550760064
0.2760000228881836,0.46616361719629507,-0.0016022622990157973,0.6352192104655129,0.0,0.0,0.0,1.0,0.0010798130451218366,-0.010574339197617036,-0.057949966754872545,1.6432224231178614,-1.5168803237245518,-1.3599148557906382,-2.3547937169416002,1.7587846471105801,1.6809713560411739,-0.08712963577732234
0.27700018882751465,0.46616469700939145,-0.0016128366387156685,0.6351612604960055,0.0,0.0,0.0,1.0,0.0010821510101821203,-0.01059723430496113,-0.05807543754644111,1.6431811959894351,-1.516910829635654,-1.3600450966133477,-2.3548333613637866,1.7586737009711326,1.6808952378252557,-0.08710790779700306
0.2780001163482666,0.46616577916045304,-0.0016234338735239713,0.6351031850557006,0.0,0.0,0.0,1.0,0.0010844744540087958,-0.010619987209494808,-0.05820012903180604,1.643139893489133,-1.5169413943937429,-1.3601756282636617,-2.3548730639425055,1.7585625068373794,1.6808189550815869,-0.08708613185179248
0.27900004386901855,0.4661668636349586,-0.0016340538612378884,0.6350449849239045,0.0,0.0,0.0,1.0,0.0010867834050190687,-0.010642598189500658,-0.05832404273602402,1.6430985162634626,-1.5169720175454597,-1.3603064490419405,-2.3549128239647534,1.7584510661564194,1.680742508834673,-0.08706430822864808
0.2800002098083496,0.4661679504184152,-0.0016446964599328854,0.6349866608783982,0.0,0.0,0.0,1.0,0.001089077892478152,-0.010665067531565597,-0.0584471802296615,1.643057064959065,-1.5170026986464211,-1.36043755724968,-2.3549526407193744,1.7583393803686331,1.6806659001139752,-0.08704243721510886
0.28100013732910156,0.4661690394963594,-0.0016553615279710145,0.6349282136953924,0.0,0.0,0.0,1.0,0.001091357946488538,-0.010687395530475806,-0.05856954312821889,1.6430155402211968,-1.51703343725458,-1.3605689511912031,-2.354992513497336,1.7582274509111488,1.6805891299479163,-0.08702051909833236
0.2820000648498535,0.4661701308543577,-0.0016660489240091143,0.6348696441494823,0.0,0.0,0.0,1.0,0.001093623597979181,-0.010709582489110801,-0.058691133091550066,1.6429739426874341,-1.5170642329020583,-1.3607006291804897,-2.355032441592792,1.7581152792327746,1.6805121993387222,-0.08699855416110663
0.28299999237060547,0.46617122447800763,-0.001676758507006903,0.6348109530136031,0.0,0.0,0.0,1.0,0.001095874878694597,-0.010731628718336689,-0.058811951823277385,1.6429322730037281,-1.5170950851675993,-1.360832589523988,-2.35507242430048,1.7580028667553305,1.6804351093268475,-0.08697654269204444
0.2840001583099365,0.4661723203529384,-0.0016874901362349648,0.6347521410589865,0.0,0.0,0.0,1.0,0.0010981118211838858,-0.01075353453689867,-0.05893200107020254,1.6428905317994247,-1.5171259935642196,-1.36096483054753,-2.3551124609198437,1.7578902149334266,1.6803578608908725,-0.0869544849697329
0.2850000858306885,0.4661734184648117,-0.001698243671282629,0.6346932090551172,0.0,0.0,0.0,1.0,0.0011003344587896791,-0.010775300271312802,-0.05905128262171345,1.6428487197206598,-1.5171569576898838,-1.3610973505604775,-2.3551525507495827,1.75777732517413,1.6802804550815706,-0.08693238128393374
0.28600001335144043,0.46617451879932276,-0.0017090189720657411,0.6346341577696907,0.0,0.0,0.0,1.0,0.0011025428256370194,-0.010796926255757093,-0.05916979830918737,1.642806837394692,-1.517187977066862,-1.361230147894155,-2.3551926930935343,1.7576641989224673,1.6802028928788162,-0.08691023191294998
0.2870001792907715,0.46617562134220075,-0.0017198158988343247,0.634574987968571,0.0,0.0,0.0,1.0,0.0011047369566221756,-0.010818412831961981,-0.05928755000539075,1.6427648854602295,-1.5172190512787007,-1.3613632208692672,-2.355232887255721,1.7575508375883975,1.680125175313447,-0.08688803714288003
0.28800010681152344,0.46617672607920985,-0.0017306343121801337,0.6345157004157497,0.0,0.0,0.0,1.0,0.0011069168874013966,-0.010839760349100197,-0.05940453962387561,1.6427228645450451,-1.517250179869346,-1.3614965678200643,-2.355273132544051,1.7574372426004763,1.6800473033773875,-0.08686579725341124
0.2890000343322754,0.46617783299614984,-0.0017414740730440949,0.6344562958733042,0.0,0.0,0.0,1.0,0.0011090826543796101,-0.010860969163676097,-0.05952076911837306,1.6426807752807868,-1.517281362410201,-1.3616301870784415,-2.355313428267913,1.7573234153700739,1.6799692780832696,-0.08684351252722709
0.29000020027160645,0.4661789420788569,-0.0017523350427236393,0.6343967751013587,0.0,0.0,0.0,1.0,0.0011112342946990716,-0.010882039639414502,-0.05963624048218416,1.6426386182903527,-1.5173125984431894,-1.3617640769876145,-2.3553537737402745,1.7572093573216332,1.6798911004136783,-0.08682118324199653
0.2910001277923584,0.4661800533132044,-0.001763217082879923,0.634337138858044,0.0,0.0,0.0,1.0,0.0011133718462279648,-0.01090297214714907,-0.05975095574756809,1.6425963942018629,-1.5173438875441225,-1.3618982358870988,-2.3553941682754123,1.7570950698588592,1.6798127713774884,-0.08679880967924607
0.29200005531311035,0.4661811666851035,-0.0017741200555449355,0.6342773878994584,0.0,0.0,0.0,1.0,0.0011154953475489596,-0.010923767064710243,-0.05986491698512816,1.6425541036405005,-1.5173752292859652,-1.362032662121565,-2.355434611190274,1.756980554384218,1.6797342919770941,-0.08677639211918606
0.2929999828338623,0.46618228218050406,-0.0017850438231284968,0.6342175229796299,0.0,0.0,0.0,1.0,0.0011176048379477343,-0.010944424776812846,-0.059978126303195746,1.6425117472235338,-1.5174066232163868,-1.3621673540462822,-2.3554751018053235,1.7568658123108296,1.6796556631883572,-0.08675393083755342
0.29400014877319336,0.4661833997853951,-0.0017959882484251419,0.6341575448504778,0.0,0.0,0.0,1.0,0.00111970035740146,-0.010964945674943318,-0.06009058584721236,1.6424693255728207,-1.5174380689145859,-1.3623023100136558,-2.3555156394425043,1.7567508450321454,1.6795768860111244,-0.0867314261135527
0.2950000762939453,0.46618451948580564,-0.0018069531946208921,0.6340974542617764,0.0,0.0,0.0,1.0,0.001121781946567259,-0.010985330157246695,-0.060202297799110224,1.6424268393020593,-1.5174695659336173,-1.3624375283870682,-2.3555562234273624,1.7566356539525998,1.6794979614178227,-0.08670887822176648
0.29600000381469727,0.4661856412678055,-0.001817938525299914,0.6340372519611178,0.0,0.0,0.0,1.0,0.0011238496467706333,-0.011005578628413287,-0.06031326437669131,1.642384289030193,-1.5175011138613776,-1.362573007526425,-2.3555968530868623,1.7565202404550748,1.67941889040768,-0.08668628744066821
0.2970001697540283,0.4661867651175056,-0.0018289441044510642,0.6339769386938764,0.0,0.0,0.0,1.0,0.0011259034999938765,-0.011025691499565202,-0.060423487833005364,1.6423416753715536,-1.517532712276025,-1.3627087457988682,-2.3556375277510275,1.7564046059245833,1.679339673966978,-0.08666365404636975
0.2980000972747803,0.46618789102105906,-0.0018399697964743217,0.6339165152031734,0.0,0.0,0.0,1.0,0.0011279435488644658,-0.011045669188142664,-0.06053297045572698,1.6422989989286638,-1.5175643607132974,-1.3628447415866531,-2.3556782467541466,1.7562887517656067,1.6792603130398975,-0.08664097830805197
0.2990000247955322,0.46618901896466153,-0.0018510154661871055,0.6338559822298425,0.0,0.0,0.0,1.0,0.001129969836643438,-0.011065512117790194,-0.06064171456653182,1.6422562603197512,-1.5175960587918447,-1.362980993257348,-2.3557190094302727,1.756172679335311,1.679180808640024,-0.08661826050543814
0.3000001907348633,0.46619014893455185,-0.0018620809788304795,0.6337953405123956,0.0,0.0,0.0,1.0,0.0011319824072137615,-0.011085220718242727,-0.060749722520472504,1.6422134601427734,-1.5176278060496395,-1.3631174992029178,-2.3557598151191512,1.7560563900305877,1.6791011617046647,-0.08659550090595605
0.30100011825561523,0.46619128091701284,-0.0018731662000752419,0.6337345907869897,0.0,0.0,0.0,1.0,0.0011339813050686965,-0.01110479542521164,-0.060856996705354015,1.6421705990087223,-1.5176596020957511,-1.3632542578036189,-2.3558006631607697,1.755939885207195,1.6790213732298918,-0.08657269978588429
0.3020000457763672,0.46619241489837177,-0.001884270996027903,0.6336737337873938,0.0,0.0,0.0,1.0,0.0011359665753001577,-0.011124236680270782,-0.06096353954110909,1.6421276775157438,-1.517691446492567,-1.3633912674561557,-2.355841552899631,1.7558231662424053,1.6789414441656463,-0.0865498574139271
0.30300021171569824,0.466193550865001,-0.0018953952332365466,0.6336127702449571,0.0,0.0,0.0,1.0,0.0011379382635870762,-0.011143544930742502,-0.061069353479173714,1.6420846962641729,-1.5177233388244242,-1.3635285265573964,-2.355882483682296,1.7557062344984176,1.6788613754767698,-0.0865269740607585
0.3040001392364502,0.46619468880331866,-0.0019065387786965792,0.6335517008885773,0.0,0.0,0.0,1.0,0.0011398964161837687,-0.011162720629583761,-0.06117444100186287,1.6420416558504909,-1.5177552786701853,-1.3636660335109847,-2.3559234548583974,1.7555890913369026,1.6787811681185387,-0.08650404999519018
0.30500006675720215,0.466195828699789,-0.0019177014998563637,0.6334905264446697,0.0,0.0,0.0,1.0,0.0011418410799083137,-0.011181764235272298,-0.06127880462174678,1.6419985568711315,-1.517787265620737,-1.3638037867232435,-2.3559644657800334,1.7554717381096374,1.678700823052186,-0.08648108548659086
0.3059999942779541,0.46619697054092313,-0.0019288832646227414,0.6334292476371374,0.0,0.0,0.0,1.0,0.001143772302130943,-0.011200676211692951,-0.06138244688102788,1.6419553999177021,-1.517819299257266,-1.3639417846084243,-2.3560055158025675,1.755354176170019,1.6786203412255116,-0.08645808080185409
0.30700016021728516,0.46619811431327957,-0.001940083941366438,0.6333678651873408,0.0,0.0,0.0,1.0,0.0011456901307624464,-0.011219457028024104,-0.061485370350918556,1.6419121855809549,-1.5178513791695225,-1.3640800255844248,-2.3560466042839923,1.7552364068632949,1.6785397235890827,-0.0864350362079213
0.3080000877380371,0.46619926000346473,-0.0019513033989273577,0.6333063798140695,0.0,0.0,0.0,1.0,0.001147594614242598,-0.011238107158624359,-0.061587577631020025,1.6418689144485845,-1.5178835049458546,-1.364218508075234,-2.3560877305853087,1.7551184315318167,1.6784589710873168,-0.08641195197038552
0.30900001525878906,0.46620040759813347,-0.0019625415066197634,0.6332447922335132,0.0,0.0,0.0,1.0,0.0011494858015286052,-0.011256627082919404,-0.0616890713487024,1.6418255871039389,-1.5179156761673964,-1.3643572305123854,-2.356128894070751,1.755000251518088,1.6783780846532566,-0.08638882835267517
0.3100001811981201,0.4662015570839896,-0.001973798134237344,0.6331831031592344,0.0,0.0,0.0,1.0,0.0011513637420835826,-0.011275017285289159,-0.06178985415848618,1.6417822041336045,-1.5179478924429526,-1.36449619132671,-2.356170094106559,1.7548818681461509,1.6782970652395692,-0.08636566562087283
0.31100010871887207,0.46620270844778633,-0.0019850731520581677,0.633121313302141,0.0,0.0,0.0,1.0,0.0011532284858650577,-0.011293278254955196,-0.061889928741425335,1.6417387664327165,-1.517980154811549,-1.364635388614283,-2.356211330010827,1.7547632819751249,1.6782159150668554,-0.0863424642376184
0.312000036239624,0.466203861676327,-0.0019963664308495247,0.6330594233704601,0.0,0.0,0.0,1.0,0.0011550800833135064,-0.011311410485868492,-0.061989297804492076,1.6416952893435912,-1.5180125307346986,-1.3647748046547663,-2.3562525987304923,1.7546444582124896,1.678134695470089,-0.08631923384170988
0.3130002021789551,0.4662050167564652,-0.0020076778418726565,0.6329974340697112,0.0,0.0,0.0,1.0,0.0011569185853409275,-0.01132941447659752,-0.06208796407996367,1.6416517587010278,-1.5180449521528208,-1.3649144540183633,-2.3562939020630496,1.7545254341842718,1.6780533471571635,-0.08629596533246164
0.31400012969970703,0.4662061736751055,-0.0020190072568873722,0.6329353461026822,0.0,0.0,0.0,1.0,0.0011587440433194522,-0.011347290730216716,-0.06218593032481116,1.641608175085214,-1.518077418701499,-1.365054335153804,-2.356335239386064,1.7544062111849748,1.677971871084064,-0.08627265897431624
0.315000057220459,0.4662073324192038,-0.0020303545481565564,0.6328731601694038,0.0,0.0,0.0,1.0,0.0011605565090699985,-0.011365039754195378,-0.06228319932009048,1.6415645390720779,-1.518109930010154,-1.36519444651749,-2.3563766100804013,1.7542867905084307,1.677890268196061,-0.08624931502961529
0.31599998474121094,0.466208492975768,-0.002041719588450562,0.6328108769671253,0.0,0.0,0.0,1.0,0.0011623560348509698,-0.011382662060286984,-0.06237977387033594,1.6415207154800024,-1.518141859970564,-1.3653349355932574,-2.356418035838406,1.754167506397148,1.6778079825125296,-0.08622584753272278
0.317000150680542,0.46620965533185804,-0.0020531022510514967,0.6327484971902921,0.0,0.0,0.0,1.0,0.001164142673346999,-0.011400158164418972,-0.06247565680295618,1.6414769764291515,-1.5181744594350501,-1.3654755028588608,-2.3564594714245457,1.7540476943546492,1.6777261285894858,-0.08620242922096523
0.31800007820129395,0.4662108194745867,-0.002064502409757394,0.6326860215305218,0.0,0.0,0.0,1.0,0.0011659164776577438,-0.011417528586583018,-0.06257085096763282,1.6414331866953384,-1.518207102566425,-1.3656162957552582,-2.356500938542549,1.7539276884823523,1.6776441506721496,-0.08617897410479589
0.3190000057220459,0.46621198539111974,-0.0020759199388862806,0.6326234506765822,0.0,0.0,0.0,1.0,0.0011676775012867367,-0.011434773850725838,-0.06266535923572211,1.6413893468407605,-1.5182397889854473,-1.3657573127662963,-2.356542436586065,1.753807490062498,1.6775620496767463,-0.08615548244027135
0.32000017166137695,0.4662131530686765,-0.002087354713280129,0.63256078531437,0.0,0.0,0.0,1.0,0.0011694257981302886,-0.01145189448464053,-0.0627591844996594,1.6413454574333346,-1.5182725183531671,-1.3658985523727079,-2.3565839649504605,1.753687100351745,1.6774798265499304,-0.08613195448769174
0.3210000991821289,0.46621432249453015,-0.0020988066083087054,0.6324980261268894,0.0,0.0,0.0,1.0,0.001171161422466451,-0.011468891019858483,-0.06285232967236679,1.641301519031771,-1.5183052903020904,-1.366040013068553,-2.3566255230352846,1.7535665206177586,1.677397482207484,-0.08610839050212407
0.32200002670288086,0.46621549365600823,-0.002110275499873307,0.6324351737942318,0.0,0.0,0.0,1.0,0.001172884428944037,-0.011485763991541866,-0.06294479768666392,1.6412575321959568,-1.518338104484201,-1.3661816933498352,-2.356667110242568,1.7534457521136253,1.677315017577022,-0.08608479073999237
0.3230001926422119,0.4662166665404929,-0.002121761264410393,0.6323722289935554,0.0,0.0,0.0,1.0,0.0011745948725717101,-0.01150251393837676,-0.06303659149468238,1.6412133620088694,-1.5183703329990015,-1.3663237411092775,-2.3567087482459974,1.753325129927456,1.677231875078021,-0.08606106939427832
0.32400012016296387,0.46621784113542125,-0.00213326377889511,0.6323091923990666,0.0,0.0,0.0,1.0,0.0011762928087071334,-0.011519141402466924,-0.06312771406728343,1.6411692800101232,-1.5184032303310429,-1.3664658561318055,-2.3567503919116795,1.7532039877588228,1.6771491723945275,-0.08603739886525658
0.3250000476837158,0.4662190174282858,-0.002144782920844707,0.6322460646820008,0.0,0.0,0.0,1.0,0.0011779782930461894,-0.011535646929228215,-0.06321816839347943,1.641125151237893,-1.518436168848898,-1.3666081862685235,-2.356792062925172,1.7530826605554193,1.6770663521695535,-0.08601369332062626
0.3260002136230469,0.4662201954066348,-0.002156318568321849,0.6321828465106046,0.0,0.0,0.0,1.0,0.001179651381612267,-0.011552031067283672,-0.06330795747985894,1.6410809762382101,-1.5184691481973664,-1.366750730043938,-2.3568337607015777,1.7529611495569553,1.6769834153019743,-0.08598995301046997
0.32700014114379883,0.46622137505807243,-0.002167870599937825,0.6321195385501178,0.0,0.0,0.0,1.0,0.001181312130745624,-0.011568294368359353,-0.06339708435001577,1.6410366591805503,-1.5185017203084747,-1.366893592542368,-2.3568755005031483,1.7528396941363007,1.6768999642478937,-0.08596611695488582
0.3280000686645508,0.4662225563702593,-0.0021794388948556485,0.6320561414627566,0.0,0.0,0.0,1.0,0.0011829605970928212,-0.011584437387180867,-0.06348555204398201,1.6409924480019007,-1.518535033996053,-1.367036498803721,-2.3569172410792993,1.7527176842801282,1.6768170225867696,-0.08594234257867125
0.32899999618530273,0.46622373933091255,-0.0021910233327930607,0.6319926559076972,0.0,0.0,0.0,1.0,0.0011845968375962322,-0.011600460681370644,-0.06357336361766508,1.6409481155281433,-1.5185680310424097,-1.3671796991379155,-2.356959019290819,1.7525956838896832,1.6767336497672856,-0.08591848545699897
0.3300001621246338,0.4662249239278064,-0.002202623794025424,0.63192908254106,0.0,0.0,0.0,1.0,0.0011862209094836338,-0.011616364811345996,-0.06366052214228897,1.6409037385417495,-1.5186010653094648,-1.367323107795253,-2.357000822030352,1.7524735057794734,1.67665016189721,-0.085894594277448
0.33100008964538574,0.46622611014877224,-0.0022142401593885177,0.6318654220158939,0.0,0.0,0.0,1.0,0.0011878328702578738,-0.011632150340217935,-0.06374703070383986,1.6408593175885318,-1.5186341365086775,-1.367466723318725,-2.357042648726692,1.7523511511314471,1.676566559906189,-0.08587066929301782
0.3320000171661377,0.46622729798169893,-0.0022258723102812333,0.6318016749821622,0.0,0.0,0.0,1.0,0.001189432777686621,-0.011647817833690798,-0.06383289240251597,1.6408148532142834,-1.5186672443662999,-1.367610544254809,-2.357084498811382,1.7522286211151716,1.6764828447312317,-0.08584671075731422
